!!!!SEGMENT: pl-wtm--r-1537_stefani-jozef--rendez-vous.krn
!!!cenid: 18xx:2244
!!!COM: Stefani, Józef
!!!COM-rismid: pe30024097
!!!CDT: 1800/04/16-1876/03/19
!!!CNT: Polish
!!!OTL: Rendez-vous
!!!PDT:
!!!AGN:
!!!SMS-siglum: PL-Wtm
!!!SMS-shelfmark: R 1537
!!!SMS-shelfwork: W
!!!SMS-variant:
!!!SMS-altvar:
!!!NIFC-rismid: 1001120477
!!!URL-scan: http://repozytorium.nifc.pl/skany/pl-wtm-nut--r1537
!!!ONB-nifc:
!!!system-decoration: ({s1,s2},s3,s4,{g1},s7,s8,{g2},s11,s12,{g3},s15,s16,s17,s18)
!!!key:
**kern	**dynam	**kern	**dynam	**kern	**text	**dynam	**kern	**dynam	**kern	**dynam	**kern	**dynam	**kern	**dynam	**kern	**dynam	**kern	**dynam	**kern	**dynam	**kern	**dynam	**kern	**dynam	**kern	**dynam	**kern	**dynam	**kern	**dynam	**kern	**dynam	**kern	**dynam	**kern	**dynam
*	*	*	*	*	*	*	*	*	*group3	*group3	*group3	*group3	*	*	*	*	*group2	*group2	*group2	*group2	*	*	*	*	*group1	*group1	*group1	*group1	*	*	*	*	*	*	*	*
*part18	*part18	*part17	*part17	*part16	*part16	*part16	*part15	*part15	*part14	*part14	*part13	*part13	*part12	*part12	*part11	*part11	*part10	*part10	*part9	*part9	*part8	*part8	*part7	*part7	*part6	*part6	*part5	*part5	*part4	*part4	*part3	*part3	*part2	*part2	*part1	*part1
*staff18	*	*staff17	*	*staff16	*staff16	*	*staff15	*	*staff14	*	*staff13	*	*staff12	*	*staff11	*	*staff10	*	*staff9	*	*staff8	*	*staff7	*	*staff6	*	*staff5	*	*staff4	*	*staff3	*	*staff2	*	*staff1	*
*	*	*	*	*	*	*	*	*	*	*	*	*	*	*	*	*	*	*	*	*	*	*	*""Corni	*	*""Corni	*	*	*	*	*	*	*	*	*	*	*
*Icbass	*	*Icello	*	*Ivox	*	*	*Iviola	*	*Ivioln	*	*Ivioln	*	*Iempty	*	*Itimpa	*	*Itromt	*	*Itromt	*	*Itromp	*	*Ifagot	*	*Iempty	*	*Iempty	*	*Iclars	*	*Ioboe	*	*Ipicco	*	*Iflt	*
*I"C:Baſ si	*	*I"Violoncelli	*	*I"Voce	*	*	*I"Viola	*	*I"Violini	*	*I"Violini	*	*I"Banda	*	*I"Timpani D.A.	*	*I"Tromboni	*	*I"Tromboni	*	*I"Trombe in C	*	*I"Fagotti	*	*I"in C	*	*I"in D.	*	*I"in A Clarinetti	*	*I"Oboe	*	*I"Flauto Picolo	*	*I"Flauto	*
*clefF4	*	*clefF4	*	*clefG2	*	*	*clefC3	*	*clefG2	*	*clefG2	*	*clefG2	*	*clefF4	*	*clefF4	*	*clefC4	*	*clefG2	*	*clefF4	*	*clefG2	*	*clefG2	*	*clefG2	*	*clefG2	*	*clefG2	*	*clefG2	*
*ITrd0c0	*	*	*	*	*	*	*	*	*	*	*	*	*ITrd0c0	*	*	*	*	*	*	*	*	*	*	*	*ITrd0c0	*	*ITrd6c10	*	*ITrd2c3	*	*	*	*ITrd0c0	*	*	*
*k[f#c#]	*	*k[f#c#]	*	*k[f#c#]	*	*	*k[f#c#]	*	*k[f#c#]	*	*k[f#c#]	*	*k[f#c#]	*	*k[f#c#]	*	*k[f#c#]	*	*k[f#c#]	*	*k[f#c#]	*	*k[f#c#]	*	*k[]	*	*k[f#c#]	*	*k[f#c#]	*	*k[f#c#]	*	*k[f#c#]	*	*k[f#c#]	*
*D:	*	*D:	*	*D:	*	*	*D:	*	*D:	*	*D:	*	*D:	*	*D:	*	*D:	*	*D:	*	*D:	*	*D:	*	*D:	*	*D:	*	*D:	*	*D:	*	*D:	*	*D:	*
*M3/8	*	*M3/8	*	*M3/8	*	*	*M3/8	*	*M3/8	*	*M3/8	*	*M3/8	*	*M3/8	*	*M3/8	*	*M3/8	*	*M3/8	*	*M3/8	*	*M3/8	*	*M3/8	*	*M3/8	*	*M3/8	*	*M3/8	*	*M3/8	*
=1	=1	=1	=1	=1	=1	=1	=1	=1	=1	=1	=1	=1	=1	=1	=1	=1	=1	=1	=1	=1	=1	=1	=1	=1	=1	=1	=1	=1	=1	=1	=1	=1	=1	=1	=1	=1
*	*	*	*	*	*	*	*	*	*	*	*	*	*^	*	*	*	*	*	*	*	*	*	*	*	*^	*	*	*	*	*	*	*	*	*	*	*
*all\right	*	*all\right	*	*all\right	*	*	*all\right	*	*all\right	*	*all\right	*	*all\right	*	*all\right	*	*all\right	*	*all\right	*	*all\right	*	*all\right	*	*all\right	*	*all\right	*	*all\right	*	*all\right	*	*all\right	*	*all\right	*	*all\right	*
!	!	!	!	!	!	!	!	!	!	!	!	!	!	!	!	!	!	!	!	!	!	!	!	!	!	!	!	!	!	!	!	!	!	!	!	!	!LO:TX:t=P:problem:Drogi Humdrumowiczu:\nZnam zasade z triolami i klamrą łukową, ale tym razem zrobiłem z nich zwykłe legata,\ngdyż te łuki były nieco dłuższe i dopasowywane do frazy/rytmu.	!
!	!LO:DY:rj	!LO:TX:t=P:problem:w taktach 1-24 powtarzam partię cb, oktawę wyżej	!LO:DY:rj	!	!	!	!	!	!	!LO:DY:rj	!	!LO:DY:rj	!	!	!	!	!LO:DY:rj	!	!LO:DY:rj	!	!LO:DY:rj	!	!LO:DY:rj	!	!LO:DY:rj	!	!	!LO:DY:rj	!	!LO:DY:rj	!	!	!	!	!	!	!LO:TX:t=P:problem:all\right:global	!LO:DY:rj
16D\	f	16D\yy	fyy	4.r	.	.	16f#\ 16A\	.	16dd/ 16f#/	f	16.ff#\LL 16.d\	f	16Ree/	16Ra\	.	16D/	f	16D\	f	16f#\ 16A\	f	16.f#/LL 16.d/	f	16A\ 16D\	f	16dd/	16dd\	f	16f#\ 16A\	f	16.f#/LL 16.d/	.	16.ff#\LL 16.dd\	f	16.ff#\LL	.	16.ff#\LL|	f
16r	.	16ryy	.	.	.	.	16r	.	16r	.	.	.	16rff	16rd	.	16r	.	16r	.	16r	.	.	.	16r	.	16r	16r	.	16r	.	.	.	.	.	.	.	.	.
.	.	.	.	.	.	.	.	.	.	.	32aa\JJk 32ff#\	.	.	.	.	.	.	.	.	.	.	32a/JJk 32f#/	.	.	.	.	.	.	.	.	32a/JJk 32f#/	.	32aa\JJk 32ff#\	.	32aa\JJk	.	32aa\JJk|	.
*	*	*	*	*	*	*	*	*	*	*	*	*	*tremolo	*	*	*	*	*	*	*	*	*	*	*	*	*	*	*	*	*	*	*	*	*	*	*	*	*
8D\L	.	8D\Lyy	.	.	.	.	8f#/L 8A/	.	8dd/L 8f#/	.	8ddd\L 8ff#\	.	32Ree/L	8Ra\L	.	8D/L	.	8D\L	.	8f#\L 8A\	.	8dd/L 8f#/	.	8A\L 8D\	.	8dd/L	8dd\L	.	8f#\L 8A\	.	8dd/L 8f#/	.	8ff#\L 8dd\	.	8ddd\L	.	8ddd\L|	.
.	.	.	.	.	.	.	.	.	.	.	.	.	32Ree/	.	.	.	.	.	.	.	.	.	.	.	.	.	.	.	.	.	.	.	.	.	.	.	.	.
.	.	.	.	.	.	.	.	.	.	.	.	.	32Ree/	.	.	.	.	.	.	.	.	.	.	.	.	.	.	.	.	.	.	.	.	.	.	.	.	.
.	.	.	.	.	.	.	.	.	.	.	.	.	32Ree/	.	.	.	.	.	.	.	.	.	.	.	.	.	.	.	.	.	.	.	.	.	.	.	.	.
*	*	*	*	*	*	*	*	*	*	*	*	*	*Xtremolo	*	*	*	*	*	*	*	*	*	*	*	*	*	*	*	*	*	*	*	*	*	*	*	*	*
8D\J	.	8D\Jyy	.	.	.	.	8f#/J 8A/	.	8dd/J 8f#/	.	8ddd\J 8ff#\	.	8Ree/J	8Ra\J	.	8D/J	.	8D\J	.	8f#\J 8A\	.	8dd/J 8f#/	.	8A\J 8D\	.	8dd/J	8dd\J	.	8f#\J 8A\	.	8dd/J 8f#/	.	8ff#\J 8dd\	.	8ddd\J	.	8ddd\J|	.
*	*	*	*	*	*	*	*	*	*	*	*	*	*v	*v	*	*	*	*	*	*	*	*	*	*	*	*v	*v	*	*	*	*	*	*	*	*	*	*	*
=2	=2	=2	=2	=2	=2	=2	=2	=2	=2	=2	=2	=2	=2	=2	=2	=2	=2	=2	=2	=2	=2	=2	=2	=2	=2	=2	=2	=2	=2	=2	=2	=2	=2	=2	=2	=2
*	*	*	*	*	*	*	*	*	*	*	*	*	*	*	*	*	*	*	*	*	*^	*	*	*	*	*	*	*	*	*	*^	*	*	*	*	*
!	!	!	!LO:DYLO:DY:rj	!	!	!	!	!	!	!	!	!LO:DY:rj	!	!	!	!LO:DY:rj	!	!	!	!	!	!	!LO:DY:rj	!	!LO:DY:rj	!	!	!	!LO:DY:rj	!	!	!	!	!	!	!	!	!
8AA/	p	8AA/yy	pyy	4.r	.	.	8r	.	8r	p	16cc#'\LL	p	4.r	.	8AA/	p	4.r	.	4.r	.	16c#/LL|<	4.r	p	8A\ 8AA\	p	8r	.	8r	p	4.r	.	16ee\|LL 16cc#\	8ryy	.	16cc#\LL|	.	4.r	.
.	.	.	.	.	.	.	.	.	.	.	32r	.	.	.	.	.	.	.	.	.	32r	.	.	.	.	.	.	.	.	.	.	32r	.	.	32r	.	.	.
.	.	.	.	.	.	.	.	.	.	.	(32ee\JJk	.	.	.	.	.	.	.	.	.	(32e/JJk	.	.	.	.	.	.	.	.	.	.	(32gg\JJk 32ee\	.	.	(32ee\JJk	.	.	.
8r	.	8ryy	.	.	.	.	8e/L 8A/	.	8cc#/L 8g/	.	8bb\L	.	.	.	8r	.	.	.	.	.	8b/L	.	.	8r	.	8ee\L 8cc#X\	.	8g\L 8A\	.	.	.	8bb/L	8cc#\L	.	8bb\L	.	.	.
8r	.	8ryy	.	.	.	.	8e/J 8A/	.	8cc#/J 8g/	.	8aa\J)	.	.	.	8r	.	.	.	.	.	8a/J)	.	.	8r	.	8ee\J 8cc#\	.	8g\J 8A\	.	.	.	8aa/J)	8cc#\J	.	8aa\J)	.	.	.
*	*	*	*	*	*	*	*	*	*	*	*	*	*	*	*	*	*	*	*	*	*v	*v	*	*	*	*	*	*	*	*	*	*v	*v	*	*	*	*	*
=3	=3	=3	=3	=3	=3	=3	=3	=3	=3	=3	=3	=3	=3	=3	=3	=3	=3	=3	=3	=3	=3	=3	=3	=3	=3	=3	=3	=3	=3	=3	=3	=3	=3	=3	=3	=3
*	*	*	*	*	*	*	*	*	*	*	*	*	*^	*	*	*	*	*	*	*	*	*	*	*	*^	*	*	*	*	*	*	*	*	*	*	*
!	!LO:DY:rj	!	!LO:DY:rj	!	!	!	!	!	!	!LO:DY:rj	!	!LO:DY:rj	!	!	!	!	!LO:DY:rj	!	!LO:DY:rj	!	!LO:DY:rj	!	!	!	!LO:DY:rj	!	!	!	!	!LO:DY:rj	!	!	!	!	!	!	!	!
16D\	f	16D\yy	fyy	4.r	.	.	16f#\ 16A\	.	16dd\ 16f#\	f	16.ff#\LL 16.d\	f	16Ree/	16Ra\	.	16D/	f	16D\	f	16f#\ 16A\	f	16.f#/LL 16.d/	.	16A\ 16D\	f	16dd/	16dd\	.	16f#\ 16A\	f	16.f#/LL 16.d/	.	16.ff#\LL 16.dd\	.	16.ff#\LL	.	16.ff#\LL|	.
16r	.	16ryy	.	.	.	.	16r	.	16r	.	.	.	16rff	16rd	.	16r	.	16r	.	16r	.	.	.	16r	.	16r	16ryy	.	16r	.	.	.	.	.	.	.	.	.
.	.	.	.	.	.	.	.	.	.	.	32aa\JJk 32ff#\	.	.	.	.	.	.	.	.	.	.	32a/JJk 32f#/	.	.	.	.	.	.	.	.	32a/JJk 32f#/	.	32aa\JJk 32ff#\	.	32aa\JJk	.	32aa\JJk|	.
*	*	*	*	*	*	*	*	*	*	*	*	*	*tremolo	*	*	*	*	*	*	*	*	*	*	*	*	*	*	*	*	*	*	*	*	*	*	*	*	*
8D\L	.	8D\Lyy	.	.	.	.	8f#/L 8A/	.	8dd/L 8f#/	.	8ddd\L 8ff#\	.	32Ree/LLL	8Ra\L	.	8D/L	.	8D\L	.	8f#\L 8A\	.	8dd/L 8f#/	.	8A\L 8D\	.	8dd/L	8dd\L	.	8f#\L 8A\	.	8dd/L 8f#/	.	8ff#\L 8dd\	.	8ddd\L	.	8ddd\L|	.
.	.	.	.	.	.	.	.	.	.	.	.	.	32Ree/	.	.	.	.	.	.	.	.	.	.	.	.	.	.	.	.	.	.	.	.	.	.	.	.	.
.	.	.	.	.	.	.	.	.	.	.	.	.	32Ree/	.	.	.	.	.	.	.	.	.	.	.	.	.	.	.	.	.	.	.	.	.	.	.	.	.
.	.	.	.	.	.	.	.	.	.	.	.	.	32Ree/JJ	.	.	.	.	.	.	.	.	.	.	.	.	.	.	.	.	.	.	.	.	.	.	.	.	.
*	*	*	*	*	*	*	*	*	*	*	*	*	*Xtremolo	*	*	*	*	*	*	*	*	*	*	*	*	*	*	*	*	*	*	*	*	*	*	*	*	*
8D\J	.	8D\Jyy	.	.	.	.	8f#/J 8A/	.	8dd/J 8f#/	.	8ddd\J 8ff#\	.	8Ree/J	8Ra\J	.	8D/J	.	8D\J	.	8f#\J 8A\	.	8dd/J 8f#/	.	8A\J 8D\	.	8dd/J	8dd\J	.	8f#\J 8A\	.	8dd/J 8f#/	.	8ff#\J 8dd\	.	8ddd\J	.	8ddd\J|	.
*	*	*	*	*	*	*	*	*	*	*	*	*	*v	*v	*	*	*	*	*	*	*	*	*	*	*	*v	*v	*	*	*	*	*	*	*	*	*	*	*
=4	=4	=4	=4	=4	=4	=4	=4	=4	=4	=4	=4	=4	=4	=4	=4	=4	=4	=4	=4	=4	=4	=4	=4	=4	=4	=4	=4	=4	=4	=4	=4	=4	=4	=4	=4	=4
*	*	*	*	*	*	*	*	*	*	*	*	*	*	*	*	*	*	*	*	*	*^	*	*	*	*	*	*	*	*	*	*^	*	*	*	*	*
!	!LO:DY:rj	!	!LO:DY:rj	!	!	!	!	!	!	!	!	!LO:DY:rj	!	!	!	!LO:DY:rj	!	!	!	!	!	!	!LO:DY:rj	!	!LO:DY:rj	!	!	!	!	!	!	!	!	!	!	!	!	!
8AA/	p	8AA/yy	pyy	4.r	.	.	8r	.	8r	p	16cc#\LL|	p	4.r	.	8AA/	p	4.r	.	4.r	.	16c#/LL|<	4.r	p	8A\ 8AA\	p	8r	.	8r	p	4.r	.	16cc#\|LL 16a\	8ryy	.	16cc#\LL|	.	4.r	.
.	.	.	.	.	.	.	.	.	.	.	32r	.	.	.	.	.	.	.	.	.	32r	.	.	.	.	.	.	.	.	.	.	32r	.	.	32r	.	.	.
.	.	.	.	.	.	.	.	.	.	.	(32ee\JJk	.	.	.	.	.	.	.	.	.	(32e/JJk	.	.	.	.	.	.	.	.	.	.	(32ee\|JJk 32cc#\	.	.	(32ee\JJk	.	.	.
8r	.	8ryy	.	.	.	.	8e/L 8A/	.	8cc#/L 8g/	.	8bb\L	.	.	.	8r	.	.	.	.	.	(8b/L)	.	.	8r	.	8ee\L 8cc#X\	.	8g\L 8A\	.	.	.	8bb/L	8cc#\L	.	8bb\L	.	.	.
8r	.	8ryy	.	.	.	.	8e/J 8A/	.	8cc#/J 8g/	.	8aa\J)	.	.	.	8r	.	.	.	.	.	8a/J)	.	.	8r	.	8ee\J 8cc#\	.	8g\J 8A\	.	.	.	8aa/J)	8cc#\J	.	8aa\J)	.	.	.
*	*	*	*	*	*	*	*	*	*	*	*	*	*	*	*	*	*	*	*	*	*v	*v	*	*	*	*	*	*	*	*	*	*v	*v	*	*	*	*	*
!!LO:PB:g=original
=5	=5	=5	=5	=5	=5	=5	=5	=5	=5	=5	=5	=5	=5	=5	=5	=5	=5	=5	=5	=5	=5	=5	=5	=5	=5	=5	=5	=5	=5	=5	=5	=5	=5	=5	=5	=5
*	*	*	*	*	*	*	*	*	*	*	*	*	*^	*	*	*	*	*	*	*	*	*	*	*	*^	*	*	*	*	*	*	*	*	*	*	*
!	!LO:DY:rj	!	!LO:DY:rj	!	!	!	!	!	!	!	!	!	!	!	!	!	!	!	!	!	!	!	!	!	!	!	!	!	!	!	!	!	!	!	!	!	!	!
16D\	f	16D\yy	fyy	4.r	.	.	16f#/ 16A/	.	16dd/ 16f#/	.	16.ff#\LL 16.d\	.	16Ree/	16Ra\	.	16D\	.	16D\	.	16f#\ 16A\	.	16.f#/LL 16.d/	.	16A\ 16D\	.	16dd/	16dd\	.	16f#\ 16A\	.	16.f#/LL 16.d/	.	16.ff#\LL 16.dd\	.	16.ff#\LL	.	16.ff#\LL	.
16r	.	16ryy	.	.	.	.	16r	.	16r	.	.	.	16rff	16rd	.	16r	.	16r	.	16r	.	.	.	16r	.	16r	16ryy	.	16r	.	.	.	.	.	.	.	.	.
.	.	.	.	.	.	.	.	.	.	.	32aa\JJk 32ff#\	.	.	.	.	.	.	.	.	.	.	32a/JJk 32f#/	.	.	.	.	.	.	.	.	32a/JJk 32f#/	.	32aa\JJk 32ff#\	.	32aa\JJk	.	32aa\JJk	.
*	*	*	*	*	*	*	*	*	*	*	*	*	*tremolo	*	*	*	*	*	*	*	*	*	*	*	*	*	*	*	*	*	*	*	*	*	*	*	*	*
8D\L	.	8D\Lyy	.	.	.	.	8f#/L 8A/	.	8dd/L 8f#/	.	8ddd\L 8ff#\	.	32Ree/LLL	8Ra\L	.	8D\L	.	8D\L	.	8f#\L 8A\	.	8dd/L 8f#/	.	8A\L 8D\	.	8dd\L	4ryy	.	8f#\L 8A\	.	8dd/L 8f#/	.	8ddd\L 8ff#\	.	8ddd\L	.	8ddd\L	.
.	.	.	.	.	.	.	.	.	.	.	.	.	32Ree/	.	.	.	.	.	.	.	.	.	.	.	.	.	.	.	.	.	.	.	.	.	.	.	.	.
.	.	.	.	.	.	.	.	.	.	.	.	.	32Ree/	.	.	.	.	.	.	.	.	.	.	.	.	.	.	.	.	.	.	.	.	.	.	.	.	.
.	.	.	.	.	.	.	.	.	.	.	.	.	32Ree/JJ	.	.	.	.	.	.	.	.	.	.	.	.	.	.	.	.	.	.	.	.	.	.	.	.	.
*	*	*	*	*	*	*	*	*	*	*	*	*	*Xtremolo	*	*	*	*	*	*	*	*	*	*	*	*	*	*	*	*	*	*	*	*	*	*	*	*	*
8D\J	.	8D\Jyy	.	.	.	.	8f#/J 8A/	.	8dd/J 8f#/	.	8ddd\J 8ff#\	.	8Ree/J	8Ra\J	.	8D\J	.	8D\J	.	8f#\J 8A\	.	8dd/J 8f#/	.	8A\J 8D\	.	8dd\J	.	.	8f#\J 8A\	.	8dd/J 8f#/	.	8ddd\J 8ff#\	.	8ddd\J	.	8ddd\J	.
*	*	*	*	*	*	*	*	*	*	*	*	*	*v	*v	*	*	*	*	*	*	*	*	*	*	*	*v	*v	*	*	*	*	*	*	*	*	*	*	*
=6	=6	=6	=6	=6	=6	=6	=6	=6	=6	=6	=6	=6	=6	=6	=6	=6	=6	=6	=6	=6	=6	=6	=6	=6	=6	=6	=6	=6	=6	=6	=6	=6	=6	=6	=6	=6
*	*	*	*	*	*	*	*	*	*	*	*	*	*	*	*	*	*	*	*	*	*^	*	*	*	*	*	*	*	*	*	*^	*	*	*	*	*
16G\	.	16G\yy	.	4.r	.	.	8r	.	8r	.	16.ccc#\LL	.	4.r	.	4.r	.	8G\	.	8e\ 8B\	.	16.cc#/LL	8g\	.	8r	.	8r	.	8r	.	8r	.	16.ccc#/LL	8r	.	16.ccc#\LL	.	16.ccc#\LL	.
16r	.	16ryy	.	.	.	.	.	.	.	.	.	.	.	.	.	.	.	.	.	.	.	.	.	.	.	.	.	.	.	.	.	.	.	.	.	.	.	.
.	.	.	.	.	.	.	.	.	.	.	32bb\JJk	.	.	.	.	.	.	.	.	.	32b/JJk	.	.	.	.	.	.	.	.	.	.	32bb/JJk	.	.	32bb\JJk	.	32bb\JJk	.
8G\L	.	8G\Lyy	.	.	.	.	8e\L	.	8b/L 8g/	.	8.gg\L	.	.	.	.	.	8r	.	8r	.	8.g/L	8.g\L	.	8G/L 8GG/	.	8ee\L	.	8g\L 8B\	.	8b\L 8g\	.	8.gg/L	8ee\L	.	8.gg\L	.	8.gg\L	.
8G\J	.	8G\Jyy	.	.	.	.	8e\J	.	8b-X/J 8g/	.	.	.	.	.	.	.	8r	.	8r	.	.	.	.	8G/J 8GG/	.	8ee\J	.	8g\J 8B-X\	.	8b-X\J 8g\	.	.	8ee\J	.	.	.	.	.
.	.	.	.	.	.	.	.	.	.	.	16ee\Jk	.	.	.	.	.	.	.	.	.	16e/Jk	16e\Jk	.	.	.	.	.	.	.	.	.	16ee/Jk	.	.	16ee\Jk	.	16ee\Jk	.
*	*	*	*	*	*	*	*	*	*	*	*	*	*	*	*	*	*	*	*	*	*v	*v	*	*	*	*	*	*	*	*	*	*	*	*	*	*	*	*
=7	=7	=7	=7	=7	=7	=7	=7	=7	=7	=7	=7	=7	=7	=7	=7	=7	=7	=7	=7	=7	=7	=7	=7	=7	=7	=7	=7	=7	=7	=7	=7	=7	=7	=7	=7	=7	=7
*	*	*	*	*	*	*	*	*	*	*	*	*	*^	*	*	*	*	*	*	*	*	*	*	*	*	*	*	*	*	*	*	*	*	*	*	*	*
8A\	.	8A\yy	.	4.r	.	.	8r	.	8r	.	16.cc#\LL|	.	8r	4Ra\	.	8r	.	8A\	.	8g\ 8e\	.	16.c#/LL|<	.	8r	.	8r	.	8r	.	8r	.	16.cc#/LL	8r	.	16.cc#\LL|	.	4.r	.
.	.	.	.	.	.	.	.	.	.	.	(32ee\JJk	.	.	.	.	.	.	.	.	.	.	(32e/JJk	.	.	.	.	.	.	.	.	.	(32ee/JJk	.	.	(32ee\JJk	.	.	.
*	*	*	*	*	*	*	*	*	*	*	*	*	*tremolo	*	*	*	*	*	*	*	*	*	*	*	*	*	*	*	*	*	*	*	*	*	*	*	*	*
8r	.	8ryy	.	.	.	.	8e\L 8c#\	.	8a/L 8g/	.	8bb\L	.	32Ree/LLL	.	.	8AA/L	.	8r	.	8r	.	8b/L	.	8A/L 8AA/	.	8ee\L 8cc#X\	.	8g\L 8A\	.	8a/L 8e/	.	8bb/L	8cc#\L	.	8bb\L	.	.	.
.	.	.	.	.	.	.	.	.	.	.	.	.	32Ree/	.	.	.	.	.	.	.	.	.	.	.	.	.	.	.	.	.	.	.	.	.	.	.	.	.
.	.	.	.	.	.	.	.	.	.	.	.	.	32Ree/	.	.	.	.	.	.	.	.	.	.	.	.	.	.	.	.	.	.	.	.	.	.	.	.	.
.	.	.	.	.	.	.	.	.	.	.	.	.	32Ree/JJ	.	.	.	.	.	.	.	.	.	.	.	.	.	.	.	.	.	.	.	.	.	.	.	.	.
*	*	*	*	*	*	*	*	*	*	*	*	*	*Xtremolo	*	*	*	*	*	*	*	*	*	*	*	*	*	*	*	*	*	*	*	*	*	*	*	*	*
8r	.	8ryy	.	.	.	.	8e\J 8c#\	.	8a/J 8g/	.	8aa\J)	.	8Ree/J	8r	.	8AA/J	.	8r	.	8r	.	8a/J)	.	8A/J 8AA/	.	8ee\J 8cc#\	.	8g\J 8A\	.	8a/J 8e/	.	8aa/J)	8cc#\J	.	8aa\J)	.	.	.
=8	=8	=8	=8	=8	=8	=8	=8	=8	=8	=8	=8	=8	=8	=8	=8	=8	=8	=8	=8	=8	=8	=8	=8	=8	=8	=8	=8	=8	=8	=8	=8	=8	=8	=8	=8	=8	=8	=8
*	*	*	*	*	*	*	*	*	*	*	*	*	*	*	*	*	*	*	*	*	*	*	*	*	*	*	*	*	*	*	*	*Xtuplet	*	*	*	*	*	*
!	!	!	!	!	!	!	!	!	!	!	!LO:TX:t=P:problem:klamra łukowa	!	!	!	!	!	!	!	!	!	!	!LO:TX:t=P:problem:klamra łukowa	!	!	!	!	!	!	!	!	!	!	!	!	!LO:TX:t=P:problem:klamra łukowa, kreska zamiast numeru	!	!	!
!	!	!	!	!	!	!	!	!	!	!	!	!	!	!	!	!	!	!	!	!	!	!LO:TUP:b	!	!	!	!	!	!	!	!	!	!	!	!	!	!	!	!
8D\	.	8D\yy	.	4.r	.	.	8r	.	8r	.	24ee#X\LL	.	8r	4Ra\	.	8r	.	8D\	.	8f#\ 8d\	.	24e#X/LL	.	8r	.	8r	.	8r	.	8r	.	24ee#X/LL	8r	.	24ee#X\LL	.	4.r	.
.	.	.	.	.	.	.	.	.	.	.	24gg\	.	.	.	.	.	.	.	.	.	.	24g/	.	.	.	.	.	.	.	.	.	24ff#/	.	.	24ff#\	.	.	.
.	.	.	.	.	.	.	.	.	.	.	24ff#\JJ	.	.	.	.	.	.	.	.	.	.	24f#/JJ	.	.	.	.	.	.	.	.	.	24ee#/JJ	.	.	24ee#\JJ	.	.	.
*	*	*	*	*	*	*	*	*	*	*	*	*	*tremolo	*	*	*	*	*	*	*	*	*	*	*	*	*	*	*	*	*	*	*	*	*	*	*	*	*
8r	.	8ryy	.	.	.	.	8d\L	.	8a/L 8f#/	.	8dd\L	.	32Ree/LLL	.	.	8D/L	.	8r	.	8r	.	8d/L	.	8A\L 8D\	.	8dd\L	.	8f#\L 8A\	.	8a/L 8f#/	.	8dd/L	8dd\L	.	8dd\L	.	.	.
.	.	.	.	.	.	.	.	.	.	.	.	.	32Ree/	.	.	.	.	.	.	.	.	.	.	.	.	.	.	.	.	.	.	.	.	.	.	.	.	.
.	.	.	.	.	.	.	.	.	.	.	.	.	32Ree/	.	.	.	.	.	.	.	.	.	.	.	.	.	.	.	.	.	.	.	.	.	.	.	.	.
.	.	.	.	.	.	.	.	.	.	.	.	.	32Ree/JJ	.	.	.	.	.	.	.	.	.	.	.	.	.	.	.	.	.	.	.	.	.	.	.	.	.
*	*	*	*	*	*	*	*	*	*	*	*	*	*Xtremolo	*	*	*	*	*	*	*	*	*	*	*	*	*	*	*	*	*	*	*	*	*	*	*	*	*
8r	.	8ryy	.	.	.	.	8d\J	.	8a/J 8f#/	.	8a'\J	.	8Ree/J	8r	.	8D/J	.	8r	.	8r	.	8A/J	.	8A\J 8D\	.	8dd\J	.	8f#\J 8A\	.	8a/J 8f#/	.	8a/J	8dd\J	.	8a\J	.	.	.
*	*	*	*	*	*	*	*	*	*	*	*	*	*	*	*	*	*	*	*	*	*	*	*	*	*	*	*	*	*	*	*	*v	*v	*	*	*	*	*
=9	=9	=9	=9	=9	=9	=9	=9	=9	=9	=9	=9	=9	=9	=9	=9	=9	=9	=9	=9	=9	=9	=9	=9	=9	=9	=9	=9	=9	=9	=9	=9	=9	=9	=9	=9	=9	=9
16D\	.	16D\yy	.	4.r	.	.	16f#/ 16A/	.	16dd/ 16f#/	.	16.ff#\LL 16.d\	.	16Ree/	16Ra\	.	16D/	.	16D\	.	16f#\ 16A\	.	16.f#/LL 16.d/	.	16A\ 16D\	.	16dd\	.	16f#\ 16A\	.	16.f#/LL 16.d/	.	16.ff#\LL 16.dd\	.	16.ff#\LL	.	16.ff#\LL	.
16r	.	16ryy	.	.	.	.	16r	.	16r	.	.	.	16r	16r	.	16r	.	16r	.	16r	.	.	.	16r	.	16r	.	16r	.	.	.	.	.	.	.	.	.
.	.	.	.	.	.	.	.	.	.	.	32aa\JJk 32ff#\	.	.	.	.	.	.	.	.	.	.	32a/JJk 32f#/	.	.	.	.	.	.	.	32a/JJk 32f#/	.	32aa\JJk 32ff#\	.	32aa\JJk	.	32aa\JJk	.
*	*	*	*	*	*	*	*	*	*	*	*	*	*tremolo	*	*	*	*	*	*	*	*	*	*	*	*	*	*	*	*	*	*	*	*	*	*	*	*
8D\L	.	8D\Lyy	.	.	.	.	8f#/L 8A/	.	8dd/L 8f#/	.	8ddd\L 8ff#\	.	32Ree/LLL	8Ra\L	.	8D/L	.	8D\L	.	8f#\L 8A\	.	8dd/L 8f#/	.	8A\L 8D\	.	8dd\L	.	8f#\L 8A\	.	8dd/L 8f#/	.	8ddd\L 8ff#\	.	8ddd\L	.	8ddd\L	.
.	.	.	.	.	.	.	.	.	.	.	.	.	32Ree/	.	.	.	.	.	.	.	.	.	.	.	.	.	.	.	.	.	.	.	.	.	.	.	.
.	.	.	.	.	.	.	.	.	.	.	.	.	32Ree/	.	.	.	.	.	.	.	.	.	.	.	.	.	.	.	.	.	.	.	.	.	.	.	.
.	.	.	.	.	.	.	.	.	.	.	.	.	32Ree/JJ	.	.	.	.	.	.	.	.	.	.	.	.	.	.	.	.	.	.	.	.	.	.	.	.
*	*	*	*	*	*	*	*	*	*	*	*	*	*Xtremolo	*	*	*	*	*	*	*	*	*	*	*	*	*	*	*	*	*	*	*	*	*	*	*	*
8D\J	.	8D\Jyy	.	.	.	.	8f#/J 8A/	.	8dd/J 8f#/	.	8ddd\J 8ff#\	.	8Ree/J	8Ra\J	.	8D/J	.	8D\J	.	8f#\J 8A\	.	8dd/J 8f#/	.	8A\J 8D\	.	8dd\J	.	8f#\J 8A\	.	8dd/J 8f#/	.	8ddd\J 8ff#\	.	8ddd\J	.	8ddd\J	.
*	*	*	*	*	*	*	*	*	*	*	*	*	*v	*v	*	*	*	*	*	*	*	*	*	*	*	*	*	*	*	*	*	*	*	*	*	*	*
=10	=10	=10	=10	=10	=10	=10	=10	=10	=10	=10	=10	=10	=10	=10	=10	=10	=10	=10	=10	=10	=10	=10	=10	=10	=10	=10	=10	=10	=10	=10	=10	=10	=10	=10	=10	=10
*	*	*	*	*	*	*	*	*	*	*	*	*	*	*	*	*	*	*	*	*	*^	*	*	*	*	*	*	*	*	*	*^	*	*	*	*	*
16G\	.	16G\yy	.	4.r	.	.	8r	.	8r	.	16.ccc#\LL	.	4.r	.	4.r	.	8G\	.	8e\ 8B\	.	16.cc#/LL	8g\	.	8r	.	8r	.	8r	.	8r	.	16.ccc#/LL	8r	.	16.ccc#\LL	.	16.ccc#\LL	.
16r	.	16ryy	.	.	.	.	.	.	.	.	.	.	.	.	.	.	.	.	.	.	.	.	.	.	.	.	.	.	.	.	.	.	.	.	.	.	.	.
.	.	.	.	.	.	.	.	.	.	.	32bb\JJk	.	.	.	.	.	.	.	.	.	32b/JJk	.	.	.	.	.	.	.	.	.	.	32bb/JJk	.	.	32bb\JJk	.	32bb\JJk	.
!	!	!	!	!	!	!	!	!	!	!	!	!	!	!	!	!	!	!	!	!	!	!	!	!	!	!	!	!	!	!	!	!	!	!	!	!	!LO:N:vis=8	!
8G\L	.	8G\Lyy	.	.	.	.	8e\L	.	8b/L 8g/	.	8.gg\L	.	.	.	.	.	8r	.	8r	.	8.g/L	8.g\L	.	8G/L 8GG/	.	8ee\L	.	8g\L 8B\	.	8b\L 8g\	.	8.gg/L	8ee\L	.	8.gg\L	.	8.gg\L	.
8G\J	.	8G\Jyy	.	.	.	.	8e\J	.	8b-X/J 8g/	.	.	.	.	.	.	.	8r	.	8r	.	.	.	.	8G/J 8GG/	.	8ee\J	.	8g\J 8B-X\	.	8b-X\J 8g\	.	.	8ee\J	.	.	.	.	.
.	.	.	.	.	.	.	.	.	.	.	16ee\Jk	.	.	.	.	.	.	.	.	.	16e/Jk	16e\Jk	.	.	.	.	.	.	.	.	.	16ee/Jk	.	.	16ee\Jk	.	16ee\J	.
*	*	*	*	*	*	*	*	*	*	*	*	*	*	*	*	*	*	*	*	*	*v	*v	*	*	*	*	*	*	*	*	*	*	*	*	*	*	*	*
!!LO:PB:g=original
=11	=11	=11	=11	=11	=11	=11	=11	=11	=11	=11	=11	=11	=11	=11	=11	=11	=11	=11	=11	=11	=11	=11	=11	=11	=11	=11	=11	=11	=11	=11	=11	=11	=11	=11	=11	=11	=11
*	*	*	*	*	*	*	*	*	*	*	*	*	*^	*	*	*	*	*	*^	*	*	*	*	*	*	*	*	*	*^	*	*	*	*	*	*	*	*
*	*	*	*	*	*	*	*	*	*	*	*	*	*	*	*	*	*	*	*	*	*	*	*	*	*	*	*	*	*	*	*Xtuplet	*	*	*	*	*	*	*	*	*
!	!	!	!	!	!	!	!	!	!	!	!LO:TUP:a	!	!	!	!	!	!	!	!	!	!	!	!LO:TUP:b	!	!	!	!	!	!	!	!	!	!	!	!	!	!LO:TUP:a	!	!	!
8A\	.	8A\yy	.	4.r	.	.	8r	.	8r	.	(24cc#\LL	.	8r	4Ra\	.	8r	.	16A\ 16AA\	.	16c#/	16G\	.	(24c#/LL	.	8r	.	8r	.	8r	.	(24c#/LL	8r	.	24cc#/LL	8r	.	(24cc#\LL	.	4.r	.
.	.	.	.	.	.	.	.	.	.	.	24ee\	.	.	.	.	.	.	.	.	.	.	.	24e/	.	.	.	.	.	.	.	24e/	.	.	24ee/	.	.	24ee\	.	.	.
.	.	.	.	.	.	.	.	.	.	.	.	.	.	.	.	.	.	16r	.	16r	16ryy	.	.	.	.	.	.	.	.	.	.	.	.	.	.	.	.	.	.	.
.	.	.	.	.	.	.	.	.	.	.	24gg\JJ	.	.	.	.	.	.	.	.	.	.	.	24g/JJ	.	.	.	.	.	.	.	24g/JJ	.	.	24gg/JJ	.	.	24gg\JJ	.	.	.
*	*	*	*	*	*	*	*	*	*	*	*	*	*tremolo	*	*	*	*	*	*	*	*	*	*	*	*	*	*	*	*	*	*	*	*	*	*	*	*	*	*	*
8r	.	8ryy	.	.	.	.	8e/L 8A/	.	8dd/L 8g/	.	8bb\L)	.	32Ree/LLL	.	.	8AA/L	.	8A\L 8AA\	.	8c#/L	8G\L	.	8b/L)	.	8A\L 8AA\	.	8ee\L 8cc#X\	.	8g\L 8A\	.	8b/L)	8e\L	.	8bb/L	8cc#\L	.	8bb\L)	.	.	.
.	.	.	.	.	.	.	.	.	.	.	.	.	32Ree/	.	.	.	.	.	.	.	.	.	.	.	.	.	.	.	.	.	.	.	.	.	.	.	.	.	.	.
.	.	.	.	.	.	.	.	.	.	.	.	.	32Ree/	.	.	.	.	.	.	.	.	.	.	.	.	.	.	.	.	.	.	.	.	.	.	.	.	.	.	.
.	.	.	.	.	.	.	.	.	.	.	.	.	32Ree/JJ	.	.	.	.	.	.	.	.	.	.	.	.	.	.	.	.	.	.	.	.	.	.	.	.	.	.	.
*	*	*	*	*	*	*	*	*	*	*	*	*	*Xtremolo	*	*	*	*	*	*	*	*	*	*	*	*	*	*	*	*	*	*	*	*	*	*	*	*	*	*	*
8AA/	.	8AA/yy	.	.	.	.	8e/J 8A/	.	8dd/J 8g/	.	8aa'\J	.	8Ree/J	8r	.	8AA/J	.	8A\J 8AA\	.	8c#/J	8G\J	.	8a/J	.	8A\J 8AA\	.	8ee\J 8cc#\	.	8g\J 8A\	.	8a'/J	8e\J	.	8aa/J	8cc#\J	.	8aa'\J	.	.	.
*	*	*	*	*	*	*	*	*	*	*	*	*	*	*	*	*	*	*	*	*	*	*	*	*	*	*	*	*	*	*	*v	*v	*	*	*	*	*	*	*	*
=12	=12	=12	=12	=12	=12	=12	=12	=12	=12	=12	=12	=12	=12	=12	=12	=12	=12	=12	=12	=12	=12	=12	=12	=12	=12	=12	=12	=12	=12	=12	=12	=12	=12	=12	=12	=12	=12	=12	=12
*	*	*	*	*	*	*	*	*	*	*	*	*	*	*	*	*	*	*	*	*	*	*	*	*	*	*	*^	*	*	*	*	*	*	*	*	*	*	*	*
16D/	.	16D/yy	.	4.r	.	.	16f#/ 16A/	.	16dd/ 16f#/	.	16dd\	.	16Ree/	8r	.	16D/	.	16A\ 16D\	.	16d/	16F#\	.	16d/	.	16A\ 16D\	.	16dd/	16dd\	.	16f#\ 16A\	.	16f#/ 16d/	.	16dd/	16dd\	.	16dd\	.	8r	.
16r	.	16ryy	.	.	.	.	16r	.	16r	.	16r	.	16r	.	.	16r	.	16r	.	16r	16ryy	.	16r	.	16r	.	16r	16ryy	.	16r	.	16r	.	16r	16ryy	.	16r	.	.	.
8D/	.	8D/yy	.	.	.	.	8f#\ 8A\ 8D\	.	8ff#\ 8a\ 8d\	.	8ddd\ 8dd\	.	8Ree/	8Ra\	.	8D/	.	8A\ 8D\	.	8d/ 8F#/	4ryy	.	8dd/ 8f#/	.	8A\ 8D\	.	8dd/	8dd\	.	8f#\ 8A\	.	8dd\ 8f#\	.	8ddd\ 8ff#\	4ryy	.	8ddd\	.	8fff#\	.
8r	.	8ryy	.	.	.	.	8r	.	8r	.	8r	.	8r	8ryy	.	8r	.	8r	.	8r	.	.	8r	.	8r	.	8r	8ryy	.	8r	.	8r	.	8r	.	.	8r	.	8r	.
*	*	*	*	*	*	*	*	*	*	*	*	*	*v	*v	*	*	*	*	*	*v	*v	*	*	*	*	*	*	*	*	*	*	*	*	*v	*v	*	*	*	*	*
=13	=13	=13	=13	=13	=13	=13	=13	=13	=13	=13	=13	=13	=13	=13	=13	=13	=13	=13	=13	=13	=13	=13	=13	=13	=13	=13	=13	=13	=13	=13	=13	=13	=13	=13	=13	=13	=13
!	!LO:DY:rj	!	!LO:DY:rj	!	!	!	!	!	!	!	!	!	!	!	!	!	!	!	!	!	!	!	!	!	!	!	!	!	!LO:DY:rj	!	!	!	!	!	!	!	!
8D\	p	8D\yy	pyy	16.f#/	Przy-	.	8r	.	8r	.	4.r	.	4.r	.	4.r	.	4.r	.	4.r	.	4.r	.	4.r	.	((4.dd/	4.dd\	.	(4.f#\ [4.A\	p	4.r	.	4.r	.	4.r	.	4.r	.
.	.	.	.	32a/	-bądź	.	.	.	.	.	.	.	.	.	.	.	.	.	.	.	.	.	.	.	.	.	.	.	.	.	.	.	.	.	.	.	.
!	!	!	!	!	!	!	!	!	!	!LO:DY:rj	!	!	!	!	!	!	!	!	!	!	!	!	!	!	!	!	!	!	!	!	!	!	!	!	!	!	!
8r	.	8ryy	.	8dd\	mo-	.	8d\L	.	8f#/L 8A/	p	.	.	.	.	.	.	.	.	.	.	.	.	.	.	.	.	.	.	.	.	.	.	.	.	.	.	.
8r	.	8ryy	.	8dd\	-ja	.	8d\J	.	8f#/J 8A/	.	.	.	.	.	.	.	.	.	.	.	.	.	.	.	.	.	.	.	.	.	.	.	.	.	.	.	.
=14	=14	=14	=14	=14	=14	=14	=14	=14	=14	=14	=14	=14	=14	=14	=14	=14	=14	=14	=14	=14	=14	=14	=14	=14	=14	=14	=14	=14	=14	=14	=14	=14	=14	=14	=14	=14	=14
8AA/	.	8AA/yy	.	(16.cc#\LL	lu-	.	8r	.	8r	.	16.r	p	4.r	.	4.r	.	4.r	.	4.r	.	4.r	.	4.r	.	8ee/))	8cc#X\	.	8g\ 8A\])	.	4.r	.	4.r	.	16.r	p	4.r	.
.	.	.	.	32ee\JJk)	.	.	.	.	.	.	32ee\|	.	.	.	.	.	.	.	.	.	.	.	.	.	.	.	.	.	.	.	.	.	.	32ee\KKL|	.	.	.
8r	.	8ryy	.	4g/	-ba	.	8c#\L	.	8g/L 8A/	.	(8bb\L	.	.	.	.	.	.	.	.	.	.	.	.	.	8r	8ryy	.	8r	.	.	.	.	.	(8bb\	.	.	.
8r	.	8ryy	.	.	.	.	8c#\J	.	8g/J 8A/	.	8aa\J)	.	.	.	.	.	.	.	.	.	.	.	.	.	8r	8ryy	.	8r	.	.	.	.	.	8aa\J)	.	.	.
=15	=15	=15	=15	=15	=15	=15	=15	=15	=15	=15	=15	=15	=15	=15	=15	=15	=15	=15	=15	=15	=15	=15	=15	=15	=15	=15	=15	=15	=15	=15	=15	=15	=15	=15	=15	=15	=15
8D\	.	8D\yy	.	16.f#/	Bo	.	8r	.	8r	.	4.r	.	4.r	.	4.r	.	4.r	.	4.r	.	4.r	.	4.r	.	((4.dd/	4.dd\	.	(4.f#\ [4.A\	.	4.r	.	4.r	.	4.r	.	4.r	.
.	.	.	.	32a/	już	.	.	.	.	.	.	.	.	.	.	.	.	.	.	.	.	.	.	.	.	.	.	.	.	.	.	.	.	.	.	.	.
8r	.	8ryy	.	(16dd\LL	mi-	.	8d\L	.	8f#/L 8A/	.	.	.	.	.	.	.	.	.	.	.	.	.	.	.	.	.	.	.	.	.	.	.	.	.	.	.	.
.	.	.	.	16ff#\JJ)	.	.	.	.	.	.	.	.	.	.	.	.	.	.	.	.	.	.	.	.	.	.	.	.	.	.	.	.	.	.	.	.	.
8r	.	8ryy	.	(16ee\LL	-ja	.	8d\J	.	8f#/J 8A/	.	.	.	.	.	.	.	.	.	.	.	.	.	.	.	.	.	.	.	.	.	.	.	.	.	.	.	.
.	.	.	.	16dd\JJ)	.	.	.	.	.	.	.	.	.	.	.	.	.	.	.	.	.	.	.	.	.	.	.	.	.	.	.	.	.	.	.	.	.
=16	=16	=16	=16	=16	=16	=16	=16	=16	=16	=16	=16	=16	=16	=16	=16	=16	=16	=16	=16	=16	=16	=16	=16	=16	=16	=16	=16	=16	=16	=16	=16	=16	=16	=16	=16	=16	=16
8AA/	.	8AA/yy	.	4cc#\	czas	.	8r	.	8r	.	16.r	.	4.r	.	4.r	.	4.r	.	4.r	.	4.r	.	4.r	.	8ee/))	8cc#X\	.	8g\ 8A\])	.	4.r	.	4.r	.	16.r	.	4.r	.
.	.	.	.	.	.	.	.	.	.	.	32ee\|	.	.	.	.	.	.	.	.	.	.	.	.	.	.	.	.	.	.	.	.	.	.	32ee\KKL|	.	.	.
8r	.	8ryy	.	.	.	.	8e\L	.	8g/L 8A/	.	(8bb\L	.	.	.	.	.	.	.	.	.	.	.	.	.	8r	8ryy	.	8r	.	.	.	.	.	(8bb\	.	.	.
8r	.	8ryy	.	8r	.	.	8e\J	.	8g/J 8A/	.	8aa\J)	.	.	.	.	.	.	.	.	.	.	.	.	.	8r	8ryy	.	8r	.	.	.	.	.	8aa\J)	.	.	.
*	*	*	*	*	*	*	*	*	*	*	*	*	*	*	*	*	*	*	*	*	*	*	*	*	*v	*v	*	*	*	*	*	*	*	*	*	*	*
!!LO:PB:g=original
=17	=17	=17	=17	=17	=17	=17	=17	=17	=17	=17	=17	=17	=17	=17	=17	=17	=17	=17	=17	=17	=17	=17	=17	=17	=17	=17	=17	=17	=17	=17	=17	=17	=17	=17	=17	=17
*	*	*	*	*	*	*	*	*	*	*	*	*	*	*	*	*	*	*	*	*	*	*	*	*	*	*	*	*	*^	*	*	*	*	*	*	*
!	!	!	!	!	!	!	!	!	!	!	!	!	!	!	!	!	!	!	!	!	!	!	!	!	!	!	!	!	!	!	!LO:DY:a	!	!	!	!	!	!LO:DY:rj
8D\	.	8D\yy	.	16.f#/	jak	.	8r	.	8r	.	4.r	.	4.r	.	4.r	.	4.r	.	4.r	.	4.r	.	4.r	.	4.r	.	4.r	.	16.f#/LL|	4.r	p	4.r	.	4.r	.	16.ff#\LL|	p
.	.	.	.	32a/	nie	.	.	.	.	.	.	.	.	.	.	.	.	.	.	.	.	.	.	.	.	.	.	.	32a/JJk|	.	.	.	.	.	.	32aa\JJk|	.
8r	.	8ryy	.	8ee\	przyj-	.	8d\L	.	8f#/L 8A/	.	.	.	.	.	.	.	.	.	.	.	.	.	.	.	.	.	.	.	(8ee/L	.	.	.	.	.	.	(8eee\L	.
8r	.	8ryy	.	8dd\	-dziesz	.	8d\J	.	8f#/J 8A/	.	.	.	.	.	.	.	.	.	.	.	.	.	.	.	.	.	.	.	8dd/J)	.	.	.	.	.	.	8ddd\J)	.
=18	=18	=18	=18	=18	=18	=18	=18	=18	=18	=18	=18	=18	=18	=18	=18	=18	=18	=18	=18	=18	=18	=18	=18	=18	=18	=18	=18	=18	=18	=18	=18	=18	=18	=18	=18	=18	=18
8GG/	.	8GG/yy	.	16.cc#\	pe-	.	8r	.	8r	.	4.r	.	4.ryy	.	4.ryy	.	4.ryy	.	4.ryy	.	4.ryy	.	4.r	.	4.r	.	4.r	.	16.cc#/LL	4.r	.	4.r	.	4.r	.	16.ccc#\LL|	.
.	.	.	.	32b\	-wna	.	.	.	.	.	.	.	.	.	.	.	.	.	.	.	.	.	.	.	.	.	.	.	32b/JJk	.	.	.	.	.	.	32bb\JJk|	.
8r	.	8ryy	.	8g/	zgu-	.	8e\L	.	8g/L 8B/	.	.	.	.	.	.	.	.	.	.	.	.	.	.	.	.	.	.	.	8g/L	.	.	.	.	.	.	8.gg\L|	.
8r	.	8ryy	.	8e/	-ba	.	8e\J	.	8g/J 8B-X^>/	.	.	.	.	.	.	.	.	.	.	.	.	.	.	.	.	.	.	.	8e/J	.	.	.	.	.	.	.	.
!	!	!	!	!	!	!	!	!	!	!	!	!	!	!	!	!	!	!	!	!	!	!	!	!	!	!	!	!	!	!	!	!	!	!	!	!LO:N:vis=8	!
.	.	.	.	.	.	.	.	.	.	.	.	.	.	.	.	.	.	.	.	.	.	.	.	.	.	.	.	.	.	.	.	.	.	.	.	16ee\Jk|	.
=19	=19	=19	=19	=19	=19	=19	=19	=19	=19	=19	=19	=19	=19	=19	=19	=19	=19	=19	=19	=19	=19	=19	=19	=19	=19	=19	=19	=19	=19	=19	=19	=19	=19	=19	=19	=19	=19
*	*	*	*	*	*	*	*	*	*	*	*	*	*	*	*	*	*	*	*	*	*	*	*	*	*^	*	*	*	*	*	*	*	*	*	*	*	*
!	!	!	!	!	!	!	!	!	!	!	!	!	!	!	!	!	!	!	!	!	!	!	!	!	!	!	!LO:DY:rj	!	!LO:DY:rj	!	!	!	!	!	!	!	!	!
8AA/	.	8AA/yy	.	16.c#/	zgu-	.	8r	.	8r	.	4.r	.	4.ryy	.	4.ryy	.	4.ryy	.	4.ryy	.	4.ryy	.	4.r	.	4.ee/	4.cc#X\	p	4.g\ 4.A\	p	16.c#/LL	4.r	.	4.r	.	4.r	.	16.cc#\LL|	.
.	.	.	.	32e/	-ba	.	.	.	.	.	.	.	.	.	.	.	.	.	.	.	.	.	.	.	.	.	.	.	.	32e/JJk	.	.	.	.	.	.	32ee\JJk|	.
8r	.	8ryy	.	8.b/	cze-	.	8e\L 8c#\	.	8g/L 8A/	.	.	.	.	.	.	.	.	.	.	.	.	.	.	.	.	.	.	.	.	8.b/L	.	.	.	.	.	.	8.bb\L	.
8r	.	8ryy	.	.	.	.	8e\J 8c#\	.	8g/J 8A/	.	.	.	.	.	.	.	.	.	.	.	.	.	.	.	.	.	.	.	.	.	.	.	.	.	.	.	.	.
.	.	.	.	16a/	-ka	.	.	.	.	.	.	.	.	.	.	.	.	.	.	.	.	.	.	.	.	.	.	.	.	16a/Jk	.	.	.	.	.	.	16aa\Jk	.
*	*	*	*	*	*	*	*	*	*	*	*	*	*	*	*	*	*	*	*	*	*	*	*	*	*	*	*	*	*	*v	*v	*	*	*	*	*	*	*
=20	=20	=20	=20	=20	=20	=20	=20	=20	=20	=20	=20	=20	=20	=20	=20	=20	=20	=20	=20	=20	=20	=20	=20	=20	=20	=20	=20	=20	=20	=20	=20	=20	=20	=20	=20	=20	=20
!	!	!	!	!	!	!	!	!	!	!	!	!	!	!	!	!	!	!	!	!	!	!	!	!	!	!	!	!	!	!	!	!	!	!	!LO:DY:rj	!	!
8D\	.	8D\yy	.	(16e#X/LL	nas	>	8r	.	8r	.	(16ee#X\LL	>	4.ryy	.	4.ryy	.	4.ryy	.	4.ryy	.	4.ryy	.	4.r	.	8r	8ryy	.	8r	.	4.r	.	4.r	.	(16ee#X\LL	p >	4.r	.
.	.	.	.	16f#/JJ)	.	]]	.	.	.	.	16ff#\JJ	]]	.	.	.	.	.	.	.	.	.	.	.	.	.	.	.	.	.	.	.	.	.	16ff#\JJ	]	.	.
8r	.	8ryy	.	8r	.	.	8d\L	.	8f#/L 8A/	.	8aa\L)	.	.	.	.	.	.	.	.	.	.	.	.	.	4dd/	4dd\	.	4f#\ 4A\	.	.	.	.	.	8aa\L)	.	.	.
8r	.	8ryy	.	8r	.	.	8d\J	.	8f#/J 8A/	.	8dd'\J	.	.	.	.	.	.	.	.	.	.	.	.	.	.	.	.	.	.	.	.	.	.	8dd\J	.	.	.
*	*	*	*	*	*	*	*	*	*	*	*	*	*	*	*	*	*	*	*	*	*	*	*	*	*v	*v	*	*	*	*	*	*	*	*	*	*	*
=21	=21	=21	=21	=21	=21	=21	=21	=21	=21	=21	=21	=21	=21	=21	=21	=21	=21	=21	=21	=21	=21	=21	=21	=21	=21	=21	=21	=21	=21	=21	=21	=21	=21	=21	=21	=21
*	*	*	*	*	*	*	*	*	*	*	*	*	*	*	*	*	*	*	*	*	*	*	*	*	*	*	*	*	*^	*	*	*	*	*	*	*
8D\	.	8D\yy	.	16.f#/	Jak	.	8r	.	8r	.	4.r	.	4.ryy	.	4.ryy	.	4.ryy	.	4.ryy	.	4.ryy	.	4.r	.	4.r	.	4.r	.	16.f#/LL|	4.r	.	4.r	.	4.r	.	16.ff#\LL|	.
.	.	.	.	32a/	nie	.	.	.	.	.	.	.	.	.	.	.	.	.	.	.	.	.	.	.	.	.	.	.	32a/JJk|	.	.	.	.	.	.	32aa\JJk|	.
8r	.	8ryy	.	8ee\	przyj-	.	8d\L	.	8f#/L 8A/	.	.	.	.	.	.	.	.	.	.	.	.	.	.	.	.	.	.	.	(8ee/L	.	.	.	.	.	.	(8eee\L	.
8r	.	8ryy	.	8dd\	-dziesz	.	8d\J	.	8f#/J 8A/	.	.	.	.	.	.	.	.	.	.	.	.	.	.	.	.	.	.	.	8dd/J)	.	.	.	.	.	.	8ddd\J)	.
=22	=22	=22	=22	=22	=22	=22	=22	=22	=22	=22	=22	=22	=22	=22	=22	=22	=22	=22	=22	=22	=22	=22	=22	=22	=22	=22	=22	=22	=22	=22	=22	=22	=22	=22	=22	=22	=22
8GG/	.	8GG/yy	.	16.cc#\	pe-	.	8r	.	8r	.	4.r	.	4.ryy	.	4.ryy	.	4.ryy	.	4.ryy	.	4.ryy	.	4.r	.	4.r	.	4.r	.	16.cc#/LL	4.r	.	4.r	.	4.r	.	16.ccc#\LL	.
.	.	.	.	32b\	-wna	.	.	.	.	.	.	.	.	.	.	.	.	.	.	.	.	.	.	.	.	.	.	.	32b/JJk	.	.	.	.	.	.	32bb\JJk	.
8r	.	8ryy	.	8gg\ 8g\	zgu-	.	8e\L	.	8g/L 8B/	.	.	.	.	.	.	.	.	.	.	.	.	.	.	.	.	.	.	.	8gg/L	.	.	.	.	.	.	8ggg\L	.
8r	.	8ryy	.	8ee\ 8e\	-ba	.	8e\J	.	8g/J 8B-X/	.	.	.	.	.	.	.	.	.	.	.	.	.	.	.	.	.	.	.	8ee/J	.	.	.	.	.	.	8eee\J	.
*	*	*	*	*	*	*	*	*	*	*	*	*	*	*	*	*	*	*	*	*	*	*	*	*	*	*	*	*	*v	*v	*	*	*	*	*	*	*
!!LO:PB:g=original
=23	=23	=23	=23	=23	=23	=23	=23	=23	=23	=23	=23	=23	=23	=23	=23	=23	=23	=23	=23	=23	=23	=23	=23	=23	=23	=23	=23	=23	=23	=23	=23	=23	=23	=23	=23	=23
8AA/	.	8AA/yy	.	16.cc#/ 16.c#/	zgu-	.	8e\	.	8g/ 8A/	.	4.r	.	4.r	.	4.r	.	4.r	.	4.r	.	4.r	.	4.r	.	4.r	.	4.r	.	4.r	.	4.r	.	4.r	.	4.r	.
.	.	.	.	32ee/ 32e/	-ba	.	.	.	.	.	.	.	.	.	.	.	.	.	.	.	.	.	.	.	.	.	.	.	.	.	.	.	.	.	.	.
8r	.	8ryy	.	16.b-X/	pew-	.	8r	.	8r	.	.	.	.	.	.	.	.	.	.	.	.	.	.	.	.	.	.	.	.	.	.	.	.	.	.	.
.	.	.	.	32a/	-na	.	.	.	.	.	.	.	.	.	.	.	.	.	.	.	.	.	.	.	.	.	.	.	.	.	.	.	.	.	.	.
16AA/	.	16AA/yy	.	16.bn/	cze-	.	16e\ 16c#\	.	16g/ 16A/	.	.	.	.	.	.	.	.	.	.	.	.	.	.	.	.	.	.	.	.	.	.	.	.	.	.	.
16r	.	16ryy	.	.	.	.	16r	.	16r	.	.	.	.	.	.	.	.	.	.	.	.	.	.	.	.	.	.	.	.	.	.	.	.	.	.	.
.	.	.	.	32a/	-ka	.	.	.	.	.	.	.	.	.	.	.	.	.	.	.	.	.	.	.	.	.	.	.	.	.	.	.	.	.	.	.
=24	=24	=24	=24	=24	=24	=24	=24	=24	=24	=24	=24	=24	=24	=24	=24	=24	=24	=24	=24	=24	=24	=24	=24	=24	=24	=24	=24	=24	=24	=24	=24	=24	=24	=24	=24	=24
*	*	*	*	*	*	*	*	*	*	*	*	*	*^	*	*	*	*	*	*	*	*	*	*	*	*^	*	*	*	*	*	*	*	*	*	*	*
16D\	.	16D\yy	.	8d/	nas.	.	16d\	.	16f#/ 16A/	.	8r	.	8r	8ryy	.	8r	.	8r	.	8r	.	8r	.	8r	.	8r	8ryy	.	8r	.	8r	.	8r	.	8r	.	8r	.
16r	.	16ryy	.	.	.	.	16r	.	16r	.	.	.	.	.	.	.	.	.	.	.	.	.	.	.	.	.	.	.	.	.	.	.	.	.	.	.	.	.
!	!LO:DY:rj	!	!LO:DY:rj	!	!	!	!	!LO:DY:rj	!	!	!	!LO:DY:rj	!	!	!	!	!	!	!LO:DY:rj	!	!LO:DY:rj	!	!	!	!	!	!	!	!	!LO:DY:rj	!	!LO:DY:rj	!	!LO:DY:rj	!	!	!	!LO:DY:rj
8D\	f	8D\yy	fyy	8r	.	.	8f#\ 8A\	f	8dd/ 8f#/	.	8dd/ 8f#/	f	8Ree/	8Ra\	.	8D\	.	8D\	f	8f#\ 8A\	f	8dd/ 8f#/	.	8A\ 8D\	.	8dd/	8dd\	.	8f#\ 8A\	f	8ff#\ 8a\	f	8ddd\ 8ff#\	f	8ddd\	.	8fff#\	f
8r	.	8ryy	.	8r	.	.	8r	.	8r	.	8r	.	8r	8ryy	.	8r	.	8r	.	8r	.	8r	.	8r	.	8r	8ryy	.	8r	.	8r	.	8r	.	8r	.	8r	.
*	*	*	*	*	*	*	*	*	*	*	*	*	*v	*v	*	*	*	*	*	*	*	*	*	*	*	*v	*v	*	*	*	*	*	*	*	*	*	*	*
*	*	*clefC4	*	*	*	*	*	*	*	*	*	*	*	*	*	*	*	*	*	*	*	*	*	*	*	*	*	*	*	*	*	*	*	*	*	*
=25	=25	=25	=25	=25	=25	=25	=25	=25	=25	=25	=25	=25	=25	=25	=25	=25	=25	=25	=25	=25	=25	=25	=25	=25	=25	=25	=25	=25	=25	=25	=25	=25	=25	=25	=25	=25
*	*	*	*	*	*	*	*	*	*	*	*	*	*	*	*	*	*	*	*	*	*	*	*	*	*	*	*	*	*	*	*^	*	*	*	*	*
*	*	*Xtuplet	*	*	*	*	*	*	*	*	*	*	*	*	*	*	*	*	*	*	*	*	*	*	*	*	*	*	*	*	*	*	*	*	*	*Xtuplet	*
!	!	!	!	!	!	!	!	!	!	!	!LO:TUP:a	!	!	!	!	!	!	!	!	!	!	!	!	!	!	!	!	!	!	!	!	!	!	!	!	!	!
8AA#X/	.	(24f#\LL	.	4.r	.	.	8r	.	8r	.	(24ff#\LL	.	4.r	.	4.r	.	8AA#X/	.	8c#/ 8F#/	.	8r	.	(4.A#X\ (4.AA#X\	.	(4.ee\ (4.cc#X\	.	[4.f#/ [4.F#/	.	(4.cc#/ (4.e/	.	(24ff#/LL	4.cc#\	.	4.r	.	(24fff#\LL	.
.	.	24g\	.	.	.	.	.	.	.	.	24gg\	.	.	.	.	.	.	.	.	.	.	.	.	.	.	.	.	.	.	.	24gg/	.	.	.	.	24ggg\	.
.	.	24f#\JJ	.	.	.	.	.	.	.	.	24ff#\JJ	.	.	.	.	.	.	.	.	.	.	.	.	.	.	.	.	.	.	.	24ff#/	.	.	.	.	24fff#\JJ	.
!	!	!	!	!	!	!	!	!	!	!	!LO:TUP:a	!	!	!	!	!	!	!	!	!	!	!	!	!	!	!	!	!	!	!	!	!	!	!	!	!	!
8r	.	24g\LL	.	.	.	.	8f#\L 8A#X\	.	8e/L 8c#/	.	24gg\LL	.	.	.	.	.	8r	.	8r	.	8cc#/L 8e/	.	.	.	.	.	.	.	.	.	24gg/	.	.	.	.	24ggg\LL	.
.	.	24f#\)	.	.	.	.	.	.	.	.	24ff#\	.	.	.	.	.	.	.	.	.	.	.	.	.	.	.	.	.	.	.	24ff#/	.	.	.	.	24fff#\	.
.	.	24g\JJ	.	.	.	.	.	.	.	.	24gg\JJ	.	.	.	.	.	.	.	.	.	.	.	.	.	.	.	.	.	.	.	24gg/JJ)	.	.	.	.	24ggg\JJ)	.
!	!	!	!	!	!	!	!	!	!	!	!LO:TUP:a	!	!	!	!	!	!	!	!	!	!	!	!	!	!	!	!	!	!	!	!	!	!	!	!	!	!
8r	.	(24f#\LL	.	.	.	.	8f#\J 8A#\	.	8e/J 8c#/	.	24ff#\LL	.	.	.	.	.	8r	.	8r	.	8cc#/J 8e/	.	.	.	.	.	.	.	.	.	(24ff#/LL	.	.	.	.	(24fff#\LL	.
.	.	24fn\	.	.	.	.	.	.	.	.	24ffn\	.	.	.	.	.	.	.	.	.	.	.	.	.	.	.	.	.	.	.	24ffn/	.	.	.	.	24fffn\	.
.	.	24e\JJ)	.	.	.	.	.	.	.	.	24ee\JJ)	.	.	.	.	.	.	.	.	.	.	.	.	.	.	.	.	.	.	.	24ee/JJ)	.	.	.	.	24eee\JJ)	.
=26	=26	=26	=26	=26	=26	=26	=26	=26	=26	=26	=26	=26	=26	=26	=26	=26	=26	=26	=26	=26	=26	=26	=26	=26	=26	=26	=26	=26	=26	=26	=26	=26	=26	=26	=26	=26	=26
*	*	*	*	*	*	*	*	*	*	*	*	*	*^	*	*	*	*	*	*	*	*	*	*	*	*^	*	*	*	*	*	*	*	*	*	*	*	*
8BB/	.	16.d'\LL	.	4.r	.	.	8r	.	8r	.	16.dd\LL	.	8r	8Ra\	.	4.r	.	8BB/	.	8d/ 8F#/	.	8r	.	4.B\ 4.BB\))	.	4.dd/))	4.dd\	.	4.f#/] 4.F#/]	.	4.b/ 4.d/))	.	16.dd/LL	4.b\	.	4.r	.	16.ddd\LL	.
.	.	32e'\JJk	.	.	.	.	.	.	.	.	32ee\JJk	.	.	.	.	.	.	.	.	.	.	.	.	.	.	.	.	.	.	.	.	.	32ee/JJk	.	.	.	.	32eee\JJk	.
8r	.	8f#'\L	.	.	.	.	8f#\L 8B\	.	8d/L 8B/	.	8ff#\L	.	8Ree/L	8r	.	.	.	8r	.	8r	.	8b/L 8d/	.	.	.	.	.	.	.	.	.	.	8ff#/L	.	.	.	.	8fff#\L	.
8r	.	8d'\J	.	.	.	.	8f#\J 8B\	.	8d/J 8B/	.	8b\J	.	8Ree/J	8r	.	.	.	8r	.	8r	.	8b/J 8d/	.	.	.	.	.	.	.	.	.	.	8b/J	.	.	.	.	8bb\J	.
*	*	*	*	*	*	*	*	*	*	*	*	*	*v	*v	*	*	*	*	*	*	*	*	*	*	*	*v	*v	*	*	*	*	*	*v	*v	*	*	*	*	*
*	*	*clefF4	*	*	*	*	*	*	*	*	*	*	*	*	*	*	*	*	*	*	*	*	*	*	*	*	*	*	*	*	*	*	*	*	*	*
=27	=27	=27	=27	=27	=27	=27	=27	=27	=27	=27	=27	=27	=27	=27	=27	=27	=27	=27	=27	=27	=27	=27	=27	=27	=27	=27	=27	=27	=27	=27	=27	=27	=27	=27	=27	=27
!	!LO:DY:rj	!	!	!	!	!	!	!	!	!LO:DY:rj	!	!LO:HP:a	!	!	!	!	!	!	!	!	!	!	!	!	!	!	!	!	!	!	!	!	!	!	!	!
!	!	!	!	!	!	!	!	!	!	!	!	!LO:DY:rj	!	!	!	!	!	!	!	!	!	!	!	!	!	!	!	!	!	!	!	!	!	!	!	!
4E\	p	4E\	<	16.cc#\	O-	.	8r	.	8r	p	16.cc#\LL	p <	4.r	.	4.r	.	4.r	.	4.r	.	4.r	.	4.r	.	4.r	.	4.r	.	4.r	.	4.r	.	4.r	.	4.r	.
.	.	.	.	32dd\	-na	.	.	.	.	.	32dd\JJk	.	.	.	.	.	.	.	.	.	.	.	.	.	.	.	.	.	.	.	.	.	.	.	.	.
!	!	!	!	!	!	!	!	!	!	!	!	!LO:HP:a	!	!	!	!	!	!	!	!	!	!	!	!	!	!	!	!	!	!	!	!	!	!	!	!
.	.	.	.	8cc#\	zwo-	.	8G/L	.	8c#/L	.	8cc#\L	[ >	.	.	.	.	.	.	.	.	.	.	.	.	.	.	.	.	.	.	.	.	.	.	.	.
8E#X\	.	8E#X\	[ > ]]	8b\	-dzi	.	8G#X/J	.	8c#/J	.	8b\J	]]	.	.	.	.	.	.	.	.	.	.	.	.	.	.	.	.	.	.	.	.	.	.	.	.
!!LO:PB:g=original
=28	=28	=28	=28	=28	=28	=28	=28	=28	=28	=28	=28	=28	=28	=28	=28	=28	=28	=28	=28	=28	=28	=28	=28	=28	=28	=28	=28	=28	=28	=28	=28	=28	=28	=28	=28	=28
8F#\	.	8F#\L	.	16.a#X/	nie	.	8r	.	8r	.	16.a#X/LL	.	4.r	.	4.r	.	4.r	.	4.r	.	4.r	.	4.r	.	4.r	.	4.r	.	4.r	.	4.r	.	4.r	.	4.r	.
.	.	.	.	32b/	przy-	.	.	.	.	.	32b/JJk	.	.	.	.	.	.	.	.	.	.	.	.	.	.	.	.	.	.	.	.	.	.	.	.	.
8r	.	8F#\	.	8cc#\	-cho-	.	8A#X/L	.	8c#/L	.	8cc#/L	.	.	.	.	.	.	.	.	.	.	.	.	.	.	.	.	.	.	.	.	.	.	.	.	.
8r	.	8F#\J	.	8f#/	-dzi	.	8A#/J	.	8c#/J	.	8f#/J	.	.	.	.	.	.	.	.	.	.	.	.	.	.	.	.	.	.	.	.	.	.	.	.	.
*	*	*clefC4	*	*	*	*	*	*	*	*	*	*	*	*	*	*	*	*	*	*	*	*	*	*	*	*	*	*	*	*	*	*	*	*	*	*
=29	=29	=29	=29	=29	=29	=29	=29	=29	=29	=29	=29	=29	=29	=29	=29	=29	=29	=29	=29	=29	=29	=29	=29	=29	=29	=29	=29	=29	=29	=29	=29	=29	=29	=29	=29	=29
*	*	*	*	*	*	*	*	*	*	*	*	*	*	*	*	*	*	*	*	*	*	*	*	*	*^	*	*	*	*	*	*^	*	*	*	*	*
*	*	*	*	*	*	*	*	*	*	*	*Xtuplet	*	*	*	*	*	*	*	*	*	*	*	*	*	*	*	*	*	*	*	*	*	*	*	*	*	*	*
!	!	!	!	!	!	!	!	!	!	!LO:DY:rj	!	!LO:DY:rj	!	!	!	!	!	!	!	!LO:DY:rj	!	!	!	!	!	!	!	!	!LO:DY:rj	!	!	!	!	!LO:DY:rj	!	!	!	!LO:DY:rj
8AA#X/	.	(24f#\LL	.	4.r	.	.	8r	.	8r	f	(24ff#\LL	f	4.r	.	4.r	.	8AA#X/	.	8c#/ 8F#/	f	8r	.	(4.A#X\ (4.AA#X\	.	((4.ee/	4.cc#X\	.	[4.f#/ [4.F#/	f	(4.cc#/ (4.e/	.	(24ff#/LL	(4.cc#\	f	4.r	.	(24fff#\LL	f
.	.	24g\	.	.	.	.	.	.	.	.	24gg\	.	.	.	.	.	.	.	.	.	.	.	.	.	.	.	.	.	.	.	.	24gg/	.	.	.	.	24ggg\	.
.	.	24f#\JJ	.	.	.	.	.	.	.	.	24ff#\JJ	.	.	.	.	.	.	.	.	.	.	.	.	.	.	.	.	.	.	.	.	24ff#/JJ	.	.	.	.	24fff#\JJ	.
8r	.	24g\LL	.	.	.	.	8f#\L 8A#X\	.	8e/L 8c#/	.	24gg\LL	.	.	.	.	.	8r	.	8r	.	8cc#/L 8e/	.	.	.	.	.	.	.	.	.	.	24gg/LL	.	.	.	.	24ggg\LL	.
.	.	24f#\	.	.	.	.	.	.	.	.	24ff#\	.	.	.	.	.	.	.	.	.	.	.	.	.	.	.	.	.	.	.	.	24ff#/)	.	.	.	.	24fff#\	.
.	.	24g\JJ)	.	.	.	.	.	.	.	.	24gg\JJ)	.	.	.	.	.	.	.	.	.	.	.	.	.	.	.	.	.	.	.	.	24gg/JJ	.	.	.	.	24ggg\JJ)	.
8r	.	(24f#\LL	.	.	.	.	8f#\J 8A#\	.	8e/J 8c#/	.	(24ff#\LL	.	.	.	.	.	8r	.	8r	.	8cc#/J 8e/	.	.	.	.	.	.	.	.	.	.	(24ff#/LL	.	.	.	.	(24fff#\LL	.
.	.	24fn\	.	.	.	.	.	.	.	.	24ffn\	.	.	.	.	.	.	.	.	.	.	.	.	.	.	.	.	.	.	.	.	24ffn/	.	.	.	.	24fffn\	.
.	.	24e\JJ)	.	.	.	.	.	.	.	.	24ee\JJ)	.	.	.	.	.	.	.	.	.	.	.	.	.	.	.	.	.	.	.	.	24ee/JJ)	.	.	.	.	24eee\JJ)	.
=30	=30	=30	=30	=30	=30	=30	=30	=30	=30	=30	=30	=30	=30	=30	=30	=30	=30	=30	=30	=30	=30	=30	=30	=30	=30	=30	=30	=30	=30	=30	=30	=30	=30	=30	=30	=30	=30	=30
*	*	*	*	*	*	*	*	*	*	*	*	*	*^	*	*	*	*	*	*	*	*	*	*	*	*	*	*	*	*	*	*	*	*	*	*	*	*	*
!	!	!	!	!	!	!	!	!	!	!	!	!	!LO:TX:t=P:problem:w źródle w taktach 30-32 Timpani zamienione z Bandą	!	!	!LO:TX:t=P:problem:w źródle w taktach 30-32 Timpani zamienione z Bandą	!	!	!	!	!	!	!	!	!	!	!	!	!	!	!	!	!	!	!	!	!	!	!
8BB/	.	16.d\LL	.	4.r	.	.	8r	.	8r	.	16.dd'\LL	.	8r	8Ra\	.	4.r	.	8BB/	.	8d/ 8F#/	.	8r	.	4.B\ 4.BB\))	.	4.dd/))	4.dd\	.	4.f#/] 4.F#/]	.	4.b/ 4.d/))	.	16.dd/LL	4.b\)	.	4.r	.	16.ddd'\LL	.
.	.	32e\JJk	.	.	.	.	.	.	.	.	32ee'\JJk	.	.	.	.	.	.	.	.	.	.	.	.	.	.	.	.	.	.	.	.	.	32ee/JJk	.	.	.	.	32eee'\JJk	.
.	.	(8qg/	.	.	.	.	.	.	.	.	(8qgg/	.	.	.	.	.	.	.	.	.	.	.	.	.	.	.	.	.	.	.	.	.	(8qgg/	.	.	.	.	(8qggg/	.
*	*	*	*	*	*	*	*	*	*	*	*	*	*tremolo	*	*	*	*	*	*	*	*	*	*	*	*	*	*	*	*	*	*	*	*	*	*	*	*	*	*
8r	.	8f#\L)	.	.	.	.	8f#\L 8B\	.	8d/L 8B/	.	8ff#\L)|	.	32Ree/LLL	8r	.	.	.	8r	.	8r	.	8b/L 8d/	.	.	.	.	.	.	.	.	.	.	8ff#/L)	.	.	.	.	8fff#\L)	.
.	.	.	.	.	.	.	.	.	.	.	.	.	32Ree/	.	.	.	.	.	.	.	.	.	.	.	.	.	.	.	.	.	.	.	.	.	.	.	.	.	.
.	.	.	.	.	.	.	.	.	.	.	.	.	32Ree/	.	.	.	.	.	.	.	.	.	.	.	.	.	.	.	.	.	.	.	.	.	.	.	.	.	.
.	.	.	.	.	.	.	.	.	.	.	.	.	32Ree/JJ	.	.	.	.	.	.	.	.	.	.	.	.	.	.	.	.	.	.	.	.	.	.	.	.	.	.
*	*	*	*	*	*	*	*	*	*	*	*	*	*Xtremolo	*	*	*	*	*	*	*	*	*	*	*	*	*	*	*	*	*	*	*	*	*	*	*	*	*	*
8r	.	8d\J	.	.	.	.	8f#\J 8B\	.	8d/J 8B/	.	8dd\J|	.	8Ree/J	8r	.	.	.	8r	.	8r	.	8b/J 8d/	.	.	.	.	.	.	.	.	.	.	8b/J	.	.	.	.	8bb'\J	.
*	*	*	*	*	*	*	*	*	*	*	*	*	*v	*v	*	*	*	*	*	*	*	*	*	*	*	*v	*v	*	*	*	*	*	*v	*v	*	*	*	*	*
*	*	*clefF4	*	*	*	*	*	*	*	*	*	*	*	*	*	*	*	*	*	*	*	*	*	*	*	*	*	*	*	*	*	*	*	*	*	*
=31	=31	=31	=31	=31	=31	=31	=31	=31	=31	=31	=31	=31	=31	=31	=31	=31	=31	=31	=31	=31	=31	=31	=31	=31	=31	=31	=31	=31	=31	=31	=31	=31	=31	=31	=31	=31
!	!LO:DY:rj	!	!LO:DY:rj	!	!	!	!	!	!	!	!	!LO:DY:rj	!	!	!	!	!	!	!	!	!	!	!	!	!	!	!	!	!	!	!	!	!	!	!	!
4E\	p	4E\	p	16.cc#\	A	.	8r	.	8r	p	16.cc#\LL|	p	4.r	.	4.r	.	4.r	.	4.r	.	4.r	.	4.r	.	4.r	.	4.r	.	4.r	.	4.r	.	4.r	.	4.r	.
.	.	.	.	32dd\	ja	.	.	.	.	.	32dd\JJk|	.	.	.	.	.	.	.	.	.	.	.	.	.	.	.	.	.	.	.	.	.	.	.	.	.
.	.	.	.	8cc#\	wzdy-	.	8G/L	.	8c#/L	.	8cc#'\L	.	.	.	.	.	.	.	.	.	.	.	.	.	.	.	.	.	.	.	.	.	.	.	.	.
8E#X\	.	8E#X\	.	8b\	-cham	.	8G#X/J	.	8c#/J	.	8b'\J	.	.	.	.	.	.	.	.	.	.	.	.	.	.	.	.	.	.	.	.	.	.	.	.	.
=32	=32	=32	=32	=32	=32	=32	=32	=32	=32	=32	=32	=32	=32	=32	=32	=32	=32	=32	=32	=32	=32	=32	=32	=32	=32	=32	=32	=32	=32	=32	=32	=32	=32	=32	=32	=32
*	*	*	*	*	*	*	*	*	*	*	*	*	*^	*	*	*	*	*	*	*	*	*	*^	*	*^	*	*	*	*	*	*	*	*	*	*	*
8F#\	.	8F#\L	.	16.a#X/	i	.	8r	.	8r	.	16.a#X'\LL	.	4r	4ryy	.	4.r	.	8r	.	8r	.	8r	.	8r	8ryy	.	8r	8ryy	.	8r	.	8r	.	8r	.	8r	.	8r	.
.	.	.	.	32cc#/	u-	.	.	.	.	.	32cc#'\JJk	.	.	.	.	.	.	.	.	.	.	.	.	.	.	.	.	.	.	.	.	.	.	.	.	.	.	.	.
8r	.	8F#\J	.	8ff#\	-sy-	.	8A#X/	.	8c#/	.	8ff#'\	.	.	.	.	.	.	8r	.	8r	.	8r	.	8r	8ryy	.	8r	8ryy	.	8r	.	8r	.	8r	.	8r	.	8r	.
!	!LO:DY:rj	!	!LO:DY:rj	!	!	!	!	!LO:DY:rj	!	!LO:DY:rj	!	!LO:DY:rj	!	!	!	!	!	!	!	!	!	!	!LO:DY:rj	!	!	!	!	!	!LO:DY:rj	!	!	!	!LO:DY:rj	!	!LO:DY:rj	!	!	!	!LO:DY:rj
8F#\	f	8F#\	f	8f#/	-cham	.	8c#/ 8F#/	f	8a#X/ 8c#/	f	8ff#\ 8cc#\ 8f#\	f	8Ree/	8Ra\	.	.	.	8F#/ 8FF#/	.	8f#\ 8A#X\	.	8cc#/ 8f#/	f	8A#X/	8F#\	.	8cc#X/	8cc#\	f	8f#/ 8F#/	.	8ff#\ 8a#X\	f	8aa#X\ 8cc#\	f	8ff#\	.	8fff#\	f
*	*	*	*	*	*	*	*	*	*	*	*	*	*	*	*	*	*	*	*	*	*	*	*	*v	*v	*	*	*	*	*	*	*	*	*	*	*	*	*	*
*	*	*	*	*	*	*	*	*	*	*	*	*	*v	*v	*	*	*	*	*	*	*	*	*	*	*	*v	*v	*	*	*	*	*	*	*	*	*	*	*
!!LO:PB:g=original
=33	=33	=33	=33	=33	=33	=33	=33	=33	=33	=33	=33	=33	=33	=33	=33	=33	=33	=33	=33	=33	=33	=33	=33	=33	=33	=33	=33	=33	=33	=33	=33	=33	=33	=33	=33	=33
4.r	.	4.r	.	4ff#\	Ah!	.	4.r	.	4.r	.	4.r	.	4.r	.	4.r	.	4.r	.	4.r	.	4.r	.	4.r	.	4.r	.	4.r	.	4.r	.	4.r	.	4.r	.	4.r	.
.	.	.	.	8r	.	.	.	.	.	.	.	.	.	.	.	.	.	.	.	.	.	.	.	.	.	.	.	.	.	.	.	.	.	.	.	.
=34	=34	=34	=34	=34	=34	=34	=34	=34	=34	=34	=34	=34	=34	=34	=34	=34	=34	=34	=34	=34	=34	=34	=34	=34	=34	=34	=34	=34	=34	=34	=34	=34	=34	=34	=34	=34
*	*	*	*	*	*	*	*	*	*	*	*	*	*^	*	*	*	*	*	*	*	*	*	*	*	*^	*	*	*	*	*	*	*	*	*	*	*
!	!LO:DY:rj	!LO:TX:t=P:problem:w taktach 34-49 powtarzam partię CV, oktawę wyżej	!LO:DY:rj	!	!	!	!	!LO:DY:rj	!	!	!	!LO:DY:rj	!LO:TX:a:i:t=Banda	!	!	!LO:TX:i:a:t=Timp	!	!	!	!	!LO:DY:rj	!	!	!	!LO:DY:rj	!	!	!	!	!	!	!	!	!LO:DY:rj	!	!	!	!LO:DY:rj
8AA/	f	8AA/yy	fyy	(8.gg\L	Ah!	.	8c#/ 8E/	f	8cc#/ 8e/	.	8gg\ 8a\	f	8Ree/	8Ra\	.	8AA/	.	8A\ 8AA\	.	8e\ 8c#\	f	8cc#/ 8g/	.	8A\ 8AA\	f	8ee/	8cc#X\	.	8a\ 8A\	.	8ee\ 8cc#\	.	8ccc#\ 8gg\	f	8gg\	.	8eee\	f
!	!	!LO:TX:i:t=rall.	!	!	!	!	!	!	!	!	!	!	!	!	!	!	!	!	!	!	!	!	!	!	!	!	!	!	!	!	!	!	!	!	!	!	!	!
8r	.	8ryy	.	.	.	.	8r	.	8r	.	8r	.	8r	8r	.	8r	.	8r	.	8r	.	8r	.	8r	.	8r	8ryy	.	8r	.	8r	.	8r	.	8r	.	8r	.
.	.	.	.	16ff#\Jk	.	.	.	.	.	.	.	.	.	.	.	.	.	.	.	.	.	.	.	.	.	.	.	.	.	.	.	.	.	.	.	.	.	.
!	!	!	!	!	!	!	!	!	!	!	!	!	!	!	!	!	!	!	!	!	!	!	!	!	!	!	!	!	!	!	!	!	!	!	!	!	!LO:TX:a:i:t=rall	!
8r	.	8ryy	.	32aa\LLL	.	.	8r	.	8r	.	8r	.	8r	8r	.	8r	.	8r	.	8r	.	8r	.	8r	.	8r	8ryy	.	8r	.	8r	.	8r	.	8r	.	8r	.
.	.	.	.	32gg\	.	.	.	.	.	.	.	.	.	.	.	.	.	.	.	.	.	.	.	.	.	.	.	.	.	.	.	.	.	.	.	.	.	.
.	.	.	.	32ee\	.	.	.	.	.	.	.	.	.	.	.	.	.	.	.	.	.	.	.	.	.	.	.	.	.	.	.	.	.	.	.	.	.	.
.	.	.	.	32cc#\JJJ)	.	.	.	.	.	.	.	.	.	.	.	.	.	.	.	.	.	.	.	.	.	.	.	.	.	.	.	.	.	.	.	.	.	.
*	*	*	*	*	*	*	*	*	*	*	*	*	*v	*v	*	*	*	*	*	*	*	*	*	*	*	*v	*v	*	*	*	*	*	*	*	*	*	*	*
=35	=35	=35	=35	=35	=35	=35	=35	=35	=35	=35	=35	=35	=35	=35	=35	=35	=35	=35	=35	=35	=35	=35	=35	=35	=35	=35	=35	=35	=35	=35	=35	=35	=35	=35	=35	=35
4.r	.	4.ryy	.	(8b/L	.	.	4.r	.	4.r	.	4.r	.	4.r	.	4.r	.	4.r	.	4.r	.	4.r	.	4.r	.	4.r	.	4.r	.	4.r	.	4.r	.	4.r	.	4.r	.
.	.	.	.	32b/LL	.	.	.	.	.	.	.	.	.	.	.	.	.	.	.	.	.	.	.	.	.	.	.	.	.	.	.	.	.	.	.	.
.	.	.	.	32a/	.	.	.	.	.	.	.	.	.	.	.	.	.	.	.	.	.	.	.	.	.	.	.	.	.	.	.	.	.	.	.	.
.	.	.	.	32g#X/	.	.	.	.	.	.	.	.	.	.	.	.	.	.	.	.	.	.	.	.	.	.	.	.	.	.	.	.	.	.	.	.
.	.	.	.	32a/JJJ	.	.	.	.	.	.	.	.	.	.	.	.	.	.	.	.	.	.	.	.	.	.	.	.	.	.	.	.	.	.	.	.
.	.	.	.	16gn/LL	.	.	.	.	.	.	.	.	.	.	.	.	.	.	.	.	.	.	.	.	.	.	.	.	.	.	.	.	.	.	.	.
.	.	.	.	16e/JJ)	.	.	.	.	.	.	.	.	.	.	.	.	.	.	.	.	.	.	.	.	.	.	.	.	.	.	.	.	.	.	.	.
=36	=36	=36	=36	=36	=36	=36	=36	=36	=36	=36	=36	=36	=36	=36	=36	=36	=36	=36	=36	=36	=36	=36	=36	=36	=36	=36	=36	=36	=36	=36	=36	=36	=36	=36	=36	=36
*	*	*	*	*	*	*	*	*	*	*	*	*	*^	*	*	*	*	*	*	*	*	*	*	*	*^	*	*	*	*^	*	*	*	*	*	*	*
*	*	*	*	*	*	*	*	*	*	*	*	*	*tremolo	*	*	*	*	*	*	*	*	*	*	*	*	*	*	*	*	*	*	*	*	*	*	*	*	*	*
!	!	!LO:TX:i:t=a tempo	!	!	!	!	!	!	!	!LO:DY:rj	!	!	!	!	!LO:DY:a:rj	!	!	!	!	!	!	!	!	!	!	!	!	!LO:DY:rj	!	!LO:DY:rj	!	!	!LO:DY:rj	!	!	!	!	!LO:TX:a:i:t=a tempo	!LO:DY:rj
8D\	.	8D\yy	.	16.f#/	-Przy-	.	8r	p	16r	p	4.r	.	8Ree/L	4.r	pp	4.r	.	4.r	.	4.r	.	4.r	.	4.r	.	(4.dd/	(4.dd\	p	(4.f#\ [4.A\	p	16.f#'/LL	4.r	p	4.r	.	4.r	.	16.ff#\LL	p
.	.	.	.	.	.	.	.	.	16A'/	.	.	.	.	.	.	.	.	.	.	.	.	.	.	.	.	.	.	.	.	.	.	.	.	.	.	.	.	.	.
.	.	.	.	32a/	-bądź	.	.	.	.	.	.	.	.	.	.	.	.	.	.	.	.	.	.	.	.	.	.	.	.	.	32a'/JJk	.	.	.	.	.	.	32aa\JJk	.
8r	.	8ryy	.	8dd\	mo-	.	8f#\L 8A\	.	16d'/LL	.	.	.	8Ree/	.	.	.	.	.	.	.	.	.	.	.	.	.	.	.	.	.	8dd'/L	.	.	.	.	.	.	8ddd\L	.
.	.	.	.	.	.	.	.	.	16a'/	.	.	.	.	.	.	.	.	.	.	.	.	.	.	.	.	.	.	.	.	.	.	.	.	.	.	.	.	.	.
8r	.	8ryy	.	8dd\	-ja	.	8f#\J 8A\	.	16f#'/	.	.	.	8Ree/J	.	.	.	.	.	.	.	.	.	.	.	.	.	.	.	.	.	8dd'/J	.	.	.	.	.	.	8ddd\J	.
.	.	.	.	.	.	.	.	.	16d'/JJ	.	.	.	.	.	.	.	.	.	.	.	.	.	.	.	.	.	.	.	.	.	.	.	.	.	.	.	.	.	.
=37	=37	=37	=37	=37	=37	=37	=37	=37	=37	=37	=37	=37	=37	=37	=37	=37	=37	=37	=37	=37	=37	=37	=37	=37	=37	=37	=37	=37	=37	=37	=37	=37	=37	=37	=37	=37	=37	=37	=37
!	!	!	!	!	!	!	!	!	!	!	!	!LO:DY:rj	!	!	!	!	!	!	!	!	!	!	!	!	!	!	!	!	!	!	!	!	!	!	!	!	!	!	!
8AA/	.	8AA/yy	.	4cc#\	lu-	.	8r	.	16e'/LL	.	8g/	p	8Ree/L	4.r	.	4.r	.	4.r	.	4.r	.	4.r	.	4.r	.	8ee/)	8cc#X\)	.	8g\ 8A\])	.	(4cc#/	4.r	.	4.r	.	4.r	.	(4ccc#\	.
.	.	.	.	.	.	.	.	.	(16A/	.	.	.	.	.	.	.	.	.	.	.	.	.	.	.	.	.	.	.	.	.	.	.	.	.	.	.	.	.	.
8r	.	8ryy	.	.	.	.	8g\L 8e\	.	16B-X/	.	8r	.	8Ree/	.	.	.	.	.	.	.	.	.	.	.	.	8r	8ryy	.	8r	.	.	.	.	.	.	.	.	.	.
.	.	.	.	.	.	.	.	.	16A/)	.	.	.	.	.	.	.	.	.	.	.	.	.	.	.	.	.	.	.	.	.	.	.	.	.	.	.	.	.	.
8r	.	8ryy	.	8g/	-ba	.	8g\J 8A\	.	(16e/	.	8e/	.	8Ree/J	.	.	.	.	.	.	.	.	.	.	.	.	8r	8ryy	.	8r	.	8g/)	.	.	.	.	.	.	8gg\)	.
.	.	.	.	.	.	.	.	.	16A/JJ)	.	.	.	.	.	.	.	.	.	.	.	.	.	.	.	.	.	.	.	.	.	.	.	.	.	.	.	.	.	.
=38	=38	=38	=38	=38	=38	=38	=38	=38	=38	=38	=38	=38	=38	=38	=38	=38	=38	=38	=38	=38	=38	=38	=38	=38	=38	=38	=38	=38	=38	=38	=38	=38	=38	=38	=38	=38	=38	=38	=38
8D\	.	8D\yy	.	16.f#/	Bo	.	8r	.	16r	.	4.r	.	8Ree/L	4.r	.	4.r	.	4.r	.	4.r	.	4.r	.	4.r	.	(4.dd/	(4.dd\	.	(4.f#\ [4.A\	.	16.f#'/LL	4.r	.	4.r	.	4.r	.	16.ff#\LL|	.
.	.	.	.	.	.	.	.	.	16A/	.	.	.	.	.	.	.	.	.	.	.	.	.	.	.	.	.	.	.	.	.	.	.	.	.	.	.	.	.	.
.	.	.	.	32a/	już	.	.	.	.	.	.	.	.	.	.	.	.	.	.	.	.	.	.	.	.	.	.	.	.	.	32a'/JJk	.	.	.	.	.	.	32aa\JJk|	.
8r	.	8ryy	.	(16dd\LL	mi-	.	8f#\L 8A\	.	(16d/LL	.	.	.	8Ree/	.	.	.	.	.	.	.	.	.	.	.	.	.	.	.	.	.	(16dd/LL	.	.	.	.	.	.	(16ddd\LL	.
.	.	.	.	16ff#\JJ)	.	.	.	.	16f#/JJ)	.	.	.	.	.	.	.	.	.	.	.	.	.	.	.	.	.	.	.	.	.	16ff#/JJ)	.	.	.	.	.	.	16fff#\JJ)	.
8r	.	8ryy	.	(16ee\LL	-ia	.	8f#\J 8A\	.	(16e/LL	.	.	.	8Ree/J	.	.	.	.	.	.	.	.	.	.	.	.	.	.	.	.	.	(16ee/LL	.	.	.	.	.	.	(16eee\LL	.
.	.	.	.	16dd\JJ)	.	.	.	.	16d/JJ)	.	.	.	.	.	.	.	.	.	.	.	.	.	.	.	.	.	.	.	.	.	16dd/JJ)	.	.	.	.	.	.	16ddd\JJ)	.
!!LO:PB:g=original
=39	=39	=39	=39	=39	=39	=39	=39	=39	=39	=39	=39	=39	=39	=39	=39	=39	=39	=39	=39	=39	=39	=39	=39	=39	=39	=39	=39	=39	=39	=39	=39	=39	=39	=39	=39	=39	=39	=39	=39
8AA/	.	8AA/yy	.	4cc#\	czas	.	8r	.	16e'/LL	.	8g/	.	8Ree/L	4.r	.	4.r	.	4.r	.	4.r	.	4.r	.	4.r	.	8ee/)	8cc#X\)	.	8g\ 8A\])	.	4cc#/	4.r	.	4.r	.	4.r	.	4ccc#\	.
.	.	.	.	.	.	.	.	.	(16A/	.	.	.	.	.	.	.	.	.	.	.	.	.	.	.	.	.	.	.	.	.	.	.	.	.	.	.	.	.	.
8r	.	8ryy	.	.	.	.	8g\L 8e\	.	16B-X/	.	8r	.	8Ree/	.	.	.	.	.	.	.	.	.	.	.	.	8r	8ryy	.	8r	.	.	.	.	.	.	.	.	.	.
.	.	.	.	.	.	.	.	.	16A/)	.	.	.	.	.	.	.	.	.	.	.	.	.	.	.	.	.	.	.	.	.	.	.	.	.	.	.	.	.	.
8r	.	8ryy	.	8r	.	.	8g\J 8A\	.	(16c#/	.	8e/	.	8Ree/J	.	.	.	.	.	.	.	.	.	.	.	.	8r	8ryy	.	8r	.	8r	.	.	.	.	.	.	8r	.
.	.	.	.	.	.	.	.	.	16A/JJ)	.	.	.	.	.	.	.	.	.	.	.	.	.	.	.	.	.	.	.	.	.	.	.	.	.	.	.	.	.	.
*	*	*	*	*	*	*	*	*	*	*	*	*	*Xtremolo	*	*	*	*	*	*	*	*	*	*	*	*	*	*	*	*	*	*	*	*	*	*	*	*	*	*
*	*	*	*	*	*	*	*	*	*	*	*	*	*v	*v	*	*	*	*	*	*	*	*	*	*	*	*v	*v	*	*	*	*v	*v	*	*	*	*	*	*	*
=40	=40	=40	=40	=40	=40	=40	=40	=40	=40	=40	=40	=40	=40	=40	=40	=40	=40	=40	=40	=40	=40	=40	=40	=40	=40	=40	=40	=40	=40	=40	=40	=40	=40	=40	=40	=40
!	!	!	!	!	!	!	!	!	!	!	!	!	!	!	!	!	!	!	!	!	!	!	!	!LO:DY:rj	!	!	!	!	!	!	!	!	!	!	!	!
8D\	.	8D\yy	.	16.f#/	Jak	.	8r	.	16r	.	4.r	.	4.r	.	4.r	.	4.r	.	4.r	.	4.r	.	8D\	p	8r	.	8r	p	4.r	.	4.r	.	4.r	.	4.r	.
.	.	.	.	.	.	.	.	.	16A/	.	.	.	.	.	.	.	.	.	.	.	.	.	.	.	.	.	.	.	.	.	.	.	.	.	.	.
.	.	.	.	32a/	nie	.	.	.	.	.	.	.	.	.	.	.	.	.	.	.	.	.	.	.	.	.	.	.	.	.	.	.	.	.	.	.
8r	.	8ryy	.	8ee\	przyj-	.	8f#\L 8A\	.	(16e/LL	.	.	.	.	.	.	.	.	.	.	.	.	.	8r	.	8dd\L	.	8f#\L 8A\	.	.	.	.	.	.	.	.	.
.	.	.	.	.	.	.	.	.	16d/)	.	.	.	.	.	.	.	.	.	.	.	.	.	.	.	.	.	.	.	.	.	.	.	.	.	.	.
8r	.	8ryy	.	8dd\	-dziesz	.	8f#\J 8A\	.	16f#'/	.	.	.	.	.	.	.	.	.	.	.	.	.	8r	.	8dd\J	.	8f#\J 8A\	.	.	.	.	.	.	.	.	.
.	.	.	.	.	.	.	.	.	16d'/JJ	.	.	.	.	.	.	.	.	.	.	.	.	.	.	.	.	.	.	.	.	.	.	.	.	.	.	.
=41	=41	=41	=41	=41	=41	=41	=41	=41	=41	=41	=41	=41	=41	=41	=41	=41	=41	=41	=41	=41	=41	=41	=41	=41	=41	=41	=41	=41	=41	=41	=41	=41	=41	=41	=41	=41
8G\	.	8G\yy	.	16.cc#\	pew-	.	8r	.	16r	.	4.r	.	4.r	.	4.r	.	4.r	.	4.r	.	4.r	.	8G\	.	8r	.	8r	.	4.r	.	4.r	.	4.r	.	4.r	.
.	.	.	.	.	.	.	.	.	16B/	.	.	.	.	.	.	.	.	.	.	.	.	.	.	.	.	.	.	.	.	.	.	.	.	.	.	.
.	.	.	.	32b\	-na	.	.	.	.	.	.	.	.	.	.	.	.	.	.	.	.	.	.	.	.	.	.	.	.	.	.	.	.	.	.	.
8r	.	8ryy	.	8gg\	zgu-	.	8g\L 8B\	.	(16e/LL	.	.	.	.	.	.	.	.	.	.	.	.	.	8r	.	8ee\L	.	8g\L 8B\	.	.	.	.	.	.	.	.	.
.	.	.	.	.	.	.	.	.	16g/)	.	.	.	.	.	.	.	.	.	.	.	.	.	.	.	.	.	.	.	.	.	.	.	.	.	.	.
8r	.	8ryy	.	8ee\	-ba	.	8g\J 8B-X\	.	16e'/	.	.	.	.	.	.	.	.	.	.	.	.	.	8r	.	8ee\J	.	8g\J 8B-X^\	.	.	.	.	.	.	.	.	.
.	.	.	.	.	.	.	.	.	16B-X'/JJ	.	.	.	.	.	.	.	.	.	.	.	.	.	.	.	.	.	.	.	.	.	.	.	.	.	.	.
=42	=42	=42	=42	=42	=42	=42	=42	=42	=42	=42	=42	=42	=42	=42	=42	=42	=42	=42	=42	=42	=42	=42	=42	=42	=42	=42	=42	=42	=42	=42	=42	=42	=42	=42	=42	=42
*	*	*	*	*	*	*	*	*	*	*	*	*	*	*	*	*	*	*	*	*	*	*	*	*	*^	*	*	*	*	*	*	*	*	*	*	*
8A\	.	8A\yy	.	16.cc#\	zgu-	.	8r	.	16r	.	4.r	.	4.r	.	4.r	.	4.r	.	4.r	.	4.r	.	8A\	.	4.ee/	4.ee\	.	4.g\ 4.A\	.	4.r	.	4.r	.	4.r	.	4.r	.
.	.	.	.	.	.	.	.	.	16c#'/LL	.	.	.	.	.	.	.	.	.	.	.	.	.	.	.	.	.	.	.	.	.	.	.	.	.	.	.	.
.	.	.	.	32ee\	-ba	.	.	.	.	.	.	.	.	.	.	.	.	.	.	.	.	.	.	.	.	.	.	.	.	.	.	.	.	.	.	.	.
8r	.	8ryy	.	8.b/	cze-	.	8g\L 8A\	.	16e'/	.	.	.	.	.	.	.	.	.	.	.	.	.	8r	.	.	.	.	.	.	.	.	.	.	.	.	.	.
.	.	.	.	.	.	.	.	.	16g'/	.	.	.	.	.	.	.	.	.	.	.	.	.	.	.	.	.	.	.	.	.	.	.	.	.	.	.	.
8r	.	8ryy	.	.	.	.	8g\J 8A\	.	(16b/	.	.	.	.	.	.	.	.	.	.	.	.	.	8r	.	.	.	.	.	.	.	.	.	.	.	.	.	.
.	.	.	.	16a/	-ka	.	.	.	16a/JJ)	.	.	.	.	.	.	.	.	.	.	.	.	.	.	.	.	.	.	.	.	.	.	.	.	.	.	.	.
*	*	*	*	*	*	*	*	*	*	*	*	*	*	*	*	*	*	*	*	*	*	*	*	*	*v	*v	*	*	*	*	*	*	*	*	*	*	*
=43	=43	=43	=43	=43	=43	=43	=43	=43	=43	=43	=43	=43	=43	=43	=43	=43	=43	=43	=43	=43	=43	=43	=43	=43	=43	=43	=43	=43	=43	=43	=43	=43	=43	=43	=43	=43
*	*	*	*	*	*	*	*	*	*	*	*	*	*^	*	*	*	*	*	*	*	*	*	*	*	*	*	*	*	*	*	*	*	*	*	*	*
!	!LO:DY:rj	!	!LO:DY:rj	!	!	!	!	!	!	!	!	!	!	!	!	!	!	!	!	!	!LO:DY:rj	!	!	!	!LO:DY:rj	!	!	!	!	!	!	!	!	!	!	!	!
8D\	f	8D\yy	fyy	4f#/	nas	.	8r	f	16f#/	.	16r	.	8Ree/L	4Ra\	.	8r	f	4.D\	.	4.f#\ 4.A\	f	16r	.	8D\L	f	8r	.	8r	.	16r	.	16r	.	16r	.	16r	.
!	!	!	!	!	!	!	!	!	!	!	!	!LO:DY:rj	!	!	!	!	!	!	!	!	!	!	!	!	!	!	!	!	!	!	!	!	!	!	!	!	!
.	.	.	.	.	.	.	.	.	16ff#'\LL	.	16aa'\LL	f	.	.	.	.	.	.	.	.	.	16a/LL 16f#'/	.	.	.	.	.	.	.	16aa\LL 16ff#'\	.	16aa\LL 16ff#'\	.	16aa'\LL	.	16fff#'\LL	.
*	*	*	*	*	*	*	*	*	*	*	*	*	*tremolo	*	*	*tremolo	*	*	*	*	*	*	*	*	*	*	*	*	*	*	*	*	*	*	*	*	*
!	!	!	!	!	!	!	!	!	!	!	!	!	!	!	!	!	!	!	!	!	!	!	!	!	!	!	!	!	!LO:DY:rj	!	!	!	!	!	!	!	!
8r	.	8ryy	.	.	.	.	8f#\L 8A\	.	16dd'\	.	16ff#'\	.	32Ree/LL	.	.	32D\L	.	.	.	.	.	16f#/ 16d'/	.	8d\	.	8dd\L	.	8f#\L 8A\	f	16ff#\ 16dd'\	.	16ff#\ 16dd'\	.	16ff#'\	.	16ddd'\	.
.	.	.	.	.	.	.	.	.	.	.	.	.	32Ree/	.	.	32D\	.	.	.	.	.	.	.	.	.	.	.	.	.	.	.	.	.	.	.	.	.
.	.	.	.	.	.	.	.	.	16a'\	.	16dd'\	.	32Ree/	.	.	32D\	.	.	.	.	.	16d/ 16A'/	.	.	.	.	.	.	.	16dd\ 16a'\	.	16dd\ 16a'\	.	16dd'\	.	16aa'\	.
.	.	.	.	.	.	.	.	.	.	.	.	.	32Ree/JJ	.	.	32D\	.	.	.	.	.	.	.	.	.	.	.	.	.	.	.	.	.	.	.	.	.
*	*	*	*	*	*	*	*	*	*	*	*	*	*Xtremolo	*	*	*Xtremolo	*	*	*	*	*	*	*	*	*	*	*	*	*	*	*	*	*	*	*	*	*
8r	.	8ryy	.	8r	.	.	8f#\J 8A\	.	16f#'\	.	16a'\	.	8Ree/J	8r	.	8D\J	.	.	.	.	.	16a/ 16f#'/	.	8D\J	.	8dd\J	.	8f#\J 8A\	.	16a\ 16f#'\	.	16a\ 16f#'\	.	16a'\	.	16ff#'\	.
.	.	.	.	.	.	.	.	.	16d'\JJ	.	16f#'\JJ	.	.	.	.	.	.	.	.	.	.	16f#/JJ 16d'/	.	.	.	.	.	.	.	16f#\JJ 16d'\	.	16f#\JJ 16d'\	.	16f#'\JJ	.	16dd'\JJ	.
*	*	*	*	*	*	*	*	*	*	*	*	*	*v	*v	*	*	*	*	*	*	*	*	*	*	*	*	*	*	*	*	*	*	*	*	*	*	*
=44	=44	=44	=44	=44	=44	=44	=44	=44	=44	=44	=44	=44	=44	=44	=44	=44	=44	=44	=44	=44	=44	=44	=44	=44	=44	=44	=44	=44	=44	=44	=44	=44	=44	=44	=44	=44
!	!LO:DY:rj	!	!LO:DY:rj	!	!	!	!	!LO:DY:rj	!	!	!	!	!	!	!	!	!	!	!	!	!	!	!	!LO:DY:rj	!	!	!	!	!	!	!	!	!	!	!	!
8D\	p	8D\yy	pyy	16.f#/	Jak	.	8r	p	16r	.	4.r	.	4.r	.	4.r	.	4.r	.	4.r	.	4.r	.	8D\	p	8r	.	8r	p	4.r	.	4.r	.	4.r	.	4.r	.
.	.	.	.	.	.	.	.	.	16A'/	.	.	.	.	.	.	.	.	.	.	.	.	.	.	.	.	.	.	.	.	.	.	.	.	.	.	.
.	.	.	.	32a/	nie	.	.	.	.	.	.	.	.	.	.	.	.	.	.	.	.	.	.	.	.	.	.	.	.	.	.	.	.	.	.	.
8r	.	8ryy	.	(16aa\LL	przyj-	.	8f#\L 8A\	.	(16e/LL	.	.	.	.	.	.	.	.	.	.	.	.	.	8r	.	8dd\L	.	8f#\L 8A\	.	.	.	.	.	.	.	.	.
.	.	.	.	16ff#\JJ)	.	.	.	.	16d/)	.	.	.	.	.	.	.	.	.	.	.	.	.	.	.	.	.	.	.	.	.	.	.	.	.	.	.
8r	.	8ryy	.	(16dd\LL	-dziesz	.	16f#\Jk 16A\	.	16f#'/	.	.	.	.	.	.	.	.	.	.	.	.	.	8r	.	16dd\Jk	.	16f#\Jk 16A\	.	.	.	.	.	.	.	.	.
.	.	.	.	16a#X\JJ)	.	.	16r	.	16d'/JJ	.	.	.	.	.	.	.	.	.	.	.	.	.	.	.	16r	.	16r	.	.	.	.	.	.	.	.	.
!!LO:PB:g=original
=45	=45	=45	=45	=45	=45	=45	=45	=45	=45	=45	=45	=45	=45	=45	=45	=45	=45	=45	=45	=45	=45	=45	=45	=45	=45	=45	=45	=45	=45	=45	=45	=45	=45	=45	=45	=45
8GG/	.	8GG/yy	.	16.cc#\	pew-	.	8r	.	16r	.	8r	.	4.r	.	4.r	.	4.r	.	4.r	.	4.r	.	8G/ 8GG/	.	8r	.	8r	.	4.r	.	4.r	.	4.r	.	4.r	.
.	.	.	.	.	.	.	.	.	16B/LL	.	.	.	.	.	.	.	.	.	.	.	.	.	.	.	.	.	.	.	.	.	.	.	.	.	.	.
.	.	.	.	32b\	-na	.	.	.	.	.	.	.	.	.	.	.	.	.	.	.	.	.	.	.	.	.	.	.	.	.	.	.	.	.	.	.
!	!	!	!	!	!	!	!	!	!	!	!	!LO:DY:rj	!	!	!	!	!	!	!	!	!	!	!	!	!	!	!	!	!	!	!	!	!	!	!	!
8r	.	8ryy	.	8gg\	zgu-	.	8g\L 8B\	.	16e/	.	8gg\L	p	.	.	.	.	.	.	.	.	.	.	8r	.	8ee\L	.	8g\L 8B\	.	.	.	.	.	.	.	.	.
.	.	.	.	.	.	.	.	.	16g/	.	.	.	.	.	.	.	.	.	.	.	.	.	.	.	.	.	.	.	.	.	.	.	.	.	.	.
8r	.	8ryy	.	8ee\	-ba	.	8g\J 8B-X\	.	16e/	p	8ee\J	.	.	.	.	.	.	.	.	.	.	.	8r	.	8ee\J	.	8g\J 8B-X\	.	.	.	.	.	.	.	.	.
.	.	.	.	.	.	.	.	.	16B/JJ	.	.	.	.	.	.	.	.	.	.	.	.	.	.	.	.	.	.	.	.	.	.	.	.	.	.	.
=46	=46	=46	=46	=46	=46	=46	=46	=46	=46	=46	=46	=46	=46	=46	=46	=46	=46	=46	=46	=46	=46	=46	=46	=46	=46	=46	=46	=46	=46	=46	=46	=46	=46	=46	=46	=46
*	*	*	*	*	*	*	*	*	*	*	*	*	*^	*	*	*	*	*	*	*	*	*	*	*	*	*	*	*	*^	*	*	*	*	*	*	*
!	!LO:DY:rj	!	!LO:DY:rj	!	!	!	!	!	!	!LO:DY:rj	!	!LO:DY:rj	!	!	!	!	!LO:DY:rj	!	!	!	!LO:DY:rj	!	!	!	!LO:DY:rj	!	!	!	!LO:DY:rj	!	!	!	!	!LO:DY:rj	!	!	!	!LO:DY:rj
8AA/	f	8AA/yy	fyy	16.cc#\	zgu-	.	8g\ 8A\	.	8e/ 8A/	f	8cc#/ 8e/	f	8Ree/	8Ra\	.	8AA/	f	8E\ 8AA\	.	8c#/ 8G/	f	8cc#/ 8e/	.	8A\ 8AA\	f	8ee\ 8cc#X\	.	8e/ 8A/	f	8cc#/	8g\	.	8gg\ 8ee\	f	8ccc#\	.	8ccc#\	f
.	.	.	.	32ee\	-ba	.	.	.	.	.	.	.	.	.	.	.	.	.	.	.	.	.	.	.	.	.	.	.	.	.	.	.	.	.	.	.	.	.
8r	.	8ryy	.	(32b-X/LLL	pew-	.	8r	.	8r	.	8r	.	8r	8ryy	.	8r	.	8r	.	8r	.	8r	.	8r	.	8r	.	8r	.	8r	8ryy	.	8r	.	8r	.	8r	.
.	.	.	.	32a/JJJ)	.	.	.	.	.	.	.	.	.	.	.	.	.	.	.	.	.	.	.	.	.	.	.	.	.	.	.	.	.	.	.	.	.	.
.	.	.	.	(32g#X/LLL	-na	.	.	.	.	.	.	.	.	.	.	.	.	.	.	.	.	.	.	.	.	.	.	.	.	.	.	.	.	.	.	.	.	.
.	.	.	.	32a/JJJ)	.	.	.	.	.	.	.	.	.	.	.	.	.	.	.	.	.	.	.	.	.	.	.	.	.	.	.	.	.	.	.	.	.	.
8r;	.	8r;yy	.	16.ff#;\	cze-	.	8r;	.	8r;	.	8r;	.	8r;	8ryy	.	8r;	.	8r;	.	8r;	.	8r;	.	8r;	.	8r;	.	8r;	.	8r;	8ryy	.	8r;	.	8r;	.	8r;	.
.	.	.	.	32ee\	-ka	.	.	.	.	.	.	.	.	.	.	.	.	.	.	.	.	.	.	.	.	.	.	.	.	.	.	.	.	.	.	.	.	.
*	*	*	*	*	*	*	*	*	*	*	*	*	*v	*v	*	*	*	*	*	*	*	*	*	*	*	*	*	*	*	*v	*v	*	*	*	*	*	*	*
=47	=47	=47	=47	=47	=47	=47	=47	=47	=47	=47	=47	=47	=47	=47	=47	=47	=47	=47	=47	=47	=47	=47	=47	=47	=47	=47	=47	=47	=47	=47	=47	=47	=47	=47	=47	=47
!	!LO:DY:rj	!	!LO:DY:rj	!	!	!	!	!	!	!	!LO:TX:a:i:B:t=piu Allegro	!	!	!	!	!	!	!	!	!	!	!	!	!	!	!	!	!	!	!	!	!	!	!	!LO:TX:a:i:B:t=piu All.o.	!
8D\	p	8D\yy	pyy	8dd\	nas.	.	16r	.	16r	p	4.r	.	4.ryy	.	4.ryy	.	4.ryy	.	4.ryy	.	4.ryy	.	4.ryy	.	4.ryy	.	4.ryy	.	4.ryy	.	4.ryy	.	4.ryy	.	4.ryy	.
.	.	.	.	.	.	.	16d\LL	.	16fn/LL 16A/	.	.	.	.	.	.	.	.	.	.	.	.	.	.	.	.	.	.	.	.	.	.	.	.	.	.	.
8r	.	8ryy	.	8r	.	.	16d\	.	16f/ 16A/	.	.	.	.	.	.	.	.	.	.	.	.	.	.	.	.	.	.	.	.	.	.	.	.	.	.	.
.	.	.	.	.	.	.	16d\JJ	.	16f/JJ 16A/	.	.	.	.	.	.	.	.	.	.	.	.	.	.	.	.	.	.	.	.	.	.	.	.	.	.	.
16D\	.	16D\yy	.	16.d/	Lecz	.	16r	.	16r	.	.	.	.	.	.	.	.	.	.	.	.	.	.	.	.	.	.	.	.	.	.	.	.	.	.	.
16r	.	16ryy	.	.	.	.	16d\	.	16f/ 16A/	.	.	.	.	.	.	.	.	.	.	.	.	.	.	.	.	.	.	.	.	.	.	.	.	.	.	.
.	.	.	.	32e/	co	.	.	.	.	.	.	.	.	.	.	.	.	.	.	.	.	.	.	.	.	.	.	.	.	.	.	.	.	.	.	.
=48	=48	=48	=48	=48	=48	=48	=48	=48	=48	=48	=48	=48	=48	=48	=48	=48	=48	=48	=48	=48	=48	=48	=48	=48	=48	=48	=48	=48	=48	=48	=48	=48	=48	=48	=48	=48
*rep	*	*repyy	*	*	*	*	*rep	*	*rep	*	*	*	*	*	*	*	*	*	*	*	*	*	*	*	*	*	*	*	*	*	*	*	*	*	*	*
8D\	.	8D\yy	.	8g/	wi-	.	16r	.	16r	.	4.r	.	4.ryy	.	4.ryy	.	4.ryy	.	4.ryy	.	4.ryy	.	4.ryy	.	4.ryy	.	4.ryy	.	4.ryy	.	4.ryy	.	4.ryy	.	4.ryy	.
.	.	.	.	.	.	.	16d\LL	.	16fn/LL 16A/	.	.	.	.	.	.	.	.	.	.	.	.	.	.	.	.	.	.	.	.	.	.	.	.	.	.	.
8r	.	8ryy	.	8fn/	-dzę?	.	16d\	.	16f/ 16A/	.	.	.	.	.	.	.	.	.	.	.	.	.	.	.	.	.	.	.	.	.	.	.	.	.	.	.
.	.	.	.	.	.	.	16d\JJ	.	16f/JJ 16A/	.	.	.	.	.	.	.	.	.	.	.	.	.	.	.	.	.	.	.	.	.	.	.	.	.	.	.
16D\	.	16D\yy	.	16.f/	Już	.	16r	.	16r	.	.	.	.	.	.	.	.	.	.	.	.	.	.	.	.	.	.	.	.	.	.	.	.	.	.	.
16r	.	16ryy	.	.	.	.	16d\	.	16f/ 16A/	.	.	.	.	.	.	.	.	.	.	.	.	.	.	.	.	.	.	.	.	.	.	.	.	.	.	.
.	.	.	.	32g/	nad-	.	.	.	.	.	.	.	.	.	.	.	.	.	.	.	.	.	.	.	.	.	.	.	.	.	.	.	.	.	.	.
*Xrep	*	*Xrepy	*	*	*	*	*Xrep	*	*Xrep	*	*	*	*	*	*	*	*	*	*	*	*	*	*	*	*	*	*	*	*	*	*	*	*	*	*	*
=49	=49	=49	=49	=49	=49	=49	=49	=49	=49	=49	=49	=49	=49	=49	=49	=49	=49	=49	=49	=49	=49	=49	=49	=49	=49	=49	=49	=49	=49	=49	=49	=49	=49	=49	=49	=49
*rep	*	*repyy	*	*	*	*	*rep	*	*rep	*	*	*	*	*	*	*	*	*	*	*	*	*	*	*	*	*	*	*	*	*	*	*	*	*	*	*
8D\	.	8D\yy	.	8b-X/	-cho-	.	16r	.	16r	.	4.r	.	4.ryy	.	4.ryy	.	4.ryy	.	4.ryy	.	4.ryy	.	4.ryy	.	4.ryy	.	4.ryy	.	4.ryy	.	4.ryy	.	4.ryy	.	4.ryy	.
.	.	.	.	.	.	.	16d\LL	.	16fn/LL 16A/	.	.	.	.	.	.	.	.	.	.	.	.	.	.	.	.	.	.	.	.	.	.	.	.	.	.	.
8r	.	8ryy	.	8a/	-dzi	.	16d\	.	16f/ 16A/	.	.	.	.	.	.	.	.	.	.	.	.	.	.	.	.	.	.	.	.	.	.	.	.	.	.	.
.	.	.	.	.	.	.	16d\JJ	.	16f/JJ 16A/	.	.	.	.	.	.	.	.	.	.	.	.	.	.	.	.	.	.	.	.	.	.	.	.	.	.	.
16D\	.	16D\yy	.	16.a/	ma	.	16r	.	16r	.	.	.	.	.	.	.	.	.	.	.	.	.	.	.	.	.	.	.	.	.	.	.	.	.	.	.
16r	.	16ryy	.	.	.	.	16d\	.	16f/ 16A/	.	.	.	.	.	.	.	.	.	.	.	.	.	.	.	.	.	.	.	.	.	.	.	.	.	.	.
.	.	.	.	32dd\	je-	.	.	.	.	.	.	.	.	.	.	.	.	.	.	.	.	.	.	.	.	.	.	.	.	.	.	.	.	.	.	.
*Xrep	*	*Xrep	*	*	*	*	*Xrep	*	*Xrep	*	*	*	*	*	*	*	*	*	*	*	*	*	*	*	*	*	*	*	*	*	*	*	*	*	*	*
!!LO:PB:g=original
=50	=50	=50	=50	=50	=50	=50	=50	=50	=50	=50	=50	=50	=50	=50	=50	=50	=50	=50	=50	=50	=50	=50	=50	=50	=50	=50	=50	=50	=50	=50	=50	=50	=50	=50	=50	=50
*	*	*	*	*	*	*	*	*	*	*	*	*	*^	*	*	*	*	*	*	*	*	*	*	*	*	*	*	*	*	*	*	*	*	*	*	*
*	*	*	*	*	*	*	*	*	*	*	*	*	*tremolo	*	*	*	*	*	*	*	*	*	*	*	*	*	*	*	*	*	*	*	*	*	*	*	*
!	!	!	!	!	!	!	!	!	!	!	!	!	!	!	!	!	!	!	!	!	!	!	!	!	!	!	!	!	!	!	!	!	!	!LO:TX:t=P:problem:w taktach 50-51 powtarzam partię Fl, oktawę wyżej	!	!	!
!	!LO:DY:rj	!	!LO:DY:rj	!	!	!	!	!	!	!	!	!	!	!	!	!	!LO:DY:rj	!	!	!	!LO:DY:rj	!	!	!	!	!	!	!	!	!	!	!	!	!LO:TX:a:t=col Fl	!	!	!
8AA/	f	8AA/L	f	4.cc#X\	-dy-	.	8r	.	16r	.	16r	.	8Ree/L	8Ra\	.	8AA/	f	8E\ 8AA\	.	8c#/ 8G/	f	16r	.	8AA/L	.	8r	.	8r	f	16r	.	16r	f	16ryy	fy	16r	f
!	!	!	!	!	!	!	!	!	!	!	!	!LO:DY:rj	!	!	!	!	!	!	!	!	!	!	!	!	!	!	!	!	!	!	!	!	!	!	!	!	!
.	.	.	.	.	.	.	.	.	16gg'\LL	.	16ggg'\LL	f	.	.	.	.	.	.	.	.	.	16gg\LL 16g'\	.	.	.	.	.	.	.	16gg\LL	.	16gg'\LL	.	16ggg'\LLyy	.	16ggg'\LL	.
!	!	!	!	!	!	!	!	!LO:DY:rj	!	!	!	!	!	!	!	!	!	!	!	!	!	!	!	!	!	!	!	!	!	!	!	!	!	!	!	!	!
8r	.	8E/	.	.	.	.	8g\L 8A\	f	16ee'\	.	16eee'\	.	8Ree/	8r	.	8r	.	8r	.	8r	.	16ee\ 16e'\	.	8E/	.	8ee'\L	.	8g\L 8A'\	.	16ee\	.	16ee'\	.	16eee'\yy	.	16eee'\	.
.	.	.	.	.	.	.	.	.	16cc#'\	.	16ccc#'\	.	.	.	.	.	.	.	.	.	.	16cc#'\	.	.	.	.	.	.	.	16cc#\	.	16cc#'\	.	16ccc#'\yy	.	16ccc#'\	.
8r	.	8G/J	.	.	.	.	8e\J 8A\	.	16b'\	.	16bb'\	.	8Ree/J	8r	.	8AA/	.	8r	.	8r	.	16b'\	.	8G/J	.	8cc#X'\J	.	8e\J 8A'\	.	16b\	.	16b'\	.	16bb'\yy	.	16bb'\	.
.	.	.	.	.	.	.	.	.	[16a'\JJ	.	[16aa'\JJ	.	.	.	.	.	.	.	.	.	.	[16a'\JJ	.	.	.	.	.	.	.	[16a\JJ	.	[16a'\JJ	.	[yy16aa'\JJyy	.	[16aa'\JJ	.
=51	=51	=51	=51	=51	=51	=51	=51	=51	=51	=51	=51	=51	=51	=51	=51	=51	=51	=51	=51	=51	=51	=51	=51	=51	=51	=51	=51	=51	=51	=51	=51	=51	=51	=51	=51	=51	=51
*	*	*rep	*	*	*	*	*	*	*	*	*	*	*	*	*	*	*	*	*	*	*	*	*	*	*	*	*	*	*	*	*	*	*	*	*	*	*
8AA/	.	8AA/L	.	4g/	-na	.	8r	.	16a/LL]	.	16aa'\LL]	.	8Ree/L	4.r	.	8AA/	.	8E\ 8AA\	.	8c#/ 8G/	.	16a'/LL]	.	8AA/L	.	8r	.	8r	.	16a\LL]	.	16a/LL]	.	16aa\LL]yy	.	16aa\LL]	.
.	.	.	.	.	.	.	.	.	16b-X'/	.	16bb-X'\	.	.	.	.	.	.	.	.	.	.	16b-X'/	.	.	.	.	.	.	.	16b-X\	.	16b-X/	.	16bb-X'\yy	.	16bb-X'\	.
8r	.	8E/	.	.	.	.	8g\L 8A\	.	16a'/	.	16aa'\	.	8Ree/	.	.	8r	.	8r	.	8r	.	16a'/	.	8E/	.	8ee'\L	.	8g\L 8A'\	.	16a\	.	16a/	.	16aa'\yy	.	16aa'\	.
.	.	.	.	.	.	.	.	.	16g'/	.	16gg'\	.	.	.	.	.	.	.	.	.	.	16g'/	.	.	.	.	.	.	.	16g\	.	16g/	.	16gg'\yy	.	16gg'\	.
8r	.	8G/J	.	16.a/	Ser-	.	8e\J 8A\	.	16fn'/	.	16ffn'\	.	8Ree/J	.	.	8AA/	.	8r	.	8r	.	16fn'/	.	8G/J	.	8cc#X'\J	.	8e\J 8A'\	.	16fX\	.	16fn/	.	16ffn'\yy	.	16ffn'\	.
.	.	.	.	.	.	.	.	.	16e'/JJ	.	16ee'\JJ	.	.	.	.	.	.	.	.	.	.	16e'/JJ	.	.	.	.	.	.	.	16e\JJ	.	16e/JJ	.	16ee'\JJyy	.	16ee'\JJ	.
.	.	.	.	32g/	-ce	.	.	.	.	.	.	.	.	.	.	.	.	.	.	.	.	.	.	.	.	.	.	.	.	.	.	.	.	.	.	.	.
*	*	*Xrep	*	*	*	*	*	*	*	*	*	*	*Xtremolo	*	*	*	*	*	*	*	*	*	*	*	*	*	*	*	*	*	*	*	*	*	*	*	*
*	*	*	*	*	*	*	*	*	*	*	*	*	*v	*v	*	*	*	*	*	*	*	*	*	*	*	*	*	*	*	*	*	*	*	*	*	*	*
=52	=52	=52	=52	=52	=52	=52	=52	=52	=52	=52	=52	=52	=52	=52	=52	=52	=52	=52	=52	=52	=52	=52	=52	=52	=52	=52	=52	=52	=52	=52	=52	=52	=52	=52	=52	=52
8D\	.	8D\	p	8g/	bi-	.	16r	.	16r	p	4.r	.	4.r	.	4.r	.	4.r	.	4.r	.	4.r	.	4.r	.	4.r	.	4.r	.	4.r	.	4.r	.	4.r	.	4.r	.
.	.	.	.	.	.	.	16d\LL	.	16fn/LL 16A/	.	.	.	.	.	.	.	.	.	.	.	.	.	.	.	.	.	.	.	.	.	.	.	.	.	.	.
8r	.	8r	.	8fn/	-ie	.	16d\	.	16f/ 16A/	.	.	.	.	.	.	.	.	.	.	.	.	.	.	.	.	.	.	.	.	.	.	.	.	.	.	.
.	.	.	.	.	.	.	16d\JJ	.	16f/JJ 16A/	.	.	.	.	.	.	.	.	.	.	.	.	.	.	.	.	.	.	.	.	.	.	.	.	.	.	.
16D\	.	16D\	.	16.f/	wzrok	.	16r	.	16r	.	.	.	.	.	.	.	.	.	.	.	.	.	.	.	.	.	.	.	.	.	.	.	.	.	.	.
16r	.	16r	.	.	.	.	16d\	.	16f/ 16A/	.	.	.	.	.	.	.	.	.	.	.	.	.	.	.	.	.	.	.	.	.	.	.	.	.	.	.
.	.	.	.	32g/	nie	.	.	.	.	.	.	.	.	.	.	.	.	.	.	.	.	.	.	.	.	.	.	.	.	.	.	.	.	.	.	.
=53	=53	=53	=53	=53	=53	=53	=53	=53	=53	=53	=53	=53	=53	=53	=53	=53	=53	=53	=53	=53	=53	=53	=53	=53	=53	=53	=53	=53	=53	=53	=53	=53	=53	=53	=53	=53
*	*	*	*	*	*	*	*	*	*	*	*	*	*	*	*	*	*	*	*	*	*^	*	*	*	*	*	*	*	*	*	*^	*	*	*	*	*
!	!	!LO:TX:t=P:problem:w taktach 53-65 powtarzam partie CV, oktawę wyżej	!	!	!	!	!	!	!	!	!	!	!	!	!	!	!	!	!	!	!	!	!	!	!	!	!	!	!	!	!	!	!	!	!	!	!	!
*	*	*	*	*	*	*	*rep	*	*rep	*	*	*	*	*	*	*	*	*	*	*	*	*	*	*	*	*	*	*	*	*	*	*	*	*	*	*	*	*
8D\	.	8D\yy	.	8b-X\	zwo-	.	16r	.	16r	.	8r	.	4.r	.	4.r	.	4.r	.	4.r	.	8r	4.r	.	4.r	.	4.r	.	4.r	.	4.r	.	8r	8ryy	.	4.r	.	8r	.
.	.	.	<	.	.	.	16d\LL	.	16fn/LL 16A/	.	.	.	.	.	.	.	.	.	.	.	.	.	.	.	.	.	.	.	.	.	.	.	.	.	.	.	.	.
8r	.	8ryy	.	8a/	-dzi	.	16d\	.	16f/ 16A/	.	8r	.	.	.	.	.	.	.	.	.	8r	.	.	.	.	.	.	.	.	.	.	8r	8ryy	.	.	.	8r	.
.	.	.	.	.	.	.	16d\JJ	.	16f/JJ 16A/	.	.	.	.	.	.	.	.	.	.	.	.	.	.	.	.	.	.	.	.	.	.	.	.	.	.	.	.	.
!	!	!	!	!	!	!	!	!	!	!	!	!	!	!	!	!	!	!	!	!	!LO:TX:a:t=1o.	!	!	!	!	!	!	!	!	!	!	!	!	!	!	!	!	!
16D\	.	16D\yy	.	16.ffn\	To	.	16r	.	16r	.	16.ffn'\LL	.	.	.	.	.	.	.	.	.	16.fn/LL	.	.	.	.	.	.	.	.	.	.	16.ffn/LL	8a\	.	.	.	16.fffn\LL	.
16r	.	16ryy	.	.	.	.	16d\	.	16f/ 16A/	.	.	.	.	.	.	.	.	.	.	.	.	.	.	.	.	.	.	.	.	.	.	.	.	.	.	.	.	.
.	.	.	.	32dd\	A-	.	.	.	.	.	32dd'\JJk	.	.	.	.	.	.	.	.	.	32d/JJk	.	.	.	.	.	.	.	.	.	.	32dd/JJk	.	.	.	.	32ddd\JJk	.
*	*	*	*	*	*	*	*Xrep	*	*Xrep	*	*	*	*	*	*	*	*	*	*	*	*	*	*	*	*	*	*	*	*	*	*	*	*	*	*	*	*	*
=54	=54	=54	=54	=54	=54	=54	=54	=54	=54	=54	=54	=54	=54	=54	=54	=54	=54	=54	=54	=54	=54	=54	=54	=54	=54	=54	=54	=54	=54	=54	=54	=54	=54	=54	=54	=54	=54	=54
*	*	*	*	*	*	*	*	*	*	*	*	*	*	*	*	*	*	*	*	*	*	*	*	*	*	*^	*	*	*	*	*	*	*	*	*	*	*	*
8E\	.	8E\yy	[ fyy	4.ccn\	-li-	.	16r	.	16r	.	(4.ccn\	.	4.r	.	4.r	.	4.r	.	4.r	.	4.cn/	4.r	.	4.e\ 4.E\	.	4.cc/	4.g\	.	4.r	.	4.r	.	4.ccn/	4.g\	.	4.r	.	4.cccn\	.
.	.	.	.	.	.	.	16cn\LL	.	16g/LL 16G/	.	.	.	.	.	.	.	.	.	.	.	.	.	.	.	.	.	.	.	.	.	.	.	.	.	.	.	.	.	.
8r	.	8ryy	.	.	.	.	16c\	.	16g/ 16G/	.	.	.	.	.	.	.	.	.	.	.	.	.	.	.	.	.	.	.	.	.	.	.	.	.	.	.	.	.	.
.	.	.	.	.	.	.	16c\JJ	.	16g/JJ 16G/	.	.	.	.	.	.	.	.	.	.	.	.	.	.	.	.	.	.	.	.	.	.	.	.	.	.	.	.	.	.
16E\	.	16E\yy	.	.	.	.	16r	.	16r	.	.	.	.	.	.	.	.	.	.	.	.	.	.	.	.	.	.	.	.	.	.	.	.	.	.	.	.	.	.
16r	.	16ryy	.	.	.	.	16c\	.	16g/ 16G/	.	.	.	.	.	.	.	.	.	.	.	.	.	.	.	.	.	.	.	.	.	.	.	.	.	.	.	.	.	.
*	*	*	*	*	*	*	*	*	*	*	*	*	*	*	*	*	*	*	*	*	*v	*v	*	*	*	*	*	*	*	*	*	*	*	*	*	*	*	*	*
!!LO:PB:g=original
=55	=55	=55	=55	=55	=55	=55	=55	=55	=55	=55	=55	=55	=55	=55	=55	=55	=55	=55	=55	=55	=55	=55	=55	=55	=55	=55	=55	=55	=55	=55	=55	=55	=55	=55	=55	=55	=55	=55
8Fn\	.	8Fn\yy	.	4a/	-na	.	8cn/ 8Fn/	.	16fn/ 16A/	.	4a/)	.	4.r	.	4.r	.	4.r	.	4.r	.	4A/	.	4fn\ 4Fn\	.	4cc/	4a\	.	4.r	.	4.r	.	4a/	4fn\	.	4.r	.	4aa\	.
.	.	.	.	.	.	.	.	.	16A/LL	.	.	.	.	.	.	.	.	.	.	.	.	.	.	.	.	.	.	.	.	.	.	.	.	.	.	.	.	.
8r	.	8ryy	.	.	.	.	8r	.	16cn/	.	.	.	.	.	.	.	.	.	.	.	.	.	.	.	.	.	.	.	.	.	.	.	.	.	.	.	.	.
.	.	.	.	.	.	.	.	.	16f/	.	.	.	.	.	.	.	.	.	.	.	.	.	.	.	.	.	.	.	.	.	.	.	.	.	.	.	.	.
8F\	.	8F\yy	.	8r	.	.	8c/ 8F/	.	16a/	.	8r	.	.	.	.	.	.	.	.	.	8r	.	8r	.	8r	8ryy	.	.	.	.	.	8r	8ryy	.	.	.	8r	.
.	.	.	.	.	.	.	.	.	16A/JJ	.	.	.	.	.	.	.	.	.	.	.	.	.	.	.	.	.	.	.	.	.	.	.	.	.	.	.	.	.
*	*	*	*	*	*	*	*	*	*	*	*	*	*	*	*	*	*	*	*	*	*	*	*	*	*v	*v	*	*	*	*	*	*v	*v	*	*	*	*	*
=56	=56	=56	=56	=56	=56	=56	=56	=56	=56	=56	=56	=56	=56	=56	=56	=56	=56	=56	=56	=56	=56	=56	=56	=56	=56	=56	=56	=56	=56	=56	=56	=56	=56	=56	=56	=56
8E\	.	8E\yy	.	4a/	Ah!	.	8c#X/ 8E/	.	16r	.	4.r	.	4.ryy	.	4.ryy	.	4.ryy	.	4.ryy	.	4.r	.	4.r	.	4.r	.	8r	.	4.r	.	4.r	.	4.r	.	4.r	.
.	.	.	.	.	.	.	.	.	16A/LL	.	.	.	.	.	.	.	.	.	.	.	.	.	.	.	.	.	.	.	.	.	.	.	.	.	.	.
8r	.	8ryy	.	.	.	.	8r	.	16c#X/	.	.	.	.	.	.	.	.	.	.	.	.	.	.	.	.	.	4a\ 4A\	.	.	.	.	.	.	.	.	.
.	.	.	.	.	.	.	.	.	16e/	.	.	.	.	.	.	.	.	.	.	.	.	.	.	.	.	.	.	.	.	.	.	.	.	.	.	.
8E\	.	8E\yy	.	8r	.	.	8c#/ 8E/	.	16a/	.	.	.	.	.	.	.	.	.	.	.	.	.	.	.	.	.	.	.	.	.	.	.	.	.	.	.
.	.	.	.	.	.	.	.	.	16A/JJ	.	.	.	.	.	.	.	.	.	.	.	.	.	.	.	.	.	.	.	.	.	.	.	.	.	.	.
=57	=57	=57	=57	=57	=57	=57	=57	=57	=57	=57	=57	=57	=57	=57	=57	=57	=57	=57	=57	=57	=57	=57	=57	=57	=57	=57	=57	=57	=57	=57	=57	=57	=57	=57	=57	=57
8D\	.	8D\yy	.	4a/	Ah!	.	8d/ 8Fn/	.	16r	.	4.r	.	4.ryy	.	4.ryy	.	4.ryy	.	4.ryy	.	4.r	.	4.r	.	4.r	.	8r	.	4.r	.	4.r	.	4.r	.	4.r	.
.	.	.	.	.	.	.	.	.	16A/LL	.	.	.	.	.	.	.	.	.	.	.	.	.	.	.	.	.	.	.	.	.	.	.	.	.	.	.
8r	.	8ryy	.	.	.	.	8r	.	16d/	.	.	.	.	.	.	.	.	.	.	.	.	.	.	.	.	.	4a\ 4A\	.	.	.	.	.	.	.	.	.
.	.	.	.	.	.	.	.	.	16fn/	.	.	.	.	.	.	.	.	.	.	.	.	.	.	.	.	.	.	.	.	.	.	.	.	.	.	.
8D\	.	8D\yy	.	8r	.	.	8d/ 8G/	.	16a/	.	.	.	.	.	.	.	.	.	.	.	.	.	.	.	.	.	.	.	.	.	.	.	.	.	.	.
.	.	.	.	.	.	.	.	.	16A/JJ	.	.	.	.	.	.	.	.	.	.	.	.	.	.	.	.	.	.	.	.	.	.	.	.	.	.	.
=58	=58	=58	=58	=58	=58	=58	=58	=58	=58	=58	=58	=58	=58	=58	=58	=58	=58	=58	=58	=58	=58	=58	=58	=58	=58	=58	=58	=58	=58	=58	=58	=58	=58	=58	=58	=58
*	*	*	*	*	*	*	*	*	*	*	*	*	*	*	*	*	*	*	*	*	*	*	*	*	*	*	*	*	*^	*	*	*	*	*	*	*
8BB-X/	.	8BB-X/yy	.	8r	.	.	8d/ 8B-X/	.	16r	.	8r	.	4.ryy	.	4.ryy	.	4.ryy	.	4.ryy	.	4.r	.	(4.B-X\ (4.BB-X\	.	4.r	.	8r	.	8r	4.r	.	4.r	.	4.r	.	8r	.
.	.	.	.	.	.	.	.	.	16d/LL	.	.	.	.	.	.	.	.	.	.	.	.	.	.	.	.	.	.	.	.	.	.	.	.	.	.	.	.
!	!	!	!	!	!	!	!	!	!	!	!	!LO:DY:rj	!	!	!	!	!	!	!	!	!	!	!	!	!	!	!	!	!	!	!LO:DY:a:rj	!	!	!	!	!	!
8r	.	8ryy	.	8.dd\	to	.	8r	.	16fn/	.	8.dd\L|	p	.	.	.	.	.	.	.	.	.	.	.	.	.	.	(4d/ (4D/	.	8.dd/L	.	p	.	.	.	.	8.ddd\L	.
.	.	.	.	.	.	.	.	.	16g#X/	.	.	.	.	.	.	.	.	.	.	.	.	.	.	.	.	.	.	.	.	.	.	.	.	.	.	.	.
8BB-/	.	8BB-/yy	.	.	.	.	8d/ 8B-/	.	16dd/	.	.	.	.	.	.	.	.	.	.	.	.	.	.	.	.	.	.	.	.	.	.	.	.	.	.	.	.
.	.	.	.	16ee\	A-	.	.	.	16d/JJ	.	16ee\Jk|	.	.	.	.	.	.	.	.	.	.	.	.	.	.	.	.	.	16ee/Jk	.	.	.	.	.	.	16eee\Jk	.
=59	=59	=59	=59	=59	=59	=59	=59	=59	=59	=59	=59	=59	=59	=59	=59	=59	=59	=59	=59	=59	=59	=59	=59	=59	=59	=59	=59	=59	=59	=59	=59	=59	=59	=59	=59	=59	=59
8AA/	.	8AA/yy	.	8cc#X\	-li-	.	8e/ 8A/	.	16r	.	(8cc#X/L	.	4.ryy	.	4.ryy	.	4.ryy	.	4.ryy	.	4.r	.	4A\ 4AA\))	.	4.r	.	4c#/ 4E/))	.	(8cc#X/L	4.r	.	4.r	.	4.r	.	(8ccc#X\L	.
.	.	.	.	.	.	.	.	.	16A/LL	.	.	.	.	.	.	.	.	.	.	.	.	.	.	.	.	.	.	.	.	.	.	.	.	.	.	.	.
8r	.	8ryy	.	8a/	-na	.	8r	.	16e/	.	8a/J)	.	.	.	.	.	.	.	.	.	.	.	.	.	.	.	.	.	8a/J)	.	.	.	.	.	.	8aa\J)	.
.	.	.	.	.	.	.	.	.	16g/	.	.	.	.	.	.	.	.	.	.	.	.	.	.	.	.	.	.	.	.	.	.	.	.	.	.	.	.
8AA/	.	8AA/yy	.	8r	.	.	8c#X/ 8E/	.	16a/	.	8r	.	.	.	.	.	.	.	.	.	.	.	8r	.	.	.	8r	.	8r	.	.	.	.	.	.	8r	.
.	.	.	.	.	.	.	.	.	16A/JJ	.	.	.	.	.	.	.	.	.	.	.	.	.	.	.	.	.	.	.	.	.	.	.	.	.	.	.	.
*	*	*	*	*	*	*	*	*	*	*	*	*	*	*	*	*	*	*	*	*	*	*	*	*	*	*	*	*	*v	*v	*	*	*	*	*	*	*
!!pagebreak:original
=60	=60	=60	=60	=60	=60	=60	=60	=60	=60	=60	=60	=60	=60	=60	=60	=60	=60	=60	=60	=60	=60	=60	=60	=60	=60	=60	=60	=60	=60	=60	=60	=60	=60	=60	=60	=60
*	*	*	*	*	*	*	*^	*	*	*	*	*	*	*	*	*	*	*	*	*	*	*	*	*	*	*	*	*	*	*	*	*	*	*	*	*
8C#X/	.	8C#X/yy	.	4a/	Ah!	.	8c#X/	4ryy	.	16r	.	4.r	.	4.r	.	4.r	.	4.r	.	4.r	.	4.r	.	4.r	.	4.r	.	8r	.	4.r	.	4.r	.	4.r	.	4.r	.
.	.	.	.	.	.	.	.	.	.	16A/LL	.	.	.	.	.	.	.	.	.	.	.	.	.	.	.	.	.	.	.	.	.	.	.	.	.	.	.
8r	.	8ryy	.	.	.	.	8r	.	.	16e/	.	.	.	.	.	.	.	.	.	.	.	.	.	.	.	.	.	4a\ 4A\	.	.	.	.	.	.	.	.	.
.	.	.	.	.	.	.	.	.	.	16g/	.	.	.	.	.	.	.	.	.	.	.	.	.	.	.	.	.	.	.	.	.	.	.	.	.	.	.
!	!	!	!	!	!	!	!LO:TX:t=P:problem:nadprogramowa pauza 8	!	!	!	!	!	!	!	!	!	!	!	!	!	!	!	!	!	!	!	!	!	!	!	!	!	!	!	!	!	!
8C#/	.	8C#/yy	.	8r	.	.	8e/	8c#\	.	16a/	.	.	.	.	.	.	.	.	.	.	.	.	.	.	.	.	.	.	.	.	.	.	.	.	.	.	.
.	.	.	.	.	.	.	.	.	.	16A/JJ	.	.	.	.	.	.	.	.	.	.	.	.	.	.	.	.	.	.	.	.	.	.	.	.	.	.	.
=61	=61	=61	=61	=61	=61	=61	=61	=61	=61	=61	=61	=61	=61	=61	=61	=61	=61	=61	=61	=61	=61	=61	=61	=61	=61	=61	=61	=61	=61	=61	=61	=61	=61	=61	=61	=61	=61
8D\	.	8D\yy	.	4a/	Ah!	.	8ryy	8d\	.	16r	.	4.r	.	4.r	.	4.r	.	4.r	.	4.r	.	4.r	.	4.r	.	4.r	.	8r	.	4.r	.	4.r	.	4.r	.	4.r	.
.	.	.	.	.	.	.	.	.	.	16A/LL	.	.	.	.	.	.	.	.	.	.	.	.	.	.	.	.	.	.	.	.	.	.	.	.	.	.	.
8r	.	8ryy	.	.	.	.	8r	8ryy	.	16d/	.	.	.	.	.	.	.	.	.	.	.	.	.	.	.	.	.	4a\ 4A\	.	.	.	.	.	.	.	.	.
.	.	.	.	.	.	.	.	.	.	16fn/	.	.	.	.	.	.	.	.	.	.	.	.	.	.	.	.	.	.	.	.	.	.	.	.	.	.	.
8D\	.	8D\yy	.	8r	.	.	8fn/	8d\	.	16a/	.	.	.	.	.	.	.	.	.	.	.	.	.	.	.	.	.	.	.	.	.	.	.	.	.	.	.
.	.	.	.	.	.	.	.	.	.	16A/JJ	.	.	.	.	.	.	.	.	.	.	.	.	.	.	.	.	.	.	.	.	.	.	.	.	.	.	.
=62	=62	=62	=62	=62	=62	=62	=62	=62	=62	=62	=62	=62	=62	=62	=62	=62	=62	=62	=62	=62	=62	=62	=62	=62	=62	=62	=62	=62	=62	=62	=62	=62	=62	=62	=62	=62	=62
*	*	*	*	*	*	*	*	*	*	*	*	*	*	*	*	*	*	*	*	*	*	*	*	*	*	*	*	*	*	*^	*	*	*	*	*	*	*
!	!	!	!	!	!	!	!	!	!	!	!	!	!	!	!	!	!	!	!	!	!	!	!	!	!	!	!	!	!	!	!	!	!LO:TX:t=P:problem:w źródle w taktach 62-65 partie oboju i clarnetu zamienione	!	!	!	!	!
!	!	!	!	!	!	!	!	!	!	!	!	!	!	!	!	!	!	!	!	!	!	!	!	!	!	!	!	!	!	!LO:TX:a:t=Clar.	!	!	!LO:TX:a:t=Oboe	!	!	!	!	!
8BB-X/	.	8BB-X/yy	.	4dd\	to	.	8d/	8B-X\	.	16r	.	8r	.	4.r;	.	4.r;	.	4.r;	.	4.r;	.	4.r;	.	[4B-X\ [>4BB-X\	.	4.r;	.	8r	.	8r	4.r	.	4.r;	.	4.r;	.	8r	.
.	.	.	.	.	.	.	.	.	.	16d/LL	.	.	.	.	.	.	.	.	.	.	.	.	.	.	.	.	.	.	.	.	.	.	.	.	.	.	.	.
8r	.	8ryy	.	.	.	.	8r	8ryy	.	16fn/	.	(8dd\L	.	.	.	.	.	.	.	.	.	.	.	.	.	.	.	[8d/L [8D/	.	(8dd/L	.	.	.	.	.	.	(8ddd\L	.
.	.	.	.	.	.	.	.	.	.	16g#X/	.	.	.	.	.	.	.	.	.	.	.	.	.	.	.	.	.	.	.	.	.	.	.	.	.	.	.	.
!	!	!	!	!	!	!	!	!	!	!	!	!	!	!	!	!	!	!	!	!	!	!	!	!LO:N:vis=8	!	!	!	!	!	!	!	!	!	!	!	!	!	!
16BB-/	.	16BB-/yy	.	8g#X;/	A-	.	16d/	16B-\	.	16d/JJ	.	16g#X/Jk)	.	.	.	.	.	.	.	.	.	.	.	16B-\] 16BB-\]	.	.	.	16d/]Jk 16D/]	.	16g#/Jk)	.	.	.	.	.	.	16gg#X\Jk	.
16r;	.	16r;yy	.	.	.	.	16r;	16ryy	.	16r;	.	16r;	.	.	.	.	.	.	.	.	.	.	.	16r;	.	.	.	16r;	.	16r;	.	.	.	.	.	.	16r;	.
*	*	*	*	*	*	*	*v	*v	*	*	*	*	*	*	*	*	*	*	*	*	*	*	*	*	*	*	*	*	*	*v	*v	*	*	*	*	*	*	*
=63	=63	=63	=63	=63	=63	=63	=63	=63	=63	=63	=63	=63	=63	=63	=63	=63	=63	=63	=63	=63	=63	=63	=63	=63	=63	=63	=63	=63	=63	=63	=63	=63	=63	=63	=63	=63
*	*	*	*	*	*	*	*	*	*	*	*	*	*^	*	*	*	*	*	*	*	*	*	*	*	*	*	*	*	*	*	*	*	*	*	*	*
8r	.	8ryy	.	8bn/	-li-	.	8r	.	8r	.	8r	f	8r	8ryy	.	8r	.	8r	.	8r	.	8r	.	8r	.	8r	.	8r	.	8r	.	8r	.	8r	.	8r	.
!	!LO:DY:rj	!	!LO:DY:rj	!	!	!	!	!LO:DY:rj	!	!	!	!	!	!	!	!	!	!	!	!	!	!	!	!	!	!	!LO:DY:rj	!	!	!	!	!	!LO:DY:rj	!	!	!	!LO:DY:rj
8AA^/	f	8AA^/yy	fyy	8a/	-na	.	8e\ 8A\	f	8e/ 8A^/	.	8a/ 8c#^/	.	8Ree/	8Ra\	.	8AA/	.	8A\ 8AA\	.	8e\ 8c#\	.	8a/ 8c#/	.	8A\ 8AA\	.	8ee\ 8cc#X\	f	8a\ 8A\	.	8cc#\ 8a\	.	8ee\ 8cc#\	f	8aa\	.	8aa\	f
8r	.	8ryy	.	8r	.	.	8r	.	8r	.	8r	.	8r	8ryy	.	8r	.	8r	.	8r	.	8r	.	8r	.	8r	.	8r	.	8r	.	8r	.	8r	.	8r	.
=64	=64	=64	=64	=64	=64	=64	=64	=64	=64	=64	=64	=64	=64	=64	=64	=64	=64	=64	=64	=64	=64	=64	=64	=64	=64	=64	=64	=64	=64	=64	=64	=64	=64	=64	=64	=64	=64
8r	.	8ryy	.	4cc#X\	Ah!	.	8r	.	8r	.	8r	.	8r	8ryy	.	8r	.	8r	.	8r	.	8r	.	8r	.	8r	.	8r	.	8r	.	8r	.	8r	.	8r	.
!	!	!	!	!	!	!	!	!LO:DY:rj	!	!	!	!	!	!	!	!	!	!	!	!	!	!	!	!	!	!	!	!	!	!	!	!	!	!	!	!	!
8AA^/	.	8AA^/yy	.	.	.	.	8e\ 8A\	f	8g/ 8A^/	.	8cc#/ 8e^/	.	8Ree/	8Ra\	.	8AA/	.	8A\ 8AA\	.	8e\ 8c#\	.	8cc#/ 8e/	.	8A\ 8AA\	.	8ee\ 8cc#X\	.	8a\ 8A\	.	8cc#\ 8a\	.	8aa\ 8ee\	.	8ccc#\	.	8ccc#\	.
8r	.	8ryy	.	8r	.	.	8r	.	8r	.	8r	.	8r	8ryy	.	8r	.	8r	.	8r	.	8r	.	8r	.	8r	.	8r	.	8r	.	8r	.	8r	.	8r	.
=65	=65	=65	=65	=65	=65	=65	=65	=65	=65	=65	=65	=65	=65	=65	=65	=65	=65	=65	=65	=65	=65	=65	=65	=65	=65	=65	=65	=65	=65	=65	=65	=65	=65	=65	=65	=65	=65
8r	.	8ryy	.	4.ee\	Ah!	.	8r	.	8r	.	8r	.	8r	8ryy	.	8r	.	8r	.	8r	.	8r	.	8r	.	8r	.	8r	.	8r	.	8r	.	8r	.	8r	.
!	!	!	!	!	!	!	!	!LO:DY:rj	!	!	!	!	!	!	!	!	!	!	!	!	!	!	!	!	!	!	!	!	!	!	!	!	!	!	!	!	!
8AA^/	.	8AA^/yy	.	.	.	.	8e\ 8A\	f	8cc#\ 8g^<\	.	8ee\ 8a^<\	.	8Ree/	8Ra\	.	8AA/	.	8A\ 8AA\	.	8e\ 8c#\	.	8ee/ 8g/	.	8A\ 8AA\	.	8ee\ 8cc#X\	.	8a\ 8A\	.	8ee\ 8cc#\	.	8ccc#\ 8gg\	.	8eee\	.	8eee\	.
8r	.	8ryy	.	.	.	.	8r	.	8r	.	8r	.	8r	8ryy	.	8r	.	8r	.	8r	.	8r	.	8r	.	8r	.	8r	.	8r	.	8r	.	8r	.	8r	.
*	*	*	*	*	*	*	*	*	*	*	*	*	*v	*v	*	*	*	*	*	*	*	*	*	*	*	*	*	*	*	*	*	*	*	*	*	*	*
!!LO:PB:g=original
=66	=66	=66	=66	=66	=66	=66	=66	=66	=66	=66	=66	=66	=66	=66	=66	=66	=66	=66	=66	=66	=66	=66	=66	=66	=66	=66	=66	=66	=66	=66	=66	=66	=66	=66	=66	=66
4.r;	.	4.r;	.	(16gg\LL	to	.	4.r;	.	4.r;	.	4.r;	.	4.r;	.	4.r;	.	4.r;	.	4.r;	.	4.r;	.	4.r;	.	4.r;	.	4.r;	.	4.r;	.	4.r;	.	4.r;	.	4.r;	.
!	!	!	!	!LO:TX:B:i:t=rall.	!	!	!	!	!	!	!	!	!	!	!	!	!	!	!	!	!	!	!	!	!	!	!	!	!	!	!	!	!	!	!	!
.	.	.	.	16ee\JJ)	.	.	.	.	.	.	.	.	.	.	.	.	.	.	.	.	.	.	.	.	.	.	.	.	.	.	.	.	.	.	.	.
.	.	.	.	(16cc#\LL	A-	.	.	.	.	.	.	.	.	.	.	.	.	.	.	.	.	.	.	.	.	.	.	.	.	.	.	.	.	.	.	.
.	.	.	.	16b\JJ)	.	.	.	.	.	.	.	.	.	.	.	.	.	.	.	.	.	.	.	.	.	.	.	.	.	.	.	.	.	.	.	.
.	.	.	.	16.a;/	-li-	.	.	.	.	.	.	.	.	.	.	.	.	.	.	.	.	.	.	.	.	.	.	.	.	.	.	.	.	.	.	.
.	.	.	.	32g/	-na	.	.	.	.	.	.	.	.	.	.	.	.	.	.	.	.	.	.	.	.	.	.	.	.	.	.	.	.	.	.	.
=67	=67	=67	=67	=67	=67	=67	=67	=67	=67	=67	=67	=67	=67	=67	=67	=67	=67	=67	=67	=67	=67	=67	=67	=67	=67	=67	=67	=67	=67	=67	=67	=67	=67	=67	=67	=67
*	*	*	*	*	*	*	*	*	*	*	*	*	*	*	*	*	*	*	*	*	*	*	*	*	*^	*	*	*	*	*	*^	*	*	*	*	*
!	!LO:DY:rj	!LO:TX:t=P:problem:w taktach 67-86 powtarzam partię CB, oktawę wyżej	!LO:DY:rj	!LO:TX:B:i:t=rall.	!	!	!	!	!	!	!	!	!	!	!	!	!	!	!	!	!	!	!	!	!	!	!	!	!LO:DY:rj	!	!	!	!	!	!	!	!	!
8D\	p	8D\yy	py	16.f#/	Przy-	.	8r	.	8r	p	4.r	.	4.r	.	4.r	.	4.r	.	4.r	.	4.r	.	4.r	.	8dd/	8dd\	.	8f#\ 8A\	p	4.r	.	16r	4.r	.	16r	.	16r	.
!	!	!	!	!	!	!	!	!	!	!	!	!	!	!	!	!	!	!	!	!	!	!	!	!	!	!	!	!	!	!	!	!	!	!	!	!LO:DY:rj	!	!LO:DY:rj
.	.	.	.	.	.	.	.	.	.	.	.	.	.	.	.	.	.	.	.	.	.	.	.	.	.	.	.	.	.	.	.	16aa/	.	.	16ff#\	p	(16ddd'\	p
.	.	.	.	32a/	-bądź	.	.	.	.	.	.	.	.	.	.	.	.	.	.	.	.	.	.	.	.	.	.	.	.	.	.	.	.	.	.	.	.	.
8r	.	8ryy	.	8dd\	mo-	.	8d\L	.	8f#/L 8A/	.	.	.	.	.	.	.	.	.	.	.	.	.	.	.	8r	8ryy	.	8r	.	.	.	16aa/LL	.	.	(16ff#'\LL	.	16ddd'\LL	.
.	.	.	.	.	.	.	.	.	.	.	.	.	.	.	.	.	.	.	.	.	.	.	.	.	.	.	.	.	.	.	.	16aa/	.	.	16ff#'\	.	16ddd'\	.
8r	.	8ryy	.	8f#/	-ja	.	8d\J	.	8f#/J 8A/	.	.	.	.	.	.	.	.	.	.	.	.	.	.	.	8r	8ryy	.	8r	.	.	.	16aa/	.	.	16ff#'\	.	16ddd'\	.
.	.	.	.	.	.	.	.	.	.	.	.	.	.	.	.	.	.	.	.	.	.	.	.	.	.	.	.	.	.	.	.	16aa/JJ	.	.	16ff#'\JJ)	.	16ddd'\JJ)	.
=68	=68	=68	=68	=68	=68	=68	=68	=68	=68	=68	=68	=68	=68	=68	=68	=68	=68	=68	=68	=68	=68	=68	=68	=68	=68	=68	=68	=68	=68	=68	=68	=68	=68	=68	=68	=68	=68	=68
8AA/	.	8AA/yy	.	(16.a/LL	lu-	.	8r	.	8r	.	16.r	.	4.ryy	.	4.ryy	.	4.ryy	.	4.ryy	.	4.ryy	.	8A/ 8AA/	p	16r	16ryy	.	16r	.	4.r	.	8aa/	4.r	.	8gg\	.	8ccc#\	.
.	.	.	.	.	.	.	.	.	.	.	.	.	.	.	.	.	.	.	.	.	.	.	.	.	16ee/	16cc#X\	.	16g\ 16A'\	.	.	.	.	.	.	.	.	.	.
.	.	.	.	32g/JJk)	.	.	.	.	.	.	(32ee\KKL|	.	.	.	.	.	.	.	.	.	.	.	.	.	.	.	.	.	.	.	.	.	.	.	.	.	.	.
8r	.	8ryy	.	4e/	-ba	.	8c#\L	.	8g/L 8A/	.	8bb\	.	.	.	.	.	.	.	.	.	.	.	8r	.	16ee/LL	16cc#\LL	.	(16g\LL 16A'\	.	.	.	8r	.	.	8r	.	8r	.
.	.	.	.	.	.	.	.	.	.	.	.	.	.	.	.	.	.	.	.	.	.	.	.	.	16ee/	16cc#\	.	16g\ 16A'\	.	.	.	.	.	.	.	.	.	.
8r	.	8ryy	.	.	.	.	8c#\J	.	8g/J 8A/	.	8aa\J)	.	.	.	.	.	.	.	.	.	.	.	8r	.	16ee/	16cc#\	.	16g\ 16A'\	.	.	.	8r	.	.	8r	.	8r	.
.	.	.	.	.	.	.	.	.	.	.	.	.	.	.	.	.	.	.	.	.	.	.	.	.	16ee/JJ	16cc#\JJ	.	16g\JJ 16A'\)	.	.	.	.	.	.	.	.	.	.
=69	=69	=69	=69	=69	=69	=69	=69	=69	=69	=69	=69	=69	=69	=69	=69	=69	=69	=69	=69	=69	=69	=69	=69	=69	=69	=69	=69	=69	=69	=69	=69	=69	=69	=69	=69	=69	=69	=69
8D\	.	8D\yy	.	16.f#/	pó-	.	8r	.	8r	.	4.ryy	.	4.ryy	.	4.ryy	.	4.ryy	.	4.ryy	.	4.ryy	.	8A\ 8D\	.	8dd/	8dd\	.	8f#\ 8A\	.	4.r	.	16r	4.r	.	16r	.	16r	.
.	.	.	.	.	.	.	.	.	.	.	.	.	.	.	.	.	.	.	.	.	.	.	.	.	.	.	.	.	.	.	.	16aa/	.	.	(16ff#\	.	(16ddd\	.
.	.	.	.	32a/	-ki	.	.	.	.	.	.	.	.	.	.	.	.	.	.	.	.	.	.	.	.	.	.	.	.	.	.	.	.	.	.	.	.	.
.	.	.	.	(8qee/	.	.	.	.	.	.	.	.	.	.	.	.	.	.	.	.	.	.	.	.	.	.	.	.	.	.	.	.	.	.	.	.	.	.
*	*	*	*	*	*	*	*	*	*	*	*	*	*	*	*	*	*	*	*	*	*	*	*	*	*	*	*	*	*	*	*	*tremolo	*	*	*tremolo	*	*tremolo	*
!	!	!	!	!	!	!	!	!	!	!	!	!	!	!	!	!	!	!	!	!	!	!	!	!	!	!	!	!	!	!	!	!	!	!	!LO:TX:t=....	!	!LO:TX:t=....	!
8r	.	8ryy	.	8dd\)	iesz-	.	8d\L	.	8f#/L 8A/	.	.	.	.	.	.	.	.	.	.	.	.	.	8r	.	8r	8ryy	.	8r	.	.	.	16aa/LL	.	.	16ff#'\LL	.	16ddd'\LL	.
.	.	.	.	.	.	.	.	.	.	.	.	.	.	.	.	.	.	.	.	.	.	.	.	.	.	.	.	.	.	.	.	16aa/	.	.	16ff#'\	.	16ddd'\	.
8r	.	8ryy	.	8f#/	-cze	.	8d\J	.	8f#/J 8A/	.	.	.	.	.	.	.	.	.	.	.	.	.	8r	.	8r	8ryy	.	8r	.	.	.	16aa/	.	.	16ff#'\	.	16ddd'\	.
.	.	.	.	.	.	.	.	.	.	.	.	.	.	.	.	.	.	.	.	.	.	.	.	.	.	.	.	.	.	.	.	16aa/JJ	.	.	16ff#'\JJ)	.	16ddd'\JJ)	.
*	*	*	*	*	*	*	*	*	*	*	*	*	*	*	*	*	*	*	*	*	*	*	*	*	*	*	*	*	*	*	*	*Xtremolo	*	*	*Xtremolo	*	*Xtremolo	*
=70	=70	=70	=70	=70	=70	=70	=70	=70	=70	=70	=70	=70	=70	=70	=70	=70	=70	=70	=70	=70	=70	=70	=70	=70	=70	=70	=70	=70	=70	=70	=70	=70	=70	=70	=70	=70	=70	=70
8AA/	.	8AA/yy	.	4e/	czas	.	8r	.	8r	.	16.r	.	4.ryy	.	4.ryy	.	4.ryy	.	4.ryy	.	4.ryy	.	8A\ 8AA\	.	16r	16ryy	.	16r	.	4.r	.	8aa/	4.r	.	8gg\	.	8ccc#\	.
.	.	.	.	.	.	.	.	.	.	.	.	.	.	.	.	.	.	.	.	.	.	.	.	.	16ee/	16cc#X\	.	16g\ 16A\	.	.	.	.	.	.	.	.	.	.
.	.	.	.	.	.	.	.	.	.	.	(32ee\KKL|	.	.	.	.	.	.	.	.	.	.	.	.	.	.	.	.	.	.	.	.	.	.	.	.	.	.	.
*	*	*	*	*	*	*	*	*	*	*	*	*	*	*	*	*	*	*	*	*	*	*	*	*	*tremolo	*tremolo	*	*tremolo	*	*	*	*	*	*	*	*	*	*
!	!	!	!	!	!	!	!	!	!	!	!	!	!	!	!	!	!	!	!	!	!	!	!	!	!	!	!	!LO:TX:t=....	!	!	!	!	!	!	!	!	!	!
8r	.	8ryy	.	.	.	.	8c#\L	.	8g/L 8A/	.	8bb\	.	.	.	.	.	.	.	.	.	.	.	8r	.	16ee/LL	16cc#\LL	.	(16g\LL 16A'\	.	.	.	8r	.	.	8r	.	8r	.
.	.	.	.	.	.	.	.	.	.	.	.	.	.	.	.	.	.	.	.	.	.	.	.	.	16ee/	16cc#\	.	16g\ 16A'\	.	.	.	.	.	.	.	.	.	.
8r	.	8ryy	.	8r	.	.	8c#\J	.	8g/J 8A/	.	8aa\J)	.	.	.	.	.	.	.	.	.	.	.	8r	.	16ee/	16cc#\	.	16g\ 16A'\	.	.	.	8r	.	.	8r	.	8r	.
.	.	.	.	.	.	.	.	.	.	.	.	.	.	.	.	.	.	.	.	.	.	.	.	.	16ee/JJ	16cc#\JJ	.	16g\JJ 16A'\)	.	.	.	.	.	.	.	.	.	.
*	*	*	*	*	*	*	*	*	*	*	*	*	*	*	*	*	*	*	*	*	*	*	*	*	*Xtremolo	*Xtremolo	*	*Xtremolo	*	*	*	*	*	*	*	*	*	*
*	*	*	*	*	*	*	*	*	*	*	*	*	*	*	*	*	*	*	*	*	*	*	*	*	*	*	*	*	*	*	*	*v	*v	*	*	*	*	*
!!LO:PB:g=original
=71	=71	=71	=71	=71	=71	=71	=71	=71	=71	=71	=71	=71	=71	=71	=71	=71	=71	=71	=71	=71	=71	=71	=71	=71	=71	=71	=71	=71	=71	=71	=71	=71	=71	=71	=71	=71	=71
*	*	*	*	*	*	*	*	*	*	*	*	*	*	*	*	*	*	*	*	*	*	*	*	*	*	*	*	*	*	*^	*	*	*	*	*	*	*
!	!LO:DY:rj	!	!LO:DY:rj	!	!	!	!	!	!	!	!	!	!	!	!	!	!	!	!	!	!	!	!	!	!	!	!	!	!	!	!	!	!	!	!	!	!	!
8D\	p	8D\yy	py	16.f#/	Jak	.	8r	.	8r	.	4.r	.	4.r	.	4.r	.	4.r	.	4.r	.	4.r	.	4.r	.	8dd/	8dd\	.	8f#\ 8A\	.	16.r	4.r	.	4.r	.	4.r	.	16.r	.
.	.	.	.	32a/	nie	.	.	.	.	.	.	.	.	.	.	.	.	.	.	.	.	.	.	.	.	.	.	.	.	32a/|	.	.	.	.	.	.	32aa\|	.
8r	.	8ryy	.	(16ee\LL	przyj-	.	8d\L	.	8f#/L 8A/	.	.	.	.	.	.	.	.	.	.	.	.	.	.	.	8r	8ryy	.	8r	.	(8ee'/L	.	.	.	.	.	.	(8eee\L	.
.	.	.	.	16dd\JJ)	.	.	.	.	.	.	.	.	.	.	.	.	.	.	.	.	.	.	.	.	.	.	.	.	.	.	.	.	.	.	.	.	.	.
8r	.	8ryy	.	(16cc#\LL	-dziesz	.	8d\J	.	8f#/J 8A/	.	.	.	.	.	.	.	.	.	.	.	.	.	.	.	8r	8ryy	.	8r	.	8dd/J)	.	.	.	.	.	.	8ddd\J)	.
.	.	.	.	16dd\JJ)	.	.	.	.	.	.	.	.	.	.	.	.	.	.	.	.	.	.	.	.	.	.	.	.	.	.	.	.	.	.	.	.	.	.
*	*	*	*	*	*	*	*	*	*	*	*	*	*	*	*	*	*	*	*	*	*	*	*	*	*v	*v	*	*	*	*	*	*	*	*	*	*	*	*
=72	=72	=72	=72	=72	=72	=72	=72	=72	=72	=72	=72	=72	=72	=72	=72	=72	=72	=72	=72	=72	=72	=72	=72	=72	=72	=72	=72	=72	=72	=72	=72	=72	=72	=72	=72	=72	=72
8GG/	.	8GG/yy	.	16.cc#\	pew-	.	8r	.	8r	.	4.r	.	4.ryy	.	4.ryy	.	4.ryy	.	4.ryy	.	4.ryy	.	4.r	.	4.r	.	4.r	.	16.cc#'/LL	4.r	.	4.r	.	4.r	.	16.ccc#'\LL	.
.	.	.	.	32b\	-na	.	.	.	.	.	.	.	.	.	.	.	.	.	.	.	.	.	.	.	.	.	.	.	32b'/JJk	.	.	.	.	.	.	32bb'\JJk	.
8r	.	8ryy	.	8g/	zgu-	.	8e\L	.	8g/L 8B/	.	.	.	.	.	.	.	.	.	.	.	.	.	.	.	.	.	.	.	8g'/L	.	.	.	.	.	.	8gg\L|	.
8r	.	8ryy	.	8e/	-ba	.	8e\J	.	8g/J 8B-X^>/	.	.	.	.	.	.	.	.	.	.	.	.	.	.	.	.	.	.	.	8e'/J	.	.	.	.	.	.	8ee\J|	.
=73	=73	=73	=73	=73	=73	=73	=73	=73	=73	=73	=73	=73	=73	=73	=73	=73	=73	=73	=73	=73	=73	=73	=73	=73	=73	=73	=73	=73	=73	=73	=73	=73	=73	=73	=73	=73	=73
*	*	*	*	*	*	*	*	*	*	*	*	*	*	*	*	*	*	*	*	*	*	*	*	*	*^	*	*	*	*	*	*	*	*	*	*	*	*
8AA/	.	8AA/yy	.	16.c#/	zgu-	.	8r	.	8r	.	4.r	.	4.ryy	.	4.ryy	.	4.ryy	.	4.ryy	.	4.ryy	.	4.r	.	4.ee/	4.cc#X\	.	4.g\ 4.A\	.	16.c#'/LL	4.r	.	4.r	.	4.r	.	16.cc#\LL	.
.	.	.	.	32e/	-ba	.	.	.	.	.	.	.	.	.	.	.	.	.	.	.	.	.	.	.	.	.	.	.	.	32e'/JJk	.	.	.	.	.	.	32ee\JJk	.
8r	.	8ryy	.	8.b/	cze-	.	8c#\L	.	8g/L 8A/	.	.	.	.	.	.	.	.	.	.	.	.	.	.	.	.	.	.	.	.	(8.b/L	.	.	.	.	.	.	(8.bb\L	.
8r	.	8ryy	.	.	.	.	8c#\J	.	8g/J 8A/	.	.	.	.	.	.	.	.	.	.	.	.	.	.	.	.	.	.	.	.	.	.	.	.	.	.	.	.	.
.	.	.	.	16a/	-ka	.	.	.	.	.	.	.	.	.	.	.	.	.	.	.	.	.	.	.	.	.	.	.	.	16a/Jk)	.	.	.	.	.	.	16aa\Jk)	.
=74	=74	=74	=74	=74	=74	=74	=74	=74	=74	=74	=74	=74	=74	=74	=74	=74	=74	=74	=74	=74	=74	=74	=74	=74	=74	=74	=74	=74	=74	=74	=74	=74	=74	=74	=74	=74	=74	=74
8D\	.	8D\yy	.	16e#X/LL	nas	.	8r	.	8r	.	(16ee#X\LL	.	4.ryy	.	4.ryy	.	4.ryy	.	4.ryy	.	4.ryy	.	4.r	.	8r	8ryy	.	8r	.	4.r	4.r	.	4.r	.	(16ee#X\LL	.	4.r	.
.	.	.	.	16f#/JJ	.	.	.	.	.	.	16ff#\JJ)	.	.	.	.	.	.	.	.	.	.	.	.	.	.	.	.	.	.	.	.	.	.	.	16ff#\JJ	.	.	.
8r	.	8ryy	.	8r	.	.	8d\L	.	8f#/L 8A/	.	8aa\L	.	.	.	.	.	.	.	.	.	.	.	.	.	4dd/	4dd\	.	4f#\ 4A\	.	.	.	.	.	.	8aa\L)	.	.	.
8r	.	8ryy	.	8r	.	.	8d\J	.	8f#/J 8A/	.	8dd\J	.	.	.	.	.	.	.	.	.	.	.	.	.	.	.	.	.	.	.	.	.	.	.	8dd'\J	.	.	.
*	*	*	*	*	*	*	*	*	*	*	*	*	*	*	*	*	*	*	*	*	*	*	*	*	*v	*v	*	*	*	*	*	*	*	*	*	*	*	*
=75	=75	=75	=75	=75	=75	=75	=75	=75	=75	=75	=75	=75	=75	=75	=75	=75	=75	=75	=75	=75	=75	=75	=75	=75	=75	=75	=75	=75	=75	=75	=75	=75	=75	=75	=75	=75	=75
*	*	*	*	*	*	*	*rep	*	*rep	*	*	*	*	*	*	*	*	*	*	*	*	*	*	*	*	*	*	*	*	*	*	*	*	*	*	*	*
8D\	.	8D\yy	.	16.f#/	Jak	.	8r	.	8r	.	4.r	.	4.ryy	.	4.ryy	.	4.ryy	.	4.ryy	.	4.ryy	.	4.r	.	4.r	.	4.r	.	16.f#/LL	4.r	.	4.r	.	4.r	.	16.ff#'\LL	.
.	.	.	.	32a/	nie	.	.	.	.	.	.	.	.	.	.	.	.	.	.	.	.	.	.	.	.	.	.	.	32a/JK	.	.	.	.	.	.	32aa'\JK	.
8r	.	8ryy	.	(16aa\LL	przyj-	.	8d\L	.	8f#/L 8A/	.	.	.	.	.	.	.	.	.	.	.	.	.	.	.	.	.	.	.	8aa/J	.	.	.	.	.	.	8aaa'\J	.
.	.	.	.	16ff#\JJ)	.	.	.	.	.	.	.	.	.	.	.	.	.	.	.	.	.	.	.	.	.	.	.	.	.	.	.	.	.	.	.	.	.
8r	.	8ryy	.	(16dd\LL	-dziesz	.	8d\J	.	8f#/J 8A/	.	.	.	.	.	.	.	.	.	.	.	.	.	.	.	.	.	.	.	8r	.	.	.	.	.	.	8r	.
.	.	.	.	16a#X\JJ)	.	.	.	.	.	.	.	.	.	.	.	.	.	.	.	.	.	.	.	.	.	.	.	.	.	.	.	.	.	.	.	.	.
*	*	*	*	*	*	*	*Xrep	*	*Xrep	*	*	*	*	*	*	*	*	*	*	*	*	*	*	*	*	*	*	*	*	*	*	*	*	*	*	*	*
*	*	*	*	*	*	*	*	*	*	*	*	*	*	*	*	*	*	*	*	*	*	*	*	*	*	*	*	*	*v	*v	*	*	*	*	*	*	*
!!LO:PB:g=original
=76	=76	=76	=76	=76	=76	=76	=76	=76	=76	=76	=76	=76	=76	=76	=76	=76	=76	=76	=76	=76	=76	=76	=76	=76	=76	=76	=76	=76	=76	=76	=76	=76	=76	=76	=76	=76
8GG/	.	8GG/yy	.	16.cc#\	pew-	.	8r	.	8r	.	4.r	.	4.r	.	4.r	.	4.r	.	4.r	.	4.r	.	4.r	.	4.r	.	4.r	.	4.r	.	4.r	.	4.r	.	4.r	.
.	.	.	.	32b\	-na	.	.	.	.	.	.	.	.	.	.	.	.	.	.	.	.	.	.	.	.	.	.	.	.	.	.	.	.	.	.	.
8r	.	8ryy	.	8gg\	zgu-	.	8e\L	.	8g/L 8B/	.	.	.	.	.	.	.	.	.	.	.	.	.	.	.	.	.	.	.	.	.	.	.	.	.	.	.
8r	.	8ryy	.	8ee\	-ba	.	8e\J	.	8g/J 8B-X^>/	.	.	.	.	.	.	.	.	.	.	.	.	.	.	.	.	.	.	.	.	.	.	.	.	.	.	.
=77	=77	=77	=77	=77	=77	=77	=77	=77	=77	=77	=77	=77	=77	=77	=77	=77	=77	=77	=77	=77	=77	=77	=77	=77	=77	=77	=77	=77	=77	=77	=77	=77	=77	=77	=77	=77
*	*	*	*	*	*	*	*	*	*	*	*	*	*^	*	*	*	*	*	*	*	*	*	*	*	*	*	*	*	*	*	*	*	*	*	*	*
!	!LO:DY:rj	!	!LO:DY:rj	!	!	!	!	!	!	!LO:DY:rj	!	!LO:DY:rj	!	!	!	!	!LO:DY:rj	!	!	!	!LO:DY:rj	!	!	!	!LO:DY:rj	!	!	!	!LO:DY:rj	!	!	!LO:N:vis=16	!LO:DY:rj	!	!	!	!LO:DY:rj
8AA/	f	8AA/yy	fy	16.cc#\	zgu-	.	8e\ 8c#\	.	8e/ 8A/	f	8cc#/ 8g/	f	8Ree/	8Ra\	.	8AA/	f	8A\ 8AA\	.	8e\ 8c#\	f	8cc#/ 8g/	.	8A\ 8AA\	f	8ee\ 8cc#X\	.	8a\ 8A\	f	8cc#/ 8e/	.	8gg\ 8ee\	f	8ccc#\	.	8ccc#\	f
.	.	.	.	32ee\	-ba	.	.	.	.	.	.	.	.	.	.	.	.	.	.	.	.	.	.	.	.	.	.	.	.	.	.	.	.	.	.	.	.
8r	.	8ryy	.	16.b-X;/	pew-	.	8r;	.	8r;	.	8r;	.	8r	8ryy	.	8r	.	8r	.	8r	.	8r	.	8r	.	8r	.	8r	.	8r	.	8r	.	8r	.	8r	.
.	.	.	.	32a/	na	.	.	.	.	.	.	.	.	.	.	.	.	.	.	.	.	.	.	.	.	.	.	.	.	.	.	.	.	.	.	.	.
.	.	.	.	(8qcc#;/	.	.	.	.	.	.	.	.	.	.	.	.	.	.	.	.	.	.	.	.	.	.	.	.	.	.	.	.	.	.	.	.	.
8r	.	8ryy	.	16.b-;/)	cze-	.	8r;	.	8r;	.	8r;	.	8r;	8r;yy	.	8r;	.	8r;	.	8r;	.	8r;	.	8r;	.	8r;	.	8r;	.	8r;	.	8r;	.	8r;	.	8r;	.
.	.	.	.	32a/	-ka	.	.	.	.	.	.	.	.	.	.	.	.	.	.	.	.	.	.	.	.	.	.	.	.	.	.	.	.	.	.	.	.
=78	=78	=78	=78	=78	=78	=78	=78	=78	=78	=78	=78	=78	=78	=78	=78	=78	=78	=78	=78	=78	=78	=78	=78	=78	=78	=78	=78	=78	=78	=78	=78	=78	=78	=78	=78	=78	=78
*	*	*	*	*	*	*	*	*	*	*	*	*	*	*	*	*	*	*	*	*	*	*	*	*	*	*^	*	*	*	*	*	*	*	*	*	*	*
!	!LO:DY:rj	!	!LO:DY:rj	!	!	!	!	!	!	!	!	!	!	!	!	!	!	!	!	!	!	!	!	!	!	!	!	!	!	!	!	!	!	!	!	!	!	!
16D\	f	16D\yy	fy	8d/	nas.	.	16d\	.	16f#/ 16A/	.	8r	.	8r	8ryy	.	8r	.	8r	.	8r	.	8r	.	8r	.	8r	8ryy	.	8r	.	8r	.	8r	.	8r	.	8r	.
16r	.	16ryy	.	.	.	.	16r	.	16r	.	.	.	.	.	.	.	.	.	.	.	.	.	.	.	.	.	.	.	.	.	.	.	.	.	.	.	.	.
!	!	!	!	!	!	!	!	!	!	!LO:DY:rj	!	!LO:DY:rj	!	!	!	!	!	!	!	!	!	!	!	!	!	!	!	!	!	!LO:DY:rj	!	!	!	!LO:DY:rj	!	!	!	!
8D\	.	8D\yy	.	8r	.	.	8a\ 8d\	.	8f#/ 8A/	f	8dd/ 8f#^/	f	8Ree/	8Ra\	.	8D\	.	8D\	.	8f#\ 8A\	.	8dd/ 8f#/	.	8A\ 8D\	.	8dd/	8dd\	.	8f#/ 8A/	f	8dd/ 8f#/	.	8ff#\ 8dd\	f	8ddd\	.	8ddd\	f
8r	.	8ryy	.	8r	.	.	8r	.	8r	.	8r	.	8r	8ryy	.	8r	.	8r	.	8r	.	8r	.	8r	.	8r	8ryy	.	8r	.	8r	.	8r	.	8r	.	8r	.
*	*	*	*	*	*	*	*	*	*	*	*	*	*	*	*	*	*	*	*	*	*	*	*	*	*	*v	*v	*	*	*	*	*	*	*	*	*	*	*
=79	=79	=79	=79	=79	=79	=79	=79	=79	=79	=79	=79	=79	=79	=79	=79	=79	=79	=79	=79	=79	=79	=79	=79	=79	=79	=79	=79	=79	=79	=79	=79	=79	=79	=79	=79	=79	=79
*	*	*	*	*	*	*	*	*	*	*	*	*	*	*	*	*	*	*	*	*	*	*^	*	*	*	*	*	*	*	*^	*	*	*	*	*	*	*
*	*	*	*	*	*	*	*tremolo	*	*tremolo	*	*	*	*	*	*	*	*	*	*	*	*	*	*	*	*	*	*	*	*	*	*	*	*	*	*	*Xtuplet	*	*	*
!LO:TX:t=P:problem:mixed beam	!	!LO:TX:t=P:problem:mixed beam	!	!	!	!	!	!	!	!	!	!	!	!	!	!	!	!	!	!	!	!	!	!	!	!	!	!	!	!	!	!	!	!	!	!	!	!	!
8AA/L	.	8AA/Lyy	.	4.r	.	.	8e\L	.	8g/L 8A/	.	(24cc#\LL	.	8r	4Ra\	.	8r	.	8r	.	8r	.	4.cc#/	4.g\	.	4.A\ 4.AA\	.	4.ee\ 4.cc#X\	.	4.g/ 4.A/	.	4.a/	4.g\	.	(24cc#\LL	.	(24cc#\LL	.	(24cc#\LL	.
.	.	.	.	.	.	.	.	.	.	.	24dd\	.	.	.	.	.	.	.	.	.	.	.	.	.	.	.	.	.	.	.	.	.	.	24dd\	.	24dd\	.	24dd\	.
.	.	.	.	.	.	.	.	.	.	.	24ee\JJ	.	.	.	.	.	.	.	.	.	.	.	.	.	.	.	.	.	.	.	.	.	.	24ee\JJ	.	24ee\JJ	.	24ee\JJ	.
*	*	*	*	*	*	*	*	*	*	*	*	*	*tremolo	*	*	*	*	*	*	*	*	*	*	*	*	*	*	*	*	*	*	*	*	*	*	*	*	*	*
8A\	.	8A\yy	.	.	.	.	8e\	.	8g/ 8A/	.	24ff#\LL	.	32Ree/LLL	.	.	8AA/L	.	8E/L 8AA/	.	8c#/L 8G/	.	.	.	.	.	.	.	.	.	.	.	.	.	24ff#\LL	.	24ff#\LL	.	24ff#\LL	.
.	.	.	.	.	.	.	.	.	.	.	.	.	32Ree/	.	.	.	.	.	.	.	.	.	.	.	.	.	.	.	.	.	.	.	.	.	.	.	.	.	.
.	.	.	.	.	.	.	.	.	.	.	24gg\	.	.	.	.	.	.	.	.	.	.	.	.	.	.	.	.	.	.	.	.	.	.	24gg\	.	24gg\	.	24gg\	.
.	.	.	.	.	.	.	.	.	.	.	.	.	32Ree/	.	.	.	.	.	.	.	.	.	.	.	.	.	.	.	.	.	.	.	.	.	.	.	.	.	.
.	.	.	.	.	.	.	.	.	.	.	24gg#X\JJ)	.	.	.	.	.	.	.	.	.	.	.	.	.	.	.	.	.	.	.	.	.	.	24gg#X\JJ)	.	24gg#X\JJ)	.	24gg#X\JJ)	.
.	.	.	.	.	.	.	.	.	.	.	.	.	32Ree/JJ	.	.	.	.	.	.	.	.	.	.	.	.	.	.	.	.	.	.	.	.	.	.	.	.	.	.
*	*	*	*	*	*	*	*	*	*	*	*	*	*Xtremolo	*	*	*	*	*	*	*	*	*	*	*	*	*	*	*	*	*	*	*	*	*	*	*	*	*	*
8AA/J	.	8AA/Jyy	.	.	.	.	8e\J	.	8g/J 8A/	.	(24aa\LL	.	8Ree/J	8r	.	8AA/J	.	8E/J 8AA/	.	8c#/J 8G/	.	.	.	.	.	.	.	.	.	.	.	.	.	(24aa\LL	.	(24aa\LL	.	(24aa\LL	.
.	.	.	.	.	.	.	.	.	.	.	24bb-X\	.	.	.	.	.	.	.	.	.	.	.	.	.	.	.	.	.	.	.	.	.	.	24bb-X\	.	24bb-X\	.	24bb-X\	.
.	.	.	.	.	.	.	.	.	.	.	24aa\JJ)	.	.	.	.	.	.	.	.	.	.	.	.	.	.	.	.	.	.	.	.	.	.	24aa\JJ)	.	24aa\JJ)	.	24aa\JJ)	.
*	*	*	*	*	*	*	*Xtremolo	*	*Xtremolo	*	*	*	*	*	*	*	*	*	*	*	*	*	*	*	*	*	*	*	*	*	*	*	*	*	*	*	*	*	*
*	*	*	*	*	*	*	*	*	*	*	*	*	*	*	*	*	*	*	*	*	*	*v	*v	*	*	*	*	*	*	*	*	*	*	*	*	*	*	*	*
=80	=80	=80	=80	=80	=80	=80	=80	=80	=80	=80	=80	=80	=80	=80	=80	=80	=80	=80	=80	=80	=80	=80	=80	=80	=80	=80	=80	=80	=80	=80	=80	=80	=80	=80	=80	=80	=80	=80
8D\	.	8D\yy	.	4.r	.	.	8d\	.	8f#/ 8A/	.	8aa\	.	16Ree/LL	8Ra\	.	16D\LL	.	16D\LL	.	16d/LL 16F#/	.	16dd/LL 16f#/	.	16A\LL 16D\	.	16dd\LL	.	16f#/LL 16A/	.	16a/LL	16f#\LL	.	16aa\LL	.	16aa\LL	.	16aa\LL	.
.	.	.	.	.	.	.	.	.	.	.	.	.	32r	.	.	32r	.	32r	.	32r	.	32r	.	32r	.	32r	.	32r	.	32r	32r	.	32r	.	32r	.	32r	.
.	.	.	.	.	.	.	.	.	.	.	.	.	32Ree/JJk	.	.	32D\JJk	.	32D\JJk	.	32f#/JJk 32A/	.	32dd/JJk 32f#/	.	32A\JJk 32D\	.	32dd\JJk	.	32f#/JJk 32A/	.	32ff#/JJk	32dd\JJk	.	32ddd\JJk 32aa\	.	32fff#\JJk	.	32fff#\JJk|	.
8r	.	8ryy	.	.	.	.	8r	.	8r	.	8r	.	4Ree/	4Ra\	.	4D\	.	4D\	.	4d/ 4F#/	.	4a/ 4f#/	.	4A\ 4D\	.	4dd\	.	4f#/ 4A/	.	4dd/	4a\	.	4aa\ 4ff#\	.	4ddd\	.	4ddd\|	.
8r	.	8ryy	.	.	.	.	8r	.	8r	.	8r	.	.	.	.	.	.	.	.	.	.	.	.	.	.	.	.	.	.	.	.	.	.	.	.	.	.	.
*	*	*	*	*	*	*	*	*	*	*	*	*	*	*	*	*	*	*	*	*	*	*	*	*	*	*	*	*	*	*v	*v	*	*	*	*	*	*	*
!!LO:PB:g=original
=81	=81	=81	=81	=81	=81	=81	=81	=81	=81	=81	=81	=81	=81	=81	=81	=81	=81	=81	=81	=81	=81	=81	=81	=81	=81	=81	=81	=81	=81	=81	=81	=81	=81	=81	=81	=81	=81
*	*	*	*	*	*	*	*	*	*	*	*	*	*	*	*	*	*	*	*	*	*	*	*	*	*	*^	*	*	*	*	*	*	*	*	*	*	*
*	*	*	*	*	*	*	*	*	*	*	*	*	*	*	*	*	*	*	*	*	*	*	*	*	*	*	*	*	*	*	*	*	*	*	*Xtuplet	*	*tuplet	*
!LO:TX:t=P:problem:mixed beam	!	!LO:TX:t=P:problem:mixed beam	!	!	!	!	!	!	!	!	!	!	!	!	!	!	!	!LO:TX:t=P:problem:mixed beam	!	!	!	!	!	!	!	!	!	!	!	!	!	!	!	!	!	!	!LO:TUP:a	!
8G\L	.	8G\Lyy	.	4.r	.	.	8e\L	.	8g/L 8B/	.	(24ccc#\LL	.	8Ree/	8Ra\	.	8r	.	8G\L	.	8e/L 8G/	.	8b/L 8g/	.	8G/L 8GG/	.	8ee/	8ee\	.	8g\ 8B\	.	(24cc#\LL	.	(24ccc#\LL	.	24ccc#\LL	.	(24ccc#\LL	.
.	.	.	.	.	.	.	.	.	.	.	24cccn\	.	.	.	.	.	.	.	.	.	.	.	.	.	.	.	.	.	.	.	24ccX\	.	24cccn\	.	24cccn\	.	24cccn\	.
.	.	.	.	.	.	.	.	.	.	.	24bb\JJ	.	.	.	.	.	.	.	.	.	.	.	.	.	.	.	.	.	.	.	24b\JJ	.	24bb\JJ	.	24bb\JJ	.	24bb\JJ	.
*	*	*	*	*	*	*	*	*	*	*	*	*	*tremolo	*	*	*	*	*	*	*	*	*	*	*	*	*	*	*	*	*	*	*	*	*	*	*	*	*
!	!	!	!	!	!	!	!	!	!	!	!	!	!	!	!	!	!	!	!	!	!	!	!	!	!	!	!	!	!	!	!	!	!	!	!	!	!LO:TUP:a	!
8A\	.	8A\yy	.	.	.	.	8d\	.	8f#/ 8A/	.	24aa\LL	.	32Ree/LLL	8r	.	8D/L	.	8A\	.	8d/ 8F#/	.	8a/ 8f#/	.	8A/ 8AA/	.	8dd\L	4ryy	.	8f#\ 8A\L	.	24a\LL	.	24aa\LL	.	24aa\LL	.	24aa\LL	.
.	.	.	.	.	.	.	.	.	.	.	.	.	32Ree/	.	.	.	.	.	.	.	.	.	.	.	.	.	.	.	.	.	.	.	.	.	.	.	.	.
.	.	.	.	.	.	.	.	.	.	.	24gg\)	.	.	.	.	.	.	.	.	.	.	.	.	.	.	.	.	.	.	.	24g\)	.	24gg\)	.	24gg\	.	24gg\)	.
.	.	.	.	.	.	.	.	.	.	.	.	.	32Ree/	.	.	.	.	.	.	.	.	.	.	.	.	.	.	.	.	.	.	.	.	.	.	.	.	.
.	.	.	.	.	.	.	.	.	.	.	24ff#\JJ	.	.	.	.	.	.	.	.	.	.	.	.	.	.	.	.	.	.	.	24f#\JJ	.	24ff#\JJ	.	24ff#\JJ	.	24ff#\JJ	.
.	.	.	.	.	.	.	.	.	.	.	.	.	32Ree/JJ	.	.	.	.	.	.	.	.	.	.	.	.	.	.	.	.	.	.	.	.	.	.	.	.	.
*	*	*	*	*	*	*	*	*	*	*	*	*	*Xtremolo	*	*	*	*	*	*	*	*	*	*	*	*	*	*	*	*	*	*	*	*	*	*	*	*	*
!	!	!	!	!	!	!	!	!	!	!	!	!	!	!	!	!	!	!	!	!	!	!	!	!	!	!	!	!	!	!	!	!	!	!	!	!	!LO:TUP:a	!
8AA/J	.	8AA/Jyy	.	.	.	.	8e\J 8c#\	.	8g/J 8A/	.	(24ee\LL	.	8Ree/J	8Ra\	.	8AA/J	.	8AA/J	.	8d/J 8F#/	.	8cc#/J 8g/	.	8A/J 8AA/	.	8ee\J 8cc#X\	.	.	8g\J 8A\	.	(24e/LL	.	(24ee\LL	.	24ee\LL	.	(24ee\LL	.
.	.	.	.	.	.	.	.	.	.	.	24dd\	.	.	.	.	.	.	.	.	.	.	.	.	.	.	.	.	.	.	.	24d/	.	24dd\	.	24dd\	.	24dd\	.
!	!	!	!	!	!	!	!	!	!	!	!	!	!	!	!	!	!	!	!	!	!	!	!	!	!	!	!	!	!	!	!	!	!	!	!LO:TX:t=P:problem:wykreślony 1 takt	!	!LO:TX:t=P:problem:wykreślony 1 takt	!
.	.	.	.	.	.	.	.	.	.	.	24cc#\JJ)	.	.	.	.	.	.	.	.	.	.	.	.	.	.	.	.	.	.	.	24c#/JJ)	.	24cc#\JJ)	.	24cc#\JJ	.	24cc#\JJ)	.
*	*	*	*	*	*	*	*	*	*	*	*	*	*	*	*	*	*	*	*	*	*	*	*	*	*	*	*	*	*	*	*	*	*	*	*	*	*Xtuplet	*
=82	=82	=82	=82	=82	=82	=82	=82	=82	=82	=82	=82	=82	=82	=82	=82	=82	=82	=82	=82	=82	=82	=82	=82	=82	=82	=82	=82	=82	=82	=82	=82	=82	=82	=82	=82	=82	=82	=82
!	!	!	!	!	!	!	!	!	!	!	!	!	!	!	!	!	!	!	!	!	!	!	!	!	!	!	!	!	!	!	!	!	!	!	!LO:TX:t=P:problem:w taktach 82-83 powtarzam partię fletu, oktawę wyżej	!	!	!
!LO:TX:t=P:problem:mixed beam	!	!LO:TX:t=P:problem:mixed beam	!	!	!	!	!	!	!	!	!	!	!	!	!	!	!	!	!	!	!	!	!	!	!	!	!	!	!	!	!	!	!	!	!LO:TX:a:t=col Fl	!	!	!
8BB/L	.	8BB/Lyy	.	4.r	.	.	8d\L	.	8f#/L 8B/	.	(24dd\LL	.	8Ree/	8Ra\	.	8D\	.	8BB/L	.	8d/L 8F#/	.	8dd/L 8f#/	.	8B\L 8BB\	.	8dd/L	8dd\L	.	8f#\L 8B\	.	(24d/LL	.	(24dd\LL	.	(y24dd\LLyy	.	(24dd\LL	.
.	.	.	.	.	.	.	.	.	.	.	24cc#\	.	.	.	.	.	.	.	.	.	.	.	.	.	.	.	.	.	.	.	24c#/	.	24cc#\	.	24cc#\yy	.	24cc#\	.
.	.	.	.	.	.	.	.	.	.	.	24dd\JJ	.	.	.	.	.	.	.	.	.	.	.	.	.	.	.	.	.	.	.	24d/JJ	.	24dd\JJ	.	24dd\JJyy	.	24dd\JJ	.
16B\L	.	16B\Lyy	.	.	.	.	8d#X\	.	8f#/ 8B/	.	24dd#X\LL	.	8r	8r	.	8r	.	16BB/L	.	8d#X/ 8F#/	.	8dd#X/ 8f#/	.	16B\L 16BB\	.	8dd#X/	8dd#\	.	8f#\ 8B\	.	24d#X/LL)	.	24dd#X\LL)	.	24dd#X\LLyy	.	24dd#X\LL	.
.	.	.	.	.	.	.	.	.	.	.	24cc#\	.	.	.	.	.	.	.	.	.	.	.	.	.	.	.	.	.	.	.	24c#/	.	24cc#\	.	24cc#\)yy	.	24cc#\)	.
16A\J	.	16A\Jyy	.	.	.	.	.	.	.	.	.	.	.	.	.	.	.	16AA/J	.	.	.	.	.	16A\J 16AA\	.	.	.	.	.	.	.	.	.	.	.	.	.	.
.	.	.	.	.	.	.	.	.	.	.	24dd#\JJ)	.	.	.	.	.	.	.	.	.	.	.	.	.	.	.	.	.	.	.	24d#/JJ	.	24dd#\JJ	.	24dd#\JJyy	.	24dd#\JJ	.
8G\J	.	8G\Jyy	.	.	.	.	8e\J	.	8g/J 8B/	.	(24ee\LL	.	8r	8r	.	8r	.	8GG/J	.	8e/J 8G/	.	8ee/J 8g/	.	8G\J 8GG\	.	8ee/J	8ee\J	.	8g\J 8B\	.	(24e/LL	.	(24ee\LL	.	(y24ee\LLyy	.	(24ee\LL	.
.	.	.	.	.	.	.	.	.	.	.	24ff#\	.	.	.	.	.	.	.	.	.	.	.	.	.	.	.	.	.	.	.	24f#/	.	24ff#\	.	24ff#\yy	.	24ff#\	.
.	.	.	.	.	.	.	.	.	.	.	24gg\JJ)	.	.	.	.	.	.	.	.	.	.	.	.	.	.	.	.	.	.	.	24g/JJ)	.	24gg\JJ)	.	24gg\JJ)yy	.	24gg\JJ)	.
*	*	*	*	*	*	*	*	*	*	*	*	*	*	*	*	*	*	*	*	*	*	*	*	*	*	*v	*v	*	*	*	*	*	*	*	*	*	*	*
=83	=83	=83	=83	=83	=83	=83	=83	=83	=83	=83	=83	=83	=83	=83	=83	=83	=83	=83	=83	=83	=83	=83	=83	=83	=83	=83	=83	=83	=83	=83	=83	=83	=83	=83	=83	=83	=83
*	*	*	*	*	*	*	*	*	*	*	*	*	*	*tremolo	*	*	*	*	*	*	*	*	*	*tremolo	*	*	*	*	*	*	*	*	*	*	*	*	*
!	!	!	!	!	!	!	!	!	!LO:TX:t=P:problem:mixed beam	!	!	!	!	!	!	!	!	!	!	!	!	!	!	!	!	!	!	!	!	!	!	!	!	!	!	!	!
!LO:TX:t=P:problem:mixed beam	!	!LO:TX:t=P:problem:mixed beam	!	!	!	!	!	!	!	!	!	!	!	!	!	!	!	!	!	!	!	!	!	!	!	!	!	!	!	!	!	!	!	!	!	!	!
8A\L	.	8A\Lyy	.	4.r	.	.	8d\L	.	24f#/|>LL 24A/	.	24ff#\LL|	.	8Ree/L	8Ra\L	.	8D/L	.	8AA/L	.	8d/L 8F#/	.	8dd/L 8f#/	.	8A\L 8AA\	.	8dd\L	.	8f#\L 8A\	.	24f#\LL|	.	8ff#\L 8dd\	.	24ff#\LL|yy	.	24ff#\LL|	.
.	.	.	.	.	.	.	.	.	(24ff#\	.	(24fff#\	.	.	.	.	.	.	.	.	.	.	.	.	.	.	.	.	.	.	(24ff#\	.	.	.	(y24fff#\yy	.	(24fff#\	.
.	.	.	.	.	.	.	.	.	24ee\JJ	.	24eee\JJ	.	.	.	.	.	.	.	.	.	.	.	.	.	.	.	.	.	.	24ee\JJ	.	.	.	24eee\JJyy	.	24eee\JJ	.
*	*	*	*	*	*	*	*	*	*	*	*	*	*tremolo	*	*	*	*	*	*	*	*	*	*	*	*	*	*	*	*	*	*	*	*	*	*	*	*
8A\	.	8A\yy	.	.	.	.	8f#\ 8A\	.	24dd\LL	.	24ddd\LL	.	32Ree/LL	8Ra\	.	8D/	.	8AA/	.	8d/ 8F#/	.	8dd/ 8f#/	.	8A\ 8AA\	.	8dd\	.	8f#\ 8A\	.	24dd\LL	.	8ff#\ 8dd\	.	24ddd\LLyy	.	24ddd\LL	.
.	.	.	.	.	.	.	.	.	.	.	.	.	32Ree/	.	.	.	.	.	.	.	.	.	.	.	.	.	.	.	.	.	.	.	.	.	.	.	.
.	.	.	.	.	.	.	.	.	24cc#\	.	24ccc#\	.	.	.	.	.	.	.	.	.	.	.	.	.	.	.	.	.	.	24cc#\	.	.	.	24ccc#\yy	.	24ccc#\	.
.	.	.	.	.	.	.	.	.	.	.	.	.	32Ree/	.	.	.	.	.	.	.	.	.	.	.	.	.	.	.	.	.	.	.	.	.	.	.	.
.	.	.	.	.	.	.	.	.	24b\JJ	.	24bb\JJ	.	.	.	.	.	.	.	.	.	.	.	.	.	.	.	.	.	.	24b\JJ	.	.	.	24bb\JJyy	.	24bb\JJ	.
.	.	.	.	.	.	.	.	.	.	.	.	.	32Ree/JJ	.	.	.	.	.	.	.	.	.	.	.	.	.	.	.	.	.	.	.	.	.	.	.	.
*	*	*	*	*	*	*	*	*	*	*	*	*	*Xtremolo	*	*	*	*	*	*	*	*	*	*	*	*	*	*	*	*	*	*	*	*	*	*	*	*
8AA/J	.	8AA/Jyy	.	.	.	.	8g\J 8A\	.	24a/LL	.	24aa\LL	.	8Ree/J	8Ra\J	.	8AA/J	.	8AA/J	.	8c#/J 8E/	.	8cc#/J 8e/	.	8A\J 8AA\	.	8ee\J 8cc#X\	.	8g\J 8A\	.	24a\LL	.	8gg\J 8cc#\	.	24aa\LLyy	.	24aa\LL	.
.	.	.	.	.	.	.	.	.	24g/	.	24gg\	.	.	.	.	.	.	.	.	.	.	.	.	.	.	.	.	.	.	24g\	.	.	.	24gg\yy	.	24gg\	.
.	.	.	.	.	.	.	.	.	24e/JJ)	.	24ee\JJ)	.	.	.	.	.	.	.	.	.	.	.	.	.	.	.	.	.	.	24e\JJ)	.	.	.	24ee\JJ)yy	.	24ee\JJ)	.
*	*	*	*	*	*	*	*	*	*	*	*	*	*	*tremolo	*	*	*	*	*	*	*	*	*	*Xtremolo	*	*	*	*	*	*	*	*	*	*	*	*	*
=84	=84	=84	=84	=84	=84	=84	=84	=84	=84	=84	=84	=84	=84	=84	=84	=84	=84	=84	=84	=84	=84	=84	=84	=84	=84	=84	=84	=84	=84	=84	=84	=84	=84	=84	=84	=84	=84
8D/	.	8D/yy	.	4.r	.	.	8f#\ 8A\	.	8d/	.	8dd\	.	8Ree/	8Ra\	.	8D/	.	8D\	.	8d/ 8F#/	.	8dd/ 8f#/	.	8A\ 8D\	.	8dd\	.	8f#\ 8A\	.	8f#/	.	8ff#\ 8dd\	.	8dd\	.	8dd\	.
8r	.	8ryy	.	.	.	.	8r	.	8r	.	8r	.	8r	8r	.	8r	.	8r	.	8r	.	8r	.	8r	.	8r	.	8r	.	8r	.	8r	.	8r	.	8r	.
8AA/	.	8AA/yy	.	.	.	.	8e\ 8A\	.	8cc#/ 8e/	.	8aa\ 8a\	.	8Ree/	8Ra\	.	8AA/	.	8AA/	.	8c#/ 8E/	.	8cc#/ 8e/	.	8A\ 8AA\	.	8ee\ 8cc#X\	.	8a\ 8A\	.	8cc#/ 8e/	.	8aa\ 8cc#\	.	8aa\	.	8ccc#\	.
=85	=85	=85	=85	=85	=85	=85	=85	=85	=85	=85	=85	=85	=85	=85	=85	=85	=85	=85	=85	=85	=85	=85	=85	=85	=85	=85	=85	=85	=85	=85	=85	=85	=85	=85	=85	=85	=85
8D/	.	8D/yy	.	4.r	.	.	8d\	.	8dd/ 8f#/	.	8ff#\ 8a\	.	8Ree/	8Ra\	.	8D/	.	8D\	.	8d/ 8F#/	.	8dd/ 8f#/	.	8A\ 8D\	.	8dd\	.	8a\ 8A\	.	8dd/ 8f#/	.	8ff#\ 8dd\	.	8ff#\	.	8ddd\	.
8r	.	8ryy	.	.	.	.	8r	.	8r	.	8r	.	8r	8r	.	8r	.	8r	.	8r	.	8r	.	8r	.	8r	.	8r	.	8r	.	8r	.	8r	.	8r	.
8AA/	.	8AA/yy	.	.	.	.	8e\ 8A\	.	8gg\ 8a\	.	8ccc#\ 8ee\	.	8Ree/	8Ra\	.	8AA/	.	8AA/	.	8c#/ 8G/	.	8cc#/ 8e/	.	8A\ 8AA\	.	8ee\ 8cc#X\	.	8a\ 8A\	.	8cc#/ 8e/	.	8ccc#\ 8ee\	.	8ccc#\	.	8ccc#\	.
=86	=86	=86	=86	=86	=86	=86	=86	=86	=86	=86	=86	=86	=86	=86	=86	=86	=86	=86	=86	=86	=86	=86	=86	=86	=86	=86	=86	=86	=86	=86	=86	=86	=86	=86	=86	=86	=86
8D/	.	8D/yy	.	4.r	.	.	8f#\ 8A\	.	8ff#\ 8a\	.	8ddd\ 8dd\	.	8Ree/	8Ra\	.	8D/	.	8D\	.	8d/ 8F#/	.	8dd/ 8f#/	.	8A\ 8D\	.	8dd\	.	8a\ 8A\	.	8dd/ 8f#/	.	8ddd\ 8ff#\	.	8ddd\	.	8ddd\	.
8r	.	8ryy	.	.	.	.	8r	.	8r	.	8r	.	8r	8r	.	8r	.	8r	.	8r	.	8r	.	8r	.	8r	.	8r	.	8r	.	8r	.	8r	.	8r	.
8r	.	8ryy	.	.	.	.	8r	.	8r	.	8r	.	8r	8r	.	8r	.	8r	.	8r	.	8r	.	8r	.	8r	.	8r	.	8r	.	8r	.	8r	.	8r	.
*	*	*	*	*	*	*	*	*	*	*	*	*	*v	*v	*	*	*	*	*	*	*	*	*	*	*	*	*	*	*	*	*	*	*	*	*	*	*
==	==	==	==	==	==	==	==	==	==	==	==	==	==	==	==	==	==	==	==	==	==	==	==	==	==	==	==	==	==	==	==	==	==	==	==	==
*-	*-	*-	*-	*-	*-	*-	*-	*-	*-	*-	*-	*-	*-	*-	*-	*-	*-	*-	*-	*-	*-	*-	*-	*-	*-	*-	*-	*-	*-	*-	*-	*-	*-	*-	*-	*-
!!!RDF**kern: | = vertical stroke
!!!RDF**kern: > = above
!!!RDF**kern: < = below
!!!EED: Andrzej Borzym
!!!EST: 2021-06-12
!!!AIN: 1 cbass 1 cello 1 clars 3 empty 1 fagot 1 flt 1 oboe 1 picco 1 timpa 1 tromp 2 tromt 1 viola 2 violn 1 vox
!!!ENC: Andrzej Gręziak
!!!END: 2021-05-22
